dk0113-Y/DRL-path-finding/experiment_records/final_method/A_new_minimum_closure/Anew_E_no_dual_state_split/logs/train_steps.csv
budget_mode,env_steps,episode_idx,train_episode_idx,completed_train_episodes,replay_size,epsilon,loss,q_mean,target_q_mean,td_abs_mean,grad_norm,learner_steps,recent_mean_reward,recent_mean_coverage,recent_success_rate,recent_mean_episode_length,recent_mean_repeat_visit_ratio,recent_accessible_block_count,recent_total_accessible_unknown_area,recent_total_frontier_cluster_count,recent_mean_block_area,recent_local_frontier_coverage,recent_local_frontier_block_area_mean,recent_value_total_block_count_before_cap,recent_value_packed_block_count,recent_value_truncated_block_count,recent_value_block_cap_hit_flag,recent_value_total_entry_count_before_cap,recent_value_packed_entry_count,recent_value_truncated_entry_count,recent_value_entry_cap_hit_block_count,recent_value_entry_cap_hit_flag,recent_value_max_frontier_clusters_per_block,recent_value_mean_frontier_clusters_per_block,recent_info_reward_sum,recent_step_penalty_sum,recent_recent_revisit_penalty_sum,recent_turn_penalty_sum,recent_timeout_penalty_sum,recent_terminal_bonus_sum,recent_delta_empty_sum,recent_delta_obstacle_sum,recent_empty_info_gain_sum,recent_obstacle_info_gain_sum,recent_weighted_obstacle_info_gain_sum,recent_weighted_info_gain_sum,recent_empty_info_reward_sum,recent_obstacle_info_reward_sum,recent_obstacle_info_contribution_ratio,recent_recent_revisit_trigger_count,recent_stall_trigger_count,recent_zero_info_step_count,recent_turn_ge_90_count,recent_turn_135_count,recent_turn_180_count,recent_turn_penalty_weight_sum,recent_timeout_flag,recent_coverage_gain_per_step,recent_weighted_info_gain_per_step,recent_zero_info_rate,recent_recent_revisit_rate,recent_stall_rate,recent_turn_burden_rate,recent_timeout_rate
env_steps,4512,7,7,1,4510,0.9854629333333333,nan,nan,nan,nan,nan,0,2.6473097801208496,0.4518285393714905,0.0,600.0,0.6287140250205994,2.2609524726867676,423.7118835449219,8.605952262878418,240.3872833251953,0.0,0.0,2.2609524726867676,2.2609524726867676,0.0,0.0,8.605952262878418,8.266904830932617,0.3390476107597351,0.19523809850215912,0.19523809850215912,6.175238609313965,4.743441104888916,63.55302047729492,-12.0,-24.805715560913086,-14.09999942779541,-10.0,0.0,622.7142944335938,106.71428680419922,19.821611404418945,3.3968212604522705,0.6793642640113831,20.5009765625,61.446990966796875,2.1060290336608887,0.03350052237510681,206.7142791748047,310.4285583496094,493.1428527832031,387.71429443359375,158.42857360839844,79.42857360839844,235.0,1.0,0.0007530475850217044,0.034168291836977005,0.821904718875885,0.3445238471031189,0.517380952835083,0.3916666805744171,1.0
env_steps,5008,8,8,2,5006,0.9838592,nan,nan,nan,nan,nan,0,-0.12549376487731934,0.4375249743461609,0.0,600.0,0.6310316324234009,2.116041660308838,416.45416259765625,8.722707748413086,253.76210021972656,0.0,0.0,2.116041660308838,2.116041660308838,0.0,0.0,8.722707748413086,8.225000381469727,0.4977083206176758,0.27395832538604736,0.27395832538604736,6.582708358764648,5.279781341552734,60.967010498046875,-12.0,-24.85500144958496,-14.237499237060547,-10.0,0.0,596.25,108.0,18.97922706604004,3.43774676322937,0.687549352645874,19.666778564453125,58.835601806640625,2.1314029693603516,0.036046382039785385,207.125,309.5,495.125,390.75,160.375,80.375,237.29165649414062,1.0,0.0007292083464562893,0.03277795761823654,0.825208306312561,0.3452083468437195,0.5158333778381348,0.39548611640930176,1.0
env_steps,5504,9,9,3,5502,0.9822554666666666,nan,nan,nan,nan,nan,0,0.356290340423584,0.4394555389881134,0.0,600.0,0.6239600777626038,2.0075924396514893,414.5727844238281,8.164073944091797,266.8114929199219,0.0,0.0,2.0075924396514893,2.0075924396514893,0.0,0.0,8.164073944091797,7.7216668128967285,0.44240739941596985,0.24351851642131805,0.24351851642131805,6.246296405792236,5.0728302001953125,61.22740173339844,-12.0,-24.746667861938477,-14.124444007873535,-10.0,0.0,599.5555419921875,104.66666412353516,19.08444595336914,3.3316433429718018,0.6663286685943604,19.750776290893555,59.16178512573242,2.0656189918518066,0.0347428098320961,206.22222900390625,315.4444580078125,496.8888854980469,389.1111145019531,160.44444274902344,78.33333587646484,235.4073944091797,1.0,0.000732425891328603,0.03291795775294304,0.8281481266021729,0.3437037169933319,0.5257408022880554,0.39234569668769836,1.0
env_steps,6000,10,10,4,6000,0.9806517333333333,nan,nan,nan,nan,nan,0,-0.743295431137085,0.4315199851989746,0.0,600.0,0.6264559030532837,1.9733333587646484,417.58087158203125,8.036333084106445,269.8326416015625,0.0,0.0,1.9733333587646484,1.9733333587646484,0.0,0.0,8.036333084106445,7.621167182922363,0.4151666760444641,0.23616667091846466,0.23616667091846466,6.241000175476074,5.047366619110107,60.31870651245117,-12.0,-24.900001525878906,-14.161999702453613,-10.0,0.0,590.7000122070312,102.9000015258789,18.80256462097168,3.2754085063934326,0.6550817489624023,19.4576473236084,58.2879524230957,2.0307533740997314,0.03456148877739906,207.5,312.20001220703125,497.3999938964844,389.0,160.10000610351562,79.5,236.0333251953125,1.0,0.0007192000048235059,0.03242940828204155,0.8289999961853027,0.34583336114883423,0.5203334093093872,0.39338889718055725,1.0
env_steps,6512,10,10,4,6510,0.9789962666666666,nan,nan,nan,nan,nan,0,-0.743295431137085,0.4315199851989746,0.0,600.0,0.6264559030532837,1.9733333587646484,417.58087158203125,8.036333084106445,269.8326416015625,0.0,0.0,1.9733333587646484,1.9733333587646484,0.0,0.0,8.036333084106445,7.621167182922363,0.4151666760444641,0.23616667091846466,0.23616667091846466,6.241000175476074,5.047366619110107,60.31870651245117,-12.0,-24.900001525878906,-14.161999702453613,-10.0,0.0,590.7000122070312,102.9000015258789,18.80256462097168,3.2754085063934326,0.6550817489624023,19.4576473236084,58.2879524230957,2.0307533740997314,0.03456148877739906,207.5,312.20001220703125,497.3999938964844,389.0,160.10000610351562,79.5,236.0333251953125,1.0,0.0007192000048235059,0.03242940828204155,0.8289999961853027,0.34583336114883423,0.5203334093093872,0.39338889718055725,1.0
env_steps,7008,11,11,5,7006,0.9773925333333333,nan,nan,nan,nan,nan,0,0.3806073069572449,0.4395909011363983,0.0,600.0,0.6209348440170288,1.9450000524520874,429.78973388671875,8.189544677734375,277.0183410644531,0.0,0.0,1.9450000524520874,1.9450000524520874,0.0,0.0,8.189544677734375,7.689697265625,0.49984848499298096,0.2933333218097687,0.2933333218097687,6.495303153991699,5.163060665130615,61.613338470458984,-12.0,-25.036365509033203,-14.196362495422363,-10.0,0.0,603.727294921875,103.36363983154297,19.217235565185547,3.2901666164398193,0.6580333709716797,19.87527084350586,59.573429107666016,2.039903402328491,0.03401831164956093,208.63636779785156,311.7272644042969,495.4545593261719,388.81817626953125,160.27272033691406,80.36363983154297,236.60604858398438,1.0,0.0007326515042223036,0.03312544524669647,0.8257575631141663,0.34772729873657227,0.5195454955101013,0.39434340596199036,1.0
env_steps,7504,12,12,6,7502,0.9757888,nan,nan,nan,nan,nan,0,-1.2808810472488403,0.4312499761581421,0.0,600.0,0.6242374181747437,1.919305682182312,440.9933776855469,8.242916107177734,284.4544982910156,0.0,0.0,1.919305682182312,1.919305682182312,0.0,0.0,8.242916107177734,7.727916717529297,0.51500004529953,0.32555556297302246,0.32555556297302246,6.635833263397217,5.206763744354248,59.8157844543457,-12.0,-24.950002670288086,-14.146666526794434,-10.0,0.0,586.4166870117188,98.83333587646484,18.666221618652344,3.145962715148926,0.6291925311088562,19.2954158782959,57.865291595458984,1.950496792793274,0.03319593891501427,207.9166717529297,317.4166564941406,498.3333435058594,387.25,159.4166717529297,80.33333587646484,235.77777099609375,1.0,0.0007187500013969839,0.032159022986888885,0.8305554986000061,0.3465278148651123,0.5290278196334839,0.3929629325866699,1.0
env_steps,8000,13,13,7,7998,0.9741850666666667,nan,nan,nan,nan,nan,0,-2.1784579753875732,0.4249846041202545,0.0,600.0,0.6271599531173706,1.9446154832839966,435.7720947265625,8.210897445678711,277.04107666015625,0.0,0.0,1.9446154832839966,1.9446154832839966,0.0,0.0,8.210897445678711,7.735512733459473,0.4753846526145935,0.30051282048225403,0.30051282048225403,6.534487247467041,5.100560188293457,59.052310943603516,-12.0,-25.070770263671875,-14.159998893737793,-10.0,0.0,578.923095703125,97.61538696289062,18.427692413330078,3.107194185256958,0.6214388608932495,19.04913330078125,57.1258544921875,1.9264603853225708,0.033167965710163116,208.92308044433594,316.4615478515625,499.1538391113281,387.0769348144531,157.07691955566406,81.92308044433594,236.0,1.0,0.0007083076634444296,0.03174855560064316,0.8319230675697327,0.3482051491737366,0.5274358987808228,0.3933332860469818,1.0
env_steps,8512,14,14,8,8510,0.9725296,0.20301315188407898,-0.09415790438652039,-0.062095820903778076,0.39384904503822327,0.5142173171043396,32,-0.857060968875885,0.43026426434516907,0.0,600.0,0.6247920989990234,1.9004762172698975,446.25347900390625,8.372023582458496,293.70892333984375,0.0,0.0,1.9004762172698975,1.9004762172698975,0.0,0.0,8.372023582458496,7.763333320617676,0.6086905598640442,0.3388095200061798,0.3388095200061798,6.789642810821533,5.379349231719971,60.2586555480957,-12.0,-24.96000099182129,-14.15571403503418,-10.0,0.0,590.3571166992188,101.57142639160156,18.791650772094727,3.233118772506714,0.6466237902641296,19.438276290893555,58.25412368774414,2.0045337677001953,0.03363889083266258,208.0,313.5714416503906,497.5,387.0714416503906,158.0,81.35713958740234,235.92857360839844,1.0,0.0007171070901677012,0.03239712491631508,0.82916659116745,0.34666672348976135,0.5226190686225891,0.39321425557136536,1.0
env_steps,9008,15,15,9,9006,0.9709258666666667,0.18352055549621582,0.058756567537784576,0.16072990000247955,0.39337921142578125,0.8311865329742432,63,-1.288840889930725,0.42787331342697144,0.0,600.0,0.6242929697036743,1.9628888368606567,442.197265625,8.610554695129395,287.73687744140625,0.0,0.0,1.9628888368606567,1.9628888368606567,0.0,0.0,8.610554695129395,8.00011157989502,0.6104444861412048,0.3392222225666046,0.3392222225666046,6.899777889251709,5.4221296310424805,59.48982620239258,-12.0,-24.70400047302246,-14.074666023254395,-10.0,0.0,582.5333251953125,101.73332977294922,18.54261016845703,3.2382726669311523,0.6476545333862305,19.19026756286621,57.48210144042969,2.0077290534973145,0.03420445695519447,205.86666870117188,314.0666809082031,497.3333435058594,386.0666809082031,158.1999969482422,79.73332977294922,234.57778930664062,1.0,0.0007131221354939044,0.03198377788066864,0.8288888335227966,0.34311115741729736,0.5234444737434387,0.39096295833587646,1.0
env_steps,9504,15,15,9,9502,0.9693221333333333,0.12066369503736496,0.11437608301639557,0.09377578645944595,0.31198352575302124,1.4419385194778442,94,-1.288840889930725,0.42787331342697144,0.0,600.0,0.6242929697036743,1.9628888368606567,442.197265625,8.610554695129395,287.73687744140625,0.0,0.0,1.9628888368606567,1.9628888368606567,0.0,0.0,8.610554695129395,8.00011157989502,0.6104444861412048,0.3392222225666046,0.3392222225666046,6.899777889251709,5.4221296310424805,59.48982620239258,-12.0,-24.70400047302246,-14.074666023254395,-10.0,0.0,582.5333251953125,101.73332977294922,18.54261016845703,3.2382726669311523,0.6476545333862305,19.19026756286621,57.48210144042969,2.0077290534973145,0.03420445695519447,205.86666870117188,314.0666809082031,497.3333435058594,386.0666809082031,158.1999969482422,79.73332977294922,234.57778930664062,1.0,0.0007131221354939044,0.03198377788066864,0.8288888335227966,0.34311115741729736,0.5234444737434387,0.39096295833587646,1.0
env_steps,10000,16,16,10,9998,0.9677184,0.04632691666483879,-0.014288745820522308,-0.030539914965629578,0.20576560497283936,1.4447450637817383,125,-1.1356831789016724,0.4280875027179718,0.0,600.0,0.6225041747093201,1.9214582443237305,439.8765869140625,8.558854103088379,291.61920166015625,0.0,0.0,1.9214582443237305,1.9214582443237305,0.0,0.0,8.558854103088379,7.971875190734863,0.5869791507720947,0.33156248927116394,0.33156248927116394,6.933854103088379,5.492465496063232,59.67681884765625,-12.0,-24.75749969482422,-14.055000305175781,-10.0,0.0,584.3125,102.3125,18.599245071411133,3.2567081451416016,0.6513415575027466,19.250587463378906,57.65765380859375,2.0191588401794434,0.0342579260468483,206.3125,313.875,497.9375,385.1875,157.0625,80.25,234.25,1.0,0.0007134791812859476,0.03208430856466293,0.8298958539962769,0.3438541889190674,0.5231249928474426,0.3904166519641876,1.0
env_steps,10512,17,17,11,10510,0.9660629333333334,0.19684620201587677,0.107774518430233,0.05076027661561966,0.37838664650917053,1.7768644094467163,157,-0.3962327241897583,0.4327058792114258,0.0,600.0,0.6175981163978577,1.913921594619751,451.505126953125,8.594118118286133,296.5481262207031,0.0,0.0,1.913921594619751,1.913921594619751,0.0,0.0,8.594118118286133,8.041470527648926,0.552647054195404,0.3122549057006836,0.3122549057006836,6.900097846984863,5.497794151306152,60.30965042114258,-12.0,-24.69176483154297,-14.014118194580078,-10.0,0.0,590.058837890625,105.64705657958984,18.782155990600586,3.3628504276275635,0.672569990158081,19.454727172851562,58.22467803955078,2.0849668979644775,0.03486336022615433,205.76470947265625,305.3529357910156,495.5882263183594,384.4117736816406,156.88235473632812,79.70587921142578,233.56863403320312,1.0,0.0007211765041574836,0.03242453932762146,0.8259804248809814,0.34294119477272034,0.5089215636253357,0.3892810344696045,1.0
env_steps,11008,18,18,12,11006,0.9644592,0.14385771751403809,0.012223849073052406,0.1377682089805603,0.321960985660553,2.1836719512939453,188,-0.9195082187652588,0.42969444394111633,0.0,600.0,0.6185986995697021,1.866018533706665,450.19036865234375,8.74333381652832,303.2146911621094,0.0,0.0,1.866018533706665,1.866018533706665,0.0,0.0,8.74333381652832,8.041481971740723,0.7018518447875977,0.3493518531322479,0.3493518531322479,7.140462875366211,5.802731513977051,59.92049026489258,-12.0,-24.81333351135254,-14.026667594909668,-10.0,0.0,586.111083984375,105.66666412353516,18.656497955322266,3.3634746074676514,0.6726948618888855,19.329191207885742,57.83512878417969,2.0853540897369385,0.03510676696896553,206.77777099609375,308.6666564941406,496.6666564941406,384.72222900390625,156.61111450195312,80.0,233.77777099609375,1.0,0.000716157432179898,0.032215315848588943,0.8277778029441833,0.3446296453475952,0.5144444704055786,0.389629602432251,1.0
env_steps,11504,19,19,13,11502,0.9628554666666667,0.06993140280246735,0.252804696559906,0.1895257979631424,0.2546312212944031,1.9855983257293701,219,1.0301134586334229,0.4376157820224762,0.0,600.0,0.6094229221343994,1.9632456302642822,457.7279968261719,8.82736873626709,297.45782470703125,0.0,0.0,1.9632456302642822,1.9632456302642822,0.0,0.0,8.82736873626709,8.160438537597656,0.6669297814369202,0.3328947424888611,0.3328947424888611,7.039824485778809,5.674435615539551,61.539588928222656,-12.0,-24.536842346191406,-13.97263240814209,-10.0,0.0,601.8421020507812,109.0526351928711,19.157230377197266,3.4712531566619873,0.6942505836486816,19.85148048400879,59.38740539550781,2.15217661857605,0.03520623967051506,204.4736785888672,304.631591796875,493.6842041015625,383.9473571777344,156.36842346191406,79.15789794921875,232.87718200683594,1.0,0.0007293596281670034,0.03308579698204994,0.8228070735931396,0.3407894968986511,0.5077192783355713,0.3881286382675171,1.0
env_steps,12000,20,20,14,12000,0.9612517333333334,0.0985468178987503,0.08960363268852234,0.0842275395989418,0.2761020362377167,1.9347076416015625,250,1.7362648248672485,0.4431750178337097,0.0,600.0,0.6065724492073059,2.0248332023620605,452.651611328125,8.960166931152344,289.02581787109375,0.0,0.0,2.0248332023620605,2.0248332023620605,0.0,0.0,8.960166931152344,8.32216739654541,0.637999951839447,0.3205000162124634,0.3205000162124634,7.058000087738037,5.589641571044922,62.14026641845703,-12.0,-24.468000411987305,-13.935999870300293,-10.0,0.0,607.5,111.19999694824219,19.337326049804688,3.5396060943603516,0.7079211473464966,20.045246124267578,59.945701599121094,2.1945555210113525,0.035485100001096725,203.89999389648438,303.8999938964844,492.8500061035156,383.1499938964844,156.14999389648438,78.75,232.2666473388672,1.0,0.0007386250072158873,0.033408742398023605,0.8214166760444641,0.3398333489894867,0.5065000057220459,0.387111097574234,1.0
env_steps,12512,20,20,14,12510,0.9595962666666666,0.15761280059814453,0.13141624629497528,0.08081948012113571,0.3256574869155884,2.0286810398101807,282,1.7362648248672485,0.4431750178337097,0.0,600.0,0.6065724492073059,2.0248332023620605,452.651611328125,8.960166931152344,289.02581787109375,0.0,0.0,2.0248332023620605,2.0248332023620605,0.0,0.0,8.960166931152344,8.32216739654541,0.637999951839447,0.3205000162124634,0.3205000162124634,7.058000087738037,5.589641571044922,62.14026641845703,-12.0,-24.468000411987305,-13.935999870300293,-10.0,0.0,607.5,111.19999694824219,19.337326049804688,3.5396060943603516,0.7079211473464966,20.045246124267578,59.945701599121094,2.1945555210113525,0.035485100001096725,203.89999389648438,303.8999938964844,492.8500061035156,383.1499938964844,156.14999389648438,78.75,232.2666473388672,1.0,0.0007386250072158873,0.033408742398023605,0.8214166760444641,0.3398333489894867,0.5065000057220459,0.387111097574234,1.0
env_steps,13008,21,21,15,13006,0.9579925333333333,0.07730961591005325,0.014843102544546127,0.09662468731403351,0.2520601749420166,1.4791967868804932,313,2.6797077655792236,0.4470714330673218,0.0,600.0,0.6035972237586975,2.104365110397339,447.72247314453125,8.898730278015137,281.3583984375,0.0,0.0,2.104365110397339,2.104365110397339,0.0,0.0,8.898730278015137,8.290794372558594,0.6079365015029907,0.3055555820465088,0.3055555820465088,6.932698726654053,5.449277400970459,63.19685363769531,-12.0,-24.55428695678711,-13.962857246398926,-10.0,0.0,617.90478515625,112.71428680419922,19.668519973754883,3.5878074169158936,0.7175613641738892,20.38608169555664,60.97240447998047,2.224440336227417,0.03538895025849342,204.61904907226562,302.5238037109375,491.76190185546875,383.1428527832031,155.95237731933594,79.52381134033203,232.71426391601562,1.0,0.0007451190613210201,0.03397680073976517,0.8196031451225281,0.3410317599773407,0.5042063593864441,0.3878571093082428,1.0
env_steps,13504,22,22,16,13502,0.9563888,0.14207810163497925,0.04844559729099274,-0.08417756110429764,0.2920420169830322,1.7692447900772095,344,3.224231481552124,0.4508545696735382,0.0,600.0,0.6040689945220947,2.1228787899017334,444.8501281738281,8.788636207580566,276.4983215332031,0.0,0.0,2.1228787899017334,2.1228787899017334,0.0,0.0,8.788636207580566,8.208333969116211,0.5803030133247375,0.2916666865348816,0.2916666865348816,6.837878704071045,5.327657699584961,63.6469612121582,-12.0,-24.46363639831543,-13.959091186523438,-10.0,0.0,622.4091186523438,113.0,19.81189727783203,3.5969018936157227,0.7193803191184998,20.53127670288086,61.416873931884766,2.230078935623169,0.03524069860577583,203.86363220214844,303.1363525390625,491.81817626953125,382.9545593261719,155.36363220214844,79.81818389892578,232.65150451660156,1.0,0.0007514242315664887,0.034218791872262955,0.8196969628334045,0.3397727310657501,0.505227267742157,0.387752503156662,1.0
env_steps,14000,23,23,17,13998,0.9547850666666666,0.10289275646209717,0.044680967926979065,0.10058148950338364,0.27355292439460754,2.381809949874878,375,3.9165515899658203,0.45554348826408386,0.0,600.0,0.5995081067085266,2.0877535343170166,442.207763671875,8.666739463806152,278.75225830078125,0.0,0.0,2.0877535343170166,2.0877535343170166,0.0,0.0,8.666739463806152,8.111449241638184,0.5552898645401001,0.2792029082775116,0.2792029082775116,6.7866668701171875,5.313490390777588,64.22525024414062,-12.0,-24.365219116210938,-13.94347858428955,-10.0,0.0,628.04345703125,114.13043212890625,19.991243362426758,3.6328847408294678,0.7265768647193909,20.71782112121582,61.97285079956055,2.2523882389068604,0.03525850176811218,203.04347229003906,301.7826232910156,491.0434875488281,382.7391357421875,155.47825622558594,79.47826385498047,232.3912811279297,1.0,0.00075923913391307,0.03452970087528229,0.81840580701828,0.3384058177471161,0.5029709935188293,0.38731881976127625,1.0
env_steps,14512,24,24,18,14510,0.9531296,0.09412238001823425,-0.017274875193834305,0.12678638100624084,0.26664769649505615,1.993908166885376,407,3.908222198486328,0.45559582114219666,0.0,600.0,0.5953965783119202,2.0947916507720947,440.1746520996094,8.707777976989746,274.9876403808594,0.0,0.0,2.0947916507720947,2.0947916507720947,0.0,0.0,8.707777976989746,8.16159725189209,0.5461805462837219,0.28159722685813904,0.28159722685813904,6.829583644866943,5.282934188842773,64.16822052001953,-12.0,-24.340002059936523,-13.920001029968262,-10.0,0.0,627.2083129882812,115.41666412353516,19.96466064453125,3.6738269329071045,0.7347652912139893,20.699426651000977,61.89045333862305,2.2777726650238037,0.03568631038069725,202.8333282470703,302.4583435058594,490.625,382.0833435058594,154.8333282470703,79.54166412353516,232.0,1.0,0.0007593263871967793,0.034499045461416245,0.8177083134651184,0.3380555808544159,0.5040972232818604,0.3866666555404663,1.0
env_steps,15008,25,25,19,15006,0.9515258666666666,0.2114761471748352,0.11565232276916504,0.24163106083869934,0.40902745723724365,2.4523677825927734,438,3.9877283573150635,0.456167995929718,0.0,600.0,0.5932113528251648,2.0894665718078613,438.4916076660156,8.61240005493164,272.5469055175781,0.0,0.0,2.0894665718078613,2.0894665718078613,0.0,0.0,8.61240005493164,8.088066101074219,0.5243332982063293,0.27033331990242004,0.27033331990242004,6.718400478363037,5.209283351898193,64.2373275756836,-12.0,-24.340801239013672,-13.908801078796387,-10.0,0.0,627.6400146484375,116.76000213623047,19.97840118408203,3.7165865898132324,0.743317186832428,20.721717834472656,61.933048248291016,2.304283618927002,0.03604382276535034,202.83999633789062,300.9599914550781,489.8399963378906,381.55999755859375,154.52000427246094,79.68000030517578,231.81333923339844,1.0,0.0007602799450978637,0.034536197781562805,0.8163999915122986,0.3380666673183441,0.5016000270843506,0.38635554909706116,1.0
env_steps,15504,25,25,19,15502,0.9499221333333333,0.06458321213722229,-0.041115812957286835,-0.03819303959608078,0.2353375405073166,1.4966521263122559,469,3.9877283573150635,0.456167995929718,0.0,600.0,0.5932113528251648,2.0894665718078613,438.4916076660156,8.61240005493164,272.5469055175781,0.0,0.0,2.0894665718078613,2.0894665718078613,0.0,0.0,8.61240005493164,8.088066101074219,0.5243332982063293,0.27033331990242004,0.27033331990242004,6.718400478363037,5.209283351898193,64.2373275756836,-12.0,-24.340801239013672,-13.908801078796387,-10.0,0.0,627.6400146484375,116.76000213623047,19.97840118408203,3.7165865898132324,0.743317186832428,20.721717834472656,61.933048248291016,2.304283618927002,0.03604382276535034,202.83999633789062,300.9599914550781,489.8399963378906,381.55999755859375,154.52000427246094,79.68000030517578,231.81333923339844,1.0,0.0007602799450978637,0.034536197781562805,0.8163999915122986,0.3380666673183441,0.5016000270843506,0.38635554909706116,1.0
env_steps,16000,26,26,20,15998,0.9483184,0.21701160073280334,0.016378581523895264,-0.09511830657720566,0.3744148015975952,1.4165152311325073,500,3.6515138149261475,0.4555845856666565,0.0,600.0,0.5942659974098206,2.12583327293396,439.7799377441406,8.529422760009766,268.7054748535156,0.0,0.0,2.12583327293396,2.12583327293396,0.0,0.0,8.529422760009766,8.025256156921387,0.5041666626930237,0.2599358856678009,0.2599358856678009,6.587436199188232,5.097302436828613,63.927669525146484,-12.0,-24.346153259277344,-13.930001258850098,-10.0,0.0,624.6923217773438,115.80769348144531,19.884572982788086,3.6862738132476807,0.7372545599937439,20.621828079223633,61.64217758178711,2.285489559173584,0.03590039536356926,202.88461303710938,303.3461608886719,490.1153869628906,382.26922607421875,154.6923065185547,79.76923370361328,232.1666717529297,1.0,0.0007593076443299651,0.03436971455812454,0.8168589472770691,0.3381410241127014,0.5055769681930542,0.386944442987442,1.0
env_steps,16512,27,27,21,16510,0.9466629333333333,0.05640620365738869,-0.025926686823368073,0.0483829602599144,0.2166854441165924,1.6209555864334106,532,3.7298214435577393,0.4563555419445038,0.0,600.0,0.5920996069908142,2.119382619857788,441.60272216796875,8.499197959899902,269.2193603515625,0.0,0.0,2.119382619857788,2.119382619857788,0.0,0.0,8.499197959899902,8.01302433013916,0.4861728250980377,0.2509876489639282,0.2509876489639282,6.590926647186279,5.0740790367126465,64.02833557128906,-12.0,-24.38222312927246,-13.91629695892334,-10.0,0.0,625.7036743164062,115.85185241699219,19.916765213012695,3.6876795291900635,0.7375357151031494,20.65430450439453,61.74197769165039,2.2863612174987793,0.03585394099354744,203.1851806640625,304.370361328125,490.7037048339844,381.77777099609375,154.92591857910156,79.55555725097656,231.9382781982422,1.0,0.000760592520236969,0.034423839300870895,0.817839503288269,0.3386419713497162,0.5072839260101318,0.38656380772590637,1.0
env_steps,17008,28,28,22,17006,0.9450592,0.12808680534362793,0.11507336795330048,-0.019543364644050598,0.3081808090209961,1.9268949031829834,563,4.439269542694092,0.4593142867088318,0.0,600.0,0.5905038714408875,2.0946428775787354,443.3177185058594,8.531547546386719,272.8220520019531,0.0,0.0,2.0946428775787354,2.0946428775787354,0.0,0.0,8.531547546386719,8.021964073181152,0.5095832943916321,0.26642856001853943,0.26642856001853943,6.674464702606201,5.146334648132324,64.63141632080078,-12.0,-24.30857276916504,-13.883572578430176,-10.0,0.0,631.8214111328125,115.82142639160156,20.111499786376953,3.686710834503174,0.7373420000076294,20.84884262084961,62.34564971923828,2.2857606410980225,0.03557518497109413,202.57142639160156,301.1785583496094,489.96429443359375,381.46429443359375,154.42857360839844,79.14286041259766,231.39285278320312,1.0,0.0007655237568542361,0.03474806994199753,0.8166071176528931,0.3376190662384033,0.501964271068573,0.3856547474861145,1.0
env_steps,17504,29,29,23,17502,0.9434554666666667,0.08469809591770172,0.11250285804271698,0.12734924256801605,0.2593677341938019,1.8650343418121338,594,5.574056625366211,0.46432068943977356,0.0,600.0,0.588387131690979,2.1470115184783936,446.8653259277344,8.482471466064453,269.121337890625,0.0,0.0,2.1470115184783936,2.1470115184783936,0.0,0.0,8.482471466064453,7.99045991897583,0.4920114576816559,0.2572413682937622,0.2572413682937622,6.555575370788574,5.04574728012085,65.6202621459961,-12.0,-24.182069778442383,-13.86413860321045,-10.0,0.0,641.6551513671875,116.75862121582031,20.424518585205078,3.7165427207946777,0.7433083653450012,21.16782569885254,63.31600570678711,2.3042562007904053,0.03539139777421951,201.51724243164062,300.6896667480469,488.75860595703125,381.10345458984375,154.79310607910156,78.6551742553711,231.0689697265625,1.0,0.0007738677086308599,0.035279709845781326,0.8145976662635803,0.33586210012435913,0.5011494159698486,0.3851149380207062,1.0
env_steps,18000,30,30,24,18000,0.9418517333333334,0.13117457926273346,0.1578124463558197,-0.012846444733440876,0.3025974631309509,2.4964921474456787,625,5.991968631744385,0.46684330701828003,0.0,600.0,0.5852468013763428,2.2110555171966553,445.06842041015625,8.560500144958496,264.22247314453125,0.0,0.0,2.2110555171966553,2.2110555171966553,0.0,0.0,8.560500144958496,8.084667205810547,0.47583332657814026,0.24888889491558075,0.24888889491558075,6.525444984436035,4.9831013679504395,65.93863677978516,-12.0,-24.108001708984375,-13.838667869567871,-10.0,0.0,644.6333618164062,118.0,20.519315719604492,3.756057024002075,0.7512112259864807,21.270526885986328,63.60987854003906,2.3287551403045654,0.03555936738848686,200.89999389648438,300.29998779296875,487.79998779296875,380.6333312988281,154.36666870117188,78.46666717529297,230.6444549560547,1.0,0.0007780721643939614,0.035450875759124756,0.812999963760376,0.3348333537578583,0.5005000233650208,0.3844074010848999,1.0
env_steps,18512,30,30,24,18510,0.9401962666666667,0.03496686741709709,-0.016881100833415985,0.02189597301185131,0.17990446090698242,1.1374214887619019,657,5.991968631744385,0.46684330701828003,0.0,600.0,0.5852468013763428,2.2110555171966553,445.06842041015625,8.560500144958496,264.22247314453125,0.0,0.0,2.2110555171966553,2.2110555171966553,0.0,0.0,8.560500144958496,8.084667205810547,0.47583332657814026,0.24888889491558075,0.24888889491558075,6.525444984436035,4.9831013679504395,65.93863677978516,-12.0,-24.108001708984375,-13.838667869567871,-10.0,0.0,644.6333618164062,118.0,20.519315719604492,3.756057024002075,0.7512112259864807,21.270526885986328,63.60987854003906,2.3287551403045654,0.03555936738848686,200.89999389648438,300.29998779296875,487.79998779296875,380.6333312988281,154.36666870117188,78.46666717529297,230.6444549560547,1.0,0.0007780721643939614,0.035450875759124756,0.812999963760376,0.3348333537578583,0.5005000233650208,0.3844074010848999,1.0
env_steps,19008,31,31,25,19006,0.9385925333333334,0.13756507635116577,0.11427772045135498,0.02677009627223015,0.31084752082824707,1.7168552875518799,688,5.0849409103393555,0.46101608872413635,0.0,600.0,0.5844559669494629,2.20758056640625,440.2765808105469,8.43854808807373,260.7023620605469,0.0,0.0,2.20758056640625,2.20758056640625,0.0,0.0,8.43854808807373,7.97806453704834,0.4604838490486145,0.2408602088689804,0.2408602088689804,6.423441410064697,4.899820327758789,64.88365173339844,-12.0,-23.992259979248047,-13.806452751159668,-10.0,0.0,634.0322875976562,117.54838562011719,20.181873321533203,3.7416818141937256,0.7483361959457397,20.93021011352539,62.56380844116211,2.3198423385620117,0.03640447556972504,199.93548583984375,299.67742919921875,488.1612854003906,379.93548583984375,153.8709716796875,78.25806427001953,230.10752868652344,1.0,0.0007683600997552276,0.03488368168473244,0.8136021494865417,0.3332258462905884,0.499462366104126,0.3835125267505646,1.0
env_steps,19504,32,32,26,19502,0.9369888,0.09436416625976562,0.0805884599685669,0.12837453186511993,0.2659781873226166,1.3655167818069458,719,4.952218055725098,0.4603562355041504,0.0,600.0,0.5853785276412964,2.1751561164855957,438.21099853515625,8.41208267211914,263.450927734375,0.0,0.0,2.1751561164855957,2.1751561164855957,0.0,0.0,8.41208267211914,7.96599006652832,0.44609373807907104,0.23333333432674408,0.23333333432674408,6.453593730926514,4.965450286865234,64.67784118652344,-12.0,-23.9325008392334,-13.79312515258789,-10.0,0.0,632.15625,116.5,20.12215805053711,3.708310127258301,0.7416620254516602,20.863821029663086,62.378692626953125,2.299152374267578,0.03615546226501465,199.4375,299.9375,488.625,379.875,154.15625,77.8125,229.88540649414062,1.0,0.0007672604406252503,0.03477303683757782,0.8143750429153442,0.33239585161209106,0.499895840883255,0.383142352104187,1.0
env_steps,20000,33,33,27,19998,0.9353850666666667,0.0663924515247345,0.10167689621448517,0.16137105226516724,0.23672693967819214,1.881129264831543,750,5.817121505737305,0.4644666314125061,0.0,600.0,0.5824635624885559,2.185959577560425,442.6293029785156,8.44626235961914,262.40289306640625,0.0,0.0,2.185959577560425,2.185959577560425,0.0,0.0,8.44626235961914,7.995152473449707,0.4511111080646515,0.23328281939029694,0.23328281939029694,6.449090480804443,4.935011386871338,65.48681640625,-12.0,-23.88727378845215,-13.782424926757812,-10.0,0.0,639.757568359375,119.48484802246094,20.36411476135254,3.80332088470459,0.760664165019989,21.12478256225586,63.12875747680664,2.3580589294433594,0.03646700456738472,199.06060791015625,298.9090881347656,487.48486328125,379.9696960449219,153.63636779785156,77.75757598876953,229.70706176757812,1.0,0.0007741111330688,0.03520796820521355,0.81247478723526,0.3317676782608032,0.4981818199157715,0.38284510374069214,1.0
env_steps,20512,34,34,28,20510,0.9337295999999999,0.07146447896957397,0.08949477970600128,0.198399618268013,0.22774893045425415,1.9073264598846436,782,6.622403144836426,0.46840882301330566,0.0,600.0,0.5831457376480103,2.2878921031951904,438.20892333984375,8.547450065612793,256.260498046875,0.0,0.0,2.2878921031951904,2.2878921031951904,0.0,0.0,8.547450065612793,8.10960865020752,0.43784311413764954,0.2264215648174286,0.2264215648174286,6.415832996368408,4.853759765625,66.33004760742188,-12.0,-23.90117645263672,-13.80647087097168,-10.0,0.0,648.1764526367188,120.11764526367188,20.632097244262695,3.8234634399414062,0.7646927237510681,21.396791458129883,63.959503173828125,2.370547294616699,0.03626366704702377,199.1764678955078,297.8823547363281,486.558837890625,380.1176452636719,154.08824157714844,78.05882263183594,230.1078338623047,1.0,0.0007806814392097294,0.03566131740808487,0.8109314441680908,0.3319607973098755,0.4964706301689148,0.38351306319236755,1.0
env_steps,21008,35,35,29,21006,0.9321258666666666,0.08528561890125275,0.05641668662428856,0.16303439438343048,0.26306605339050293,1.7371811866760254,813,7.065073013305664,0.4693828523159027,0.0,600.0,0.5821250081062317,2.329237937927246,436.7113037109375,8.585951805114746,251.82249450683594,0.0,0.0,2.329237937927246,2.329237937927246,0.0,0.0,8.585951805114746,8.155858039855957,0.43009522557258606,0.22466666996479034,0.22466666996479034,6.391904354095459,4.790780067443848,66.78621673583984,-12.0,-23.886857986450195,-13.834285736083984,-10.0,0.0,652.4285888671875,121.97142791748047,20.767446517944336,3.8824710845947266,0.7764942049980164,21.543941497802734,64.37908172607422,2.407132148742676,0.03649511560797691,199.05714416503906,296.74285888671875,485.8285827636719,380.6856994628906,154.45713806152344,78.28571319580078,230.57142639160156,1.0,0.0007823047926649451,0.03590657189488411,0.8097143173217773,0.33176189661026,0.4945714771747589,0.38428571820259094,1.0
env_steps,21504,35,35,29,21502,0.9305221333333333,0.09843558818101883,0.1856381893157959,0.1428649127483368,0.2648966908454895,2.112959146499634,844,7.065073013305664,0.4693828523159027,0.0,600.0,0.5821250081062317,2.329237937927246,436.7113037109375,8.585951805114746,251.82249450683594,0.0,0.0,2.329237937927246,2.329237937927246,0.0,0.0,8.585951805114746,8.155858039855957,0.43009522557258606,0.22466666996479034,0.22466666996479034,6.391904354095459,4.790780067443848,66.78621673583984,-12.0,-23.886857986450195,-13.834285736083984,-10.0,0.0,652.4285888671875,121.97142791748047,20.767446517944336,3.8824710845947266,0.7764942049980164,21.543941497802734,64.37908172607422,2.407132148742676,0.03649511560797691,199.05714416503906,296.74285888671875,485.8285827636719,380.6856994628906,154.45713806152344,78.28571319580078,230.57142639160156,1.0,0.0007823047926649451,0.03590657189488411,0.8097143173217773,0.33176189661026,0.4945714771747589,0.38428571820259094,1.0
env_steps,22000,36,36,30,21998,0.9289184,0.21953630447387695,0.02668958529829979,-0.037474263459444046,0.39787206053733826,1.9556536674499512,875,7.766539573669434,0.47221389412879944,0.0,600.0,0.5808837413787842,2.314675807952881,439.61444091796875,8.59347152709961,253.52813720703125,0.0,0.0,2.314675807952881,2.314675807952881,0.0,0.0,8.59347152709961,8.148380279541016,0.4450925588607788,0.2361111044883728,0.2361111044883728,6.436805248260498,4.80087423324585,67.41987609863281,-12.0,-23.840002059936523,-13.813333511352539,-10.0,0.0,658.75,122.47222137451172,20.968666076660156,3.898411989212036,0.7796823978424072,21.74834632873535,65.00285339355469,2.417015552520752,0.036337949335575104,198.6666717529297,296.97222900390625,485.1944580078125,380.0833435058594,153.9166717529297,78.33333587646484,230.22222900390625,1.0,0.0007870232220739126,0.03624724596738815,0.8086574673652649,0.3311111032962799,0.4949537515640259,0.38370370864868164,1.0
env_steps,22512,37,37,31,22510,0.9272629333333333,0.23502486944198608,0.22667767107486725,0.0493202731013298,0.40823835134506226,2.0383293628692627,907,8.165680885314941,0.4743756949901581,0.0,600.0,0.5779107213020325,2.2917566299438477,443.57232666015625,8.622836112976074,258.52252197265625,0.0,0.0,2.2917566299438477,2.2917566299438477,0.0,0.0,8.622836112976074,8.136892318725586,0.4859459400177002,0.2451351284980774,0.2451351284980774,6.509549140930176,4.864476203918457,67.74352264404297,-12.0,-23.772974014282227,-13.804864883422852,-10.0,0.0,661.8919067382812,123.16216278076172,21.068674087524414,3.9203734397888184,0.7840746641159058,21.85274887084961,65.31288146972656,2.430631637573242,0.03635012358427048,198.1081085205078,296.6216125488281,484.8108215332031,380.0810852050781,153.8918914794922,78.1351318359375,230.08108520507812,1.0,0.0007906261598691344,0.03642125055193901,0.8080180883407593,0.33018019795417786,0.49436941742897034,0.38346847891807556,1.0
env_steps,23008,38,38,32,23006,0.9256592,0.1055142730474472,0.12213112413883209,0.23112642765045166,0.2683716416358948,1.9350624084472656,938,9.099809646606445,0.4787237346172333,0.0,600.0,0.578553318977356,2.3060524463653564,444.206298828125,8.644122123718262,256.33380126953125,0.0,0.0,2.3060524463653564,2.3060524463653564,0.0,0.0,8.644122123718262,8.170788764953613,0.47333329916000366,0.2388596534729004,0.2388596534729004,6.4870171546936035,4.831438064575195,68.66244506835938,-12.0,-23.741052627563477,-13.821578025817871,-10.0,0.0,670.8421020507812,124.97368621826172,21.35356903076172,3.9780361652374268,0.7956071496009827,22.1491756439209,66.19606018066406,2.4663825035095215,0.036364827305078506,197.84210205078125,295.8157958984375,484.3157958984375,380.131591796875,154.0,78.47368621826172,230.3596649169922,1.0,0.0007978728390298784,0.03691529482603073,0.8071930408477783,0.3297368586063385,0.49302634596824646,0.38393276929855347,1.0
env_steps,23504,39,39,33,23502,0.9240554666666667,0.11456707119941711,0.08059365302324295,0.2336064875125885,0.26871657371520996,1.55467689037323,969,9.658836364746094,0.482766717672348,0.0,600.0,0.5769444108009338,2.306196451187134,444.7403259277344,8.640382766723633,256.3412780761719,0.0,0.0,2.306196451187134,2.306196451187134,0.0,0.0,8.640382766723633,8.173674583435059,0.4667093753814697,0.23564103245735168,0.23564103245735168,6.489743232727051,4.829348087310791,69.26806640625,-12.0,-23.76923179626465,-13.839998245239258,-10.0,0.0,676.8974609375,125.38461303710938,21.546316146850586,3.991116762161255,0.7982232570648193,22.344539642333984,66.7935791015625,2.474492311477661,0.03620557487010956,198.07691955566406,293.5641174316406,483.6666564941406,380.4358825683594,154.1794891357422,78.69230651855469,230.6666717529297,1.0,0.0008046111324802041,0.037240903824567795,0.8061111569404602,0.3301282227039337,0.4892735183238983,0.3844444453716278,1.0
env_steps,24000,40,40,34,24000,0.9224517333333333,0.141387939453125,0.13872471451759338,0.32111284136772156,0.3259032070636749,2.720885992050171,1000,9.889913558959961,0.4842374920845032,0.0,600.0,0.5766639113426208,2.330958127975464,444.4855041503906,8.632583618164062,253.457763671875,0.0,0.0,2.330958127975464,2.330958127975464,0.0,0.0,8.632583618164062,8.177291870117188,0.45529165863990784,0.23000001907348633,0.23000001907348633,6.440333366394043,4.781973361968994,69.50791931152344,-12.0,-23.78700065612793,-13.830999374389648,-10.0,0.0,679.2249755859375,125.9000015258789,21.620403289794922,4.007521629333496,0.8015043139457703,22.42190933227539,67.02325439453125,2.484663486480713,0.03621385246515274,198.22500610351562,292.875,483.3500061035156,380.125,154.02499389648438,78.69999694824219,230.5166473388672,1.0,0.0008070625481195748,0.03736984729766846,0.8055833578109741,0.3303750157356262,0.4881249964237213,0.38419443368911743,1.0
env_steps,24512,40,40,34,24510,0.9207962666666667,0.22725695371627808,0.1671045422554016,0.2891835570335388,0.4759916067123413,2.38238263130188,1032,9.889913558959961,0.4842374920845032,0.0,600.0,0.5766639113426208,2.330958127975464,444.4855041503906,8.632583618164062,253.457763671875,0.0,0.0,2.330958127975464,2.330958127975464,0.0,0.0,8.632583618164062,8.177291870117188,0.45529165863990784,0.23000001907348633,0.23000001907348633,6.440333366394043,4.781973361968994,69.50791931152344,-12.0,-23.78700065612793,-13.830999374389648,-10.0,0.0,679.2249755859375,125.9000015258789,21.620403289794922,4.007521629333496,0.8015043139457703,22.42190933227539,67.02325439453125,2.484663486480713,0.03621385246515274,198.22500610351562,292.875,483.3500061035156,380.125,154.02499389648438,78.69999694824219,230.5166473388672,1.0,0.0008070625481195748,0.03736984729766846,0.8055833578109741,0.3303750157356262,0.4881249964237213,0.38419443368911743,1.0
env_steps,25008,41,41,35,25006,0.9191925333333333,0.26222431659698486,0.39386463165283203,0.4721781015396118,0.5214153528213501,3.4044461250305176,1063,9.536276817321777,0.4836682677268982,0.0,600.0,0.5780609846115112,2.3046746253967285,448.4656982421875,8.542845726013184,261.1248474121094,0.0,0.0,2.3046746253967285,2.3046746253967285,0.0,0.0,8.542845726013184,8.098658561706543,0.4441869854927063,0.22439026832580566,0.22439026832580566,6.391585826873779,4.771484851837158,69.2109146118164,-12.0,-23.839025497436523,-13.835610389709473,-10.0,0.0,676.268310546875,125.63414764404297,21.526288986206055,3.9990592002868652,0.799811840057373,22.326101303100586,66.73149871826172,2.479416608810425,0.03629612177610397,198.65853881835938,294.9756164550781,483.92681884765625,380.0,153.78048706054688,79.0,230.59349060058594,1.0,0.0008061138214543462,0.037210166454315186,0.8065447807312012,0.3310975432395935,0.49162599444389343,0.38432246446609497,1.0
env_steps,25504,42,42,36,25502,0.9175888,0.39292383193969727,0.53841233253479,0.5568060874938965,0.6601167917251587,4.313022613525391,1094,9.201700210571289,0.48209279775619507,0.0,600.0,0.5792726874351501,2.3321824073791504,448.1684265136719,8.566429138183594,258.1394958496094,0.0,0.0,2.3321824073791504,2.3321824073791504,0.0,0.0,8.566429138183594,8.132817268371582,0.43361109495162964,0.2190476357936859,0.2190476357936859,6.359921455383301,4.7308759689331055,68.90455627441406,-12.0,-23.87714385986328,-13.825714111328125,-10.0,0.0,673.2619018554688,125.14286041259766,21.430591583251953,3.9834208488464355,0.7966841459274292,22.227275848388672,66.4348373413086,2.4697208404541016,0.03630758449435234,198.9761962890625,295.3809509277344,484.0952453613281,379.8333435058594,153.7857208251953,78.83333587646484,230.42857360839844,1.0,0.0008034880738705397,0.03704546019434929,0.8068254590034485,0.3316269814968109,0.4923015832901001,0.38404759764671326,1.0
env_steps,26000,43,43,37,25998,0.9159850666666667,0.34107494354248047,0.16099661588668823,0.0139690600335598,0.5921695232391357,3.093059539794922,1125,8.242191314697266,0.476253479719162,0.0,600.0,0.5803506374359131,2.3108911514282227,444.8345642089844,8.45418643951416,257.9298095703125,0.0,0.0,2.3108911514282227,2.3108911514282227,0.0,0.0,8.45418643951416,8.030658721923828,0.4235271215438843,0.21395350992679596,0.21395350992679596,6.287326335906982,4.687341213226318,67.9212646484375,-12.0,-23.854883193969727,-13.824186325073242,-10.0,0.0,663.465087890625,124.30232238769531,21.118749618530273,3.9566659927368164,0.7913331985473633,21.910083770751953,65.46813201904297,2.4531328678131104,0.03699751943349838,198.7906951904297,297.4418640136719,485.16278076171875,379.83721923828125,153.51162719726562,78.93022918701172,230.40309143066406,1.0,0.0007937558111734688,0.03651680797338486,0.8086047768592834,0.33131784200668335,0.49573642015457153,0.3840051591396332,1.0
env_steps,26512,44,44,38,26510,0.9143296,0.27615004777908325,0.30915480852127075,0.24779334664344788,0.5380964279174805,3.5178492069244385,1157,8.247712135314941,0.47597724199295044,0.0,600.0,0.580547571182251,2.3381059169769287,446.7970886230469,8.491704940795898,255.51768493652344,0.0,0.0,2.3381059169769287,2.3381059169769287,0.0,0.0,8.491704940795898,8.077727317810059,0.4139772653579712,0.20916667580604553,0.20916667580604553,6.274243354797363,4.647738933563232,67.85952758789062,-12.0,-23.806364059448242,-13.80545425415039,-10.0,0.0,662.8636474609375,124.18181610107422,21.099605560302734,3.9528303146362305,0.7905660271644592,21.89017105102539,65.40878295898438,2.450754404067993,0.03697523474693298,198.38636779785156,297.56817626953125,485.25,379.4545593261719,153.27272033691406,78.7727279663086,230.09091186523438,1.0,0.0007932955049909651,0.03648361936211586,0.8087500929832458,0.3306439220905304,0.4959469139575958,0.3834848403930664,1.0
env_steps,27008,45,45,39,27006,0.9127258666666667,0.32316869497299194,0.46413061022758484,0.4698810279369354,0.5859540700912476,3.791726589202881,1188,8.81184196472168,0.4785955250263214,0.0,600.0,0.5787761211395264,2.3474812507629395,447.6190185546875,8.466296195983887,254.1890869140625,0.0,0.0,2.3474812507629395,2.3474812507629395,0.0,0.0,8.466296195983887,8.061517715454102,0.40477779507637024,0.20451852679252625,0.20451852679252625,6.227445602416992,4.610789775848389,68.44917297363281,-12.0,-23.831998825073242,-13.805333137512207,-10.0,0.0,668.6666870117188,125.04444122314453,21.284320831298828,3.98028826713562,0.7960576415061951,22.080379486083984,65.98139953613281,2.4677786827087402,0.036910876631736755,198.60000610351562,295.04443359375,484.4444580078125,379.24444580078125,153.15554809570312,78.93333435058594,230.08888244628906,1.0,0.0007976593333296478,0.036800630390644073,0.8074074387550354,0.3310000002384186,0.49174070358276367,0.3834814727306366,1.0
env_steps,27504,45,45,39,27502,0.9111221333333334,0.21491368114948273,0.2156105935573578,0.3881789743900299,0.486009418964386,2.5954577922821045,1219,8.81184196472168,0.4785955250263214,0.0,600.0,0.5787761211395264,2.3474812507629395,447.6190185546875,8.466296195983887,254.1890869140625,0.0,0.0,2.3474812507629395,2.3474812507629395,0.0,0.0,8.466296195983887,8.061517715454102,0.40477779507637024,0.20451852679252625,0.20451852679252625,6.227445602416992,4.610789775848389,68.44917297363281,-12.0,-23.831998825073242,-13.805333137512207,-10.0,0.0,668.6666870117188,125.04444122314453,21.284320831298828,3.98028826713562,0.7960576415061951,22.080379486083984,65.98139953613281,2.4677786827087402,0.036910876631736755,198.60000610351562,295.04443359375,484.4444580078125,379.24444580078125,153.15554809570312,78.93333435058594,230.08888244628906,1.0,0.0007976593333296478,0.036800630390644073,0.8074074387550354,0.3310000002384186,0.49174070358276367,0.3834814727306366,1.0
env_steps,28000,46,46,40,27998,0.9095184000000001,0.13314935564994812,0.3070973753929138,0.22605979442596436,0.35935938358306885,3.771064281463623,1250,8.509696006774902,0.4767391085624695,0.0,600.0,0.5790711045265198,2.3273911476135254,445.1944580078125,8.42601490020752,254.3042449951172,0.0,0.0,2.3273911476135254,2.3273911476135254,0.0,0.0,8.42601490020752,8.030035972595215,0.39597827196121216,0.2000724822282791,0.2000724822282791,6.2155442237854,4.620800018310547,68.13882446289062,-12.0,-23.82521629333496,-13.803912162780762,-10.0,0.0,665.5652465820312,124.82608795166016,21.185598373413086,3.9733378887176514,0.7946675419807434,21.980266571044922,65.67536163330078,2.4634692668914795,0.037019211798906326,198.54347229003906,297.0652160644531,484.9347839355469,379.1956481933594,153.0,79.0,230.06521606445312,1.0,0.0007945653051137924,0.03663377836346626,0.8082247376441956,0.3309057950973511,0.4951086938381195,0.3834420144557953,1.0
env_steps,28512,47,47,41,28510,0.9078629333333333,0.2019943743944168,0.2999473810195923,0.375081330537796,0.4485490918159485,3.945765495300293,1282,8.993730545043945,0.47873613238334656,0.0,600.0,0.5773356556892395,2.347836494445801,449.5521240234375,8.459823608398438,254.0217742919922,0.0,0.0,2.347836494445801,2.347836494445801,0.0,0.0,8.459823608398438,8.072269439697266,0.3875531852245331,0.19581560790538788,0.19581560790538788,6.201773643493652,4.604119777679443,68.56138610839844,-12.0,-23.775318145751953,-13.792340278625488,-10.0,0.0,669.7659301757812,125.23403930664062,21.319313049316406,3.986323595046997,0.7972646951675415,22.1165771484375,66.08987426757812,2.47152042388916,0.03691868111491203,198.12765502929688,296.85107421875,484.53192138671875,379.0212707519531,152.85105895996094,78.8723373413086,229.87234497070312,1.0,0.0007978936773724854,0.036860961467027664,0.807553231716156,0.3302127420902252,0.4947517514228821,0.3831205666065216,1.0
env_steps,29008,48,48,42,29006,0.9062592,0.24430125951766968,0.20200896263122559,0.12341474741697311,0.4771278500556946,3.472567319869995,1313,9.157037734985352,0.4794437885284424,0.0,600.0,0.5760884881019592,2.3732292652130127,447.5087890625,8.427117347717285,250.9420928955078,0.0,0.0,2.3732292652130127,2.3732292652130127,0.0,0.0,8.427117347717285,8.047638893127441,0.37947916984558105,0.191736102104187,0.191736102104187,6.142360687255859,4.550340175628662,68.75953674316406,-12.0,-23.797500610351562,-13.805000305175781,-10.0,0.0,671.7291870117188,125.45833587646484,21.381803512573242,3.9934628009796143,0.798692524433136,22.180496215820312,66.2835922241211,2.4759466648101807,0.036865752190351486,198.3125,296.9166564941406,484.3125,379.1041564941406,152.6875,79.22916412353516,230.0833282470703,1.0,0.0007990729063749313,0.03696749359369278,0.807187557220459,0.3305208384990692,0.4948611259460449,0.383472204208374,1.0
env_steps,29504,49,49,43,29502,0.9046554666666666,0.29273390769958496,0.28284743428230286,0.5484637022018433,0.5385008454322815,4.7635016441345215,1344,8.605990409851074,0.4770510494709015,0.0,600.0,0.578152060508728,2.363877534866333,443.2958679199219,8.343639373779297,248.4427947998047,0.0,0.0,2.363877534866333,2.363877534866333,0.0,0.0,8.343639373779297,7.97190523147583,0.37173470854759216,0.1878231167793274,0.1878231167793274,6.086836338043213,4.504074573516846,68.21456146240234,-12.0,-23.799184799194336,-13.809388160705566,-10.0,0.0,666.448974609375,124.2448959350586,21.213729858398438,3.9548380374908447,0.790967583656311,22.004697799682617,65.76255798339844,2.4519991874694824,0.03674545884132385,198.3265380859375,299.0204162597656,485.28570556640625,379.1428527832031,152.7142791748047,79.30612182617188,230.15646362304688,1.0,0.0007950850413180888,0.03667449578642845,0.8088095784187317,0.33054423332214355,0.4983673393726349,0.3835940957069397,1.0
env_steps,30000,50,50,44,30000,0.9030517333333333,0.27821171283721924,0.2202829122543335,0.32619619369506836,0.5013900995254517,2.966376543045044,1375,9.161033630371094,0.4807320535182953,0.0,600.0,0.5766056180000305,2.3744001388549805,445.84844970703125,8.350699424743652,247.35385131835938,0.0,0.0,2.3744001388549805,2.3744001388549805,0.0,0.0,8.350699424743652,7.986400127410889,0.364300012588501,0.18406665325164795,0.18406665325164795,6.073999404907227,4.477718830108643,68.70143127441406,-12.0,-23.75040054321289,-13.790000915527344,-10.0,0.0,671.219970703125,125.05999755859375,21.3655948638916,3.980783700942993,0.7961567044258118,22.161752700805664,66.23334503173828,2.468085527420044,0.03671417385339737,197.9199981689453,298.3399963378906,484.8800048828125,379.0,152.4199981689453,79.04000091552734,229.83334350585938,1.0,0.0008012200123630464,0.036936257034540176,0.8081333637237549,0.3298666775226593,0.4972333610057831,0.38305553793907166,1.0
env_steps,30512,50,50,44,30510,0.9013962666666666,0.3543117642402649,0.29451784491539,0.4333772659301758,0.6236082911491394,4.298474311828613,1407,9.161033630371094,0.4807320535182953,0.0,600.0,0.5766056180000305,2.3744001388549805,445.84844970703125,8.350699424743652,247.35385131835938,0.0,0.0,2.3744001388549805,2.3744001388549805,0.0,0.0,8.350699424743652,7.986400127410889,0.364300012588501,0.18406665325164795,0.18406665325164795,6.073999404907227,4.477718830108643,68.70143127441406,-12.0,-23.75040054321289,-13.790000915527344,-10.0,0.0,671.219970703125,125.05999755859375,21.3655948638916,3.980783700942993,0.7961567044258118,22.161752700805664,66.23334503173828,2.468085527420044,0.03671417385339737,197.9199981689453,298.3399963378906,484.8800048828125,379.0,152.4199981689453,79.04000091552734,229.83334350585938,1.0,0.0008012200123630464,0.036936257034540176,0.8081333637237549,0.3298666775226593,0.4972333610057831,0.38305553793907166,1.0
env_steps,31008,51,51,45,31006,0.8997925333333333,0.3143365979194641,0.2619638442993164,0.26668328046798706,0.5688012838363647,3.6125993728637695,1438,9.671353340148926,0.4842451512813568,0.0,600.0,0.5753482580184937,2.3954901695251465,448.08502197265625,8.386894226074219,245.7177734375,0.0,0.0,2.3954901695251465,2.3954901695251465,0.0,0.0,8.386894226074219,8.02761459350586,0.359281063079834,0.18258169293403625,0.18258169293403625,6.076568126678467,4.449328422546387,69.2435073852539,-12.0,-23.78352928161621,-13.788627624511719,-10.0,0.0,676.4705810546875,126.2745132446289,21.532726287841797,4.019442558288574,0.8038884997367859,22.33661651611328,66.75144958496094,2.492053985595703,0.0367453470826149,198.19607543945312,296.686279296875,483.76470947265625,379.07843017578125,152.27450561523438,79.03921508789062,229.8104705810547,1.0,0.000807075179181993,0.03722769767045975,0.8062745928764343,0.33032679557800293,0.49447715282440186,0.3830174207687378,1.0
env_steps,31504,52,52,46,31502,0.8981888,0.20393094420433044,0.20040899515151978,0.09681926667690277,0.4440567195415497,2.6978678703308105,1469,10.503454208374023,0.4886442720890045,0.0,600.0,0.5732753276824951,2.4222116470336914,447.54449462890625,8.411569595336914,243.47598266601562,0.0,0.0,2.4222116470336914,2.4222116470336914,0.0,0.0,8.411569595336914,8.058942794799805,0.352628231048584,0.17932692170143127,0.17932692170143127,6.055415630340576,4.422333240509033,70.03230285644531,-12.0,-23.743844985961914,-13.78499984741211,-10.0,0.0,684.1538696289062,127.82691955566406,21.777292251586914,4.068857669830322,0.8137714862823486,22.591066360473633,67.50960540771484,2.522691249847412,0.03675121068954468,197.86538696289062,295.19232177734375,482.8846130371094,378.94232177734375,152.53846740722656,78.88461303710938,229.75001525878906,1.0,0.0008144070743583143,0.037651777267456055,0.804807722568512,0.3297756314277649,0.4919871985912323,0.3829166293144226,1.0
env_steps,32000,53,53,47,31998,0.8965850666666667,0.1309327632188797,0.24597179889678955,0.24994926154613495,0.36242401599884033,2.831613063812256,1500,10.472555160522461,0.48803022503852844,0.0,600.0,0.5724421739578247,2.4139623641967773,444.77923583984375,8.413993835449219,242.19085693359375,0.0,0.0,2.4139623641967773,2.4139623641967773,0.0,0.0,8.413993835449219,8.067672729492188,0.346320778131485,0.17628930509090424,0.17628930509090424,6.078489303588867,4.429754734039307,69.91217803955078,-12.0,-23.673961639404297,-13.765660285949707,-10.0,0.0,682.9056396484375,127.98113250732422,21.737560272216797,4.073766231536865,0.8147531747817993,22.552316665649414,67.38643646240234,2.5257346630096436,0.03685321286320686,197.28302001953125,295.9622497558594,482.88677978515625,378.8113098144531,152.5660400390625,78.45282745361328,229.42770385742188,1.0,0.0008133836672641337,0.03758719563484192,0.8048113584518433,0.32880502939224243,0.4932704567909241,0.382379412651062,1.0
env_steps,32512,54,54,48,32510,0.8949296,0.27539944648742676,0.08272591233253479,0.2234935164451599,0.5042745471000671,4.092429161071777,1532,10.696520805358887,0.4886074364185333,0.0,600.0,0.573611855506897,2.439753293991089,445.54193115234375,8.508271217346191,241.97482299804688,0.0,0.0,2.439753293991089,2.439753293991089,0.0,0.0,8.508271217346191,8.147407531738281,0.36086422204971313,0.1778395026922226,0.1778395026922226,6.1021904945373535,4.44132137298584,70.12651824951172,-12.0,-23.65333366394043,-13.776666641235352,-10.0,0.0,685.0,128.37037658691406,21.80422592163086,4.086155891418457,0.8172311186790466,22.6214599609375,67.59310150146484,2.533416509628296,0.03683901205658913,197.11111450195312,296.27777099609375,482.9444580078125,379.2037048339844,153.0,78.31481170654297,229.6111297607422,1.0,0.0008143457234837115,0.03770243376493454,0.804907500743866,0.32851850986480713,0.49379631876945496,0.3826851546764374,1.0
env_steps,33008,55,55,49,33006,0.8933258666666667,0.26935842633247375,0.22998982667922974,0.2485693395137787,0.49848437309265137,3.3322699069976807,1563,10.664648056030273,0.4894382059574127,0.0,600.0,0.5732566714286804,2.4142727851867676,444.6556701660156,8.484000205993652,244.73048400878906,0.0,0.0,2.4142727851867676,2.4142727851867676,0.0,0.0,8.484000205993652,8.121454238891602,0.3625454604625702,0.17987878620624542,0.17987878620624542,6.120968818664551,4.4891533851623535,70.09337615966797,-12.0,-23.657455444335938,-13.771272659301758,-10.0,0.0,684.8181762695312,127.5999984741211,21.798439025878906,4.061634540557861,0.8123267889022827,22.610769271850586,67.57515716552734,2.5182132720947266,0.03662099689245224,197.1454620361328,297.2363586425781,483.14544677734375,379.1091003417969,153.0181884765625,78.21818542480469,229.521240234375,1.0,0.000815730367321521,0.037684615701436996,0.8052424788475037,0.3285757601261139,0.4953939616680145,0.38253533840179443,1.0
env_steps,33504,55,55,49,33502,0.8917221333333334,0.18801045417785645,0.20640647411346436,0.3343769609928131,0.4315813183784485,2.8109588623046875,1594,10.664648056030273,0.4894382059574127,0.0,600.0,0.5732566714286804,2.4142727851867676,444.6556701660156,8.484000205993652,244.73048400878906,0.0,0.0,2.4142727851867676,2.4142727851867676,0.0,0.0,8.484000205993652,8.121454238891602,0.3625454604625702,0.17987878620624542,0.17987878620624542,6.120968818664551,4.4891533851623535,70.09337615966797,-12.0,-23.657455444335938,-13.771272659301758,-10.0,0.0,684.8181762695312,127.5999984741211,21.798439025878906,4.061634540557861,0.8123267889022827,22.610769271850586,67.57515716552734,2.5182132720947266,0.03662099689245224,197.1454620361328,297.2363586425781,483.14544677734375,379.1091003417969,153.0181884765625,78.21818542480469,229.521240234375,1.0,0.000815730367321521,0.037684615701436996,0.8052424788475037,0.3285757601261139,0.4953939616680145,0.38253533840179443,1.0
env_steps,34000,56,56,50,33998,0.8901184,0.21705001592636108,0.4161533713340759,0.5806585550308228,0.4580005407333374,4.547508239746094,1625,11.338302612304688,0.49210357666015625,0.0,600.0,0.5722604990005493,2.4249110221862793,444.12701416015625,8.517321586608887,243.04443359375,0.0,0.0,2.4249110221862793,2.4249110221862793,0.0,0.0,8.517321586608887,8.157797813415527,0.35952380299568176,0.17991070449352264,0.17991070449352264,6.133422374725342,4.477591037750244,70.71937561035156,-12.0,-23.610002517700195,-13.771071434020996,-10.0,0.0,691.0535888671875,128.14285278320312,21.996917724609375,4.078913688659668,0.8157827258110046,22.812700271606445,68.19044494628906,2.528926372528076,0.036496601998806,196.75,295.9821472167969,482.41070556640625,379.125,153.0357208251953,78.19642639160156,229.51785278320312,1.0,0.0008201726013794541,0.03802117332816124,0.8040179014205933,0.32791668176651,0.4933035671710968,0.38252973556518555,1.0
env_steps,34512,57,57,51,34510,0.8884629333333334,0.22474364936351776,0.11544813960790634,0.1051614060997963,0.4699898660182953,2.7902870178222656,1657,11.553396224975586,0.4929386079311371,0.0,600.0,0.5720874667167664,2.417076349258423,448.3818664550781,8.480234146118164,246.00518798828125,0.0,0.0,2.417076349258423,2.417076349258423,0.0,0.0,8.480234146118164,8.126842498779297,0.3533918261528015,0.17692983150482178,0.17692983150482178,6.112484931945801,4.47056245803833,70.89269256591797,-12.0,-23.578948974609375,-13.760350227355957,-10.0,0.0,692.8947143554688,127.71929931640625,22.055524826049805,4.065431594848633,0.8130862712860107,22.868610382080078,68.37212371826172,2.5205671787261963,0.036303069442510605,196.49122619628906,297.2105407714844,482.4912414550781,378.8596496582031,152.94737243652344,78.10526275634766,229.33917236328125,1.0,0.0008215643465518951,0.03811435401439667,0.8041521310806274,0.32748541235923767,0.4953508973121643,0.3822319209575653,1.0
env_steps,35008,58,58,52,35006,0.8868592,0.2549527883529663,0.39238685369491577,0.28966912627220154,0.508736789226532,4.742836952209473,1688,11.93433666229248,0.49539482593536377,0.0,600.0,0.5703425407409668,2.4208624362945557,451.5680847167969,8.485546112060547,245.95838928222656,0.0,0.0,2.4208624362945557,2.4208624362945557,0.0,0.0,8.485546112060547,8.137472152709961,0.34807470440864563,0.17465516924858093,0.17465516924858093,6.106177806854248,4.457101821899414,71.25364685058594,-12.0,-23.553104400634766,-13.766205787658691,-10.0,0.0,696.4655151367188,128.15516662597656,22.169187545776367,4.079306125640869,0.815861165523529,22.98504638671875,68.72447204589844,2.5291693210601807,0.03624408319592476,196.27586364746094,296.1206970214844,482.0,379.137939453125,152.72413635253906,78.22413635253906,229.43678283691406,1.0,0.0008256580331362784,0.038308415561914444,0.8033334016799927,0.32712647318840027,0.49353447556495667,0.38239458203315735,1.0
env_steps,35504,59,59,53,35502,0.8852554666666667,0.37705281376838684,0.3716629147529602,0.39210087060928345,0.6410384774208069,3.7606019973754883,1719,12.14395523071289,0.4969050884246826,0.0,600.0,0.5700950622558594,2.426469087600708,453.2350769042969,8.478728294372559,245.30116271972656,0.0,0.0,2.426469087600708,2.426469087600708,0.0,0.0,8.478728294372559,8.136554718017578,0.342175155878067,0.17169491946697235,0.17169491946697235,6.090790748596191,4.434510707855225,71.50904083251953,-12.0,-23.589155197143555,-13.775931358337402,-10.0,0.0,699.0678100585938,128.08474731445312,22.25202178955078,4.077064037322998,0.8154128193855286,23.06743049621582,68.98126220703125,2.5277793407440186,0.036110274493694305,196.57627868652344,294.72882080078125,481.6440734863281,379.3050842285156,152.94915771484375,78.27118682861328,229.59886169433594,1.0,0.0008281751652248204,0.03844572231173515,0.802740216255188,0.32762715220451355,0.49121469259262085,0.3826647400856018,1.0
env_steps,36000,60,60,54,36000,0.8836517333333334,0.1915767937898636,0.2808983325958252,0.17571163177490234,0.41927096247673035,3.063194751739502,1750,12.094622611999512,0.49746665358543396,0.0,600.0,0.570077657699585,2.417694568634033,454.3481140136719,8.527777671813965,246.10235595703125,0.0,0.0,2.417694568634033,2.417694568634033,0.0,0.0,8.527777671813965,8.182666778564453,0.34511110186576843,0.1705000102519989,0.1705000102519989,6.123610973358154,4.4713521003723145,71.52962493896484,-12.0,-23.630002975463867,-13.804999351501465,-10.0,0.0,699.1333618164062,128.8000030517578,22.254108428955078,4.099831581115723,0.8199662566184998,23.07406997680664,68.98772430419922,2.5418951511383057,0.036281634122133255,196.9166717529297,293.3166809082031,481.3500061035156,379.8833312988281,152.93333435058594,78.71666717529297,230.0833282470703,1.0,0.000829111086204648,0.038456790149211884,0.8022500872612,0.3281944990158081,0.4888611137866974,0.38347214460372925,1.0
env_steps,36512,60,60,54,36510,0.8819962666666666,0.3094497323036194,0.3579520285129547,0.41387051343917847,0.5570530295372009,3.8238525390625,1782,12.094622611999512,0.49746665358543396,0.0,600.0,0.570077657699585,2.417694568634033,454.3481140136719,8.527777671813965,246.10235595703125,0.0,0.0,2.417694568634033,2.417694568634033,0.0,0.0,8.527777671813965,8.182666778564453,0.34511110186576843,0.1705000102519989,0.1705000102519989,6.123610973358154,4.4713521003723145,71.52962493896484,-12.0,-23.630002975463867,-13.804999351501465,-10.0,0.0,699.1333618164062,128.8000030517578,22.254108428955078,4.099831581115723,0.8199662566184998,23.07406997680664,68.98772430419922,2.5418951511383057,0.036281634122133255,196.9166717529297,293.3166809082031,481.3500061035156,379.8833312988281,152.93333435058594,78.71666717529297,230.0833282470703,1.0,0.000829111086204648,0.038456790149211884,0.8022500872612,0.3281944990158081,0.4888611137866974,0.38347214460372925,1.0
env_steps,37008,61,61,55,37006,0.8803925333333333,0.16831833124160767,0.12967123091220856,0.2582736611366272,0.39973586797714233,3.3417980670928955,1813,12.071314811706543,0.49763932824134827,0.0,600.0,0.5691879987716675,2.4093170166015625,456.75225830078125,8.479426383972168,247.1453094482422,0.0,0.0,2.4093170166015625,2.4093170166015625,0.0,0.0,8.479426383972168,8.139972686767578,0.3394535481929779,0.16770492494106293,0.16770492494106293,6.084972381591797,4.448666095733643,71.56311798095703,-12.0,-23.67934799194336,-13.812458992004395,-10.0,0.0,699.3934326171875,129.19671630859375,22.262386322021484,4.112459659576416,0.8224918842315674,23.084875106811523,69.01338958740234,2.5497243404388428,0.036359649151563644,197.32786560058594,291.96722412109375,480.7704772949219,380.1639404296875,153.18032836914062,78.63934326171875,230.20765686035156,1.0,0.0008293988648802042,0.03847479820251465,0.8012842535972595,0.32887983322143555,0.4866120517253876,0.3836793303489685,1.0
env_steps,37504,62,62,56,37502,0.8787888,0.20504029095172882,0.3805466294288635,0.44431883096694946,0.4591687321662903,4.626938819885254,1844,12.322729110717773,0.49858546257019043,0.0,600.0,0.5677365660667419,2.397580862045288,458.6868896484375,8.481289863586426,249.0700225830078,0.0,0.0,2.397580862045288,2.397580862045288,0.0,0.0,8.481289863586426,8.145807266235352,0.3354838788509369,0.16602151095867157,0.16602151095867157,6.099703788757324,4.466785430908203,71.68434143066406,-12.0,-23.57613182067871,-13.785484313964844,-10.0,0.0,700.5806274414062,129.40322875976562,22.3001766204834,4.119032859802246,0.8238065242767334,23.123979568481445,69.13053894042969,2.553799867630005,0.03634478524327278,196.46774291992188,292.0806579589844,480.6129150390625,379.6290283203125,152.7096710205078,78.46774291992188,229.75807189941406,1.0,0.000830975768622011,0.03853997215628624,0.8010215759277344,0.3274462819099426,0.4868010878562927,0.38293004035949707,1.0
env_steps,38000,63,63,57,37998,0.8771850666666667,0.248810276389122,0.2711142897605896,0.45099490880966187,0.49337732791900635,3.602388381958008,1875,12.887619018554688,0.5012539625167847,0.0,600.0,0.5665954351425171,2.4021430015563965,459.4223937988281,8.49984073638916,248.33908081054688,0.0,0.0,2.4021430015563965,2.4021430015563965,0.0,0.0,8.49984073638916,8.16963005065918,0.33021166920661926,0.16343915462493896,0.16343915462493896,6.114497184753418,4.457350254058838,72.16635131835938,-12.0,-23.506669998168945,-13.772063255310059,-10.0,0.0,705.3650512695312,129.90475463867188,22.452470779418945,4.134997367858887,0.8269994258880615,23.279464721679688,69.60264587402344,2.563697576522827,0.036262091249227524,195.88888549804688,292.4603271484375,480.26983642578125,379.5079345703125,152.74603271484375,78.17460632324219,229.53439331054688,1.0,0.0008354232413694263,0.038799114525318146,0.800449788570404,0.32648152112960815,0.48743388056755066,0.3825572431087494,1.0
env_steps,38512,64,64,58,38510,0.8755296,0.30977189540863037,0.47220563888549805,0.3507460057735443,0.5398907661437988,3.439408302307129,1907,12.531055450439453,0.499370276927948,0.0,600.0,0.5673877000808716,2.40151047706604,456.42108154296875,8.473567962646484,247.0631866455078,0.0,0.0,2.40151047706604,2.40151047706604,0.0,0.0,8.473567962646484,8.148515701293945,0.32505208253860474,0.16088540852069855,0.16088540852069855,6.104114532470703,4.448927879333496,71.79855346679688,-12.0,-23.493751525878906,-13.773750305175781,-10.0,0.0,701.75,129.34375,22.33739471435547,4.1171393394470215,0.8234279155731201,23.160823822021484,69.24592590332031,2.552626609802246,0.03629158064723015,195.78125,293.453125,480.8125,379.515625,152.796875,78.1875,229.5625,1.0,0.0008322838693857193,0.03860137239098549,0.801354169845581,0.32630208134651184,0.4890885353088379,0.38260418176651,1.0
env_steps,39008,65,65,59,39006,0.8739258666666667,0.22136040031909943,0.3176952004432678,0.49055543541908264,0.4703558683395386,4.411622047424316,1938,12.54806900024414,0.4993138313293457,0.0,600.0,0.5662869811058044,2.387205123901367,454.3899841308594,8.41912841796875,247.1563720703125,0.0,0.0,2.387205123901367,2.387205123901367,0.0,0.0,8.41912841796875,8.09902572631836,0.3201025724411011,0.1584615260362625,0.1584615260362625,6.076871871948242,4.440957546234131,71.70652770996094,-12.0,-23.407386779785156,-13.751076698303223,-10.0,0.0,700.923095703125,128.8153839111328,22.311073303222656,4.100321292877197,0.8200642466545105,23.131139755249023,69.16432189941406,2.54219913482666,0.03617149218916893,195.06153869628906,294.3384704589844,481.1384582519531,379.1846008300781,152.55384826660156,77.9076919555664,229.1846160888672,1.0,0.0008321897475980222,0.038551896810531616,0.801897406578064,0.3251025676727295,0.4905640780925751,0.38197436928749084,1.0
env_steps,39504,65,65,59,39502,0.8723221333333333,0.17300179600715637,0.2280845046043396,0.2632926404476166,0.4204484522342682,3.5263192653656006,1969,12.54806900024414,0.4993138313293457,0.0,600.0,0.5662869811058044,2.387205123901367,454.3899841308594,8.41912841796875,247.1563720703125,0.0,0.0,2.387205123901367,2.387205123901367,0.0,0.0,8.41912841796875,8.09902572631836,0.3201025724411011,0.1584615260362625,0.1584615260362625,6.076871871948242,4.440957546234131,71.70652770996094,-12.0,-23.407386779785156,-13.751076698303223,-10.0,0.0,700.923095703125,128.8153839111328,22.311073303222656,4.100321292877197,0.8200642466545105,23.131139755249023,69.16432189941406,2.54219913482666,0.03617149218916893,195.06153869628906,294.3384704589844,481.1384582519531,379.1846008300781,152.55384826660156,77.9076919555664,229.1846160888672,1.0,0.0008321897475980222,0.038551896810531616,0.801897406578064,0.3251025676727295,0.4905640780925751,0.38197436928749084,1.0
env_steps,40000,66,66,60,39998,0.8707184,0.21266235411167145,0.33425796031951904,0.4833349287509918,0.45788612961769104,3.6334776878356934,2000,12.744274139404297,0.49997422099113464,0.0,600.0,0.5659507513046265,2.389368772506714,452.48724365234375,8.364974975585938,246.5033721923828,0.0,0.0,2.389368772506714,2.389368772506714,0.0,0.0,8.364974975585938,8.049721717834473,0.31525254249572754,0.156060591340065,0.156060591340065,6.025303363800049,4.408952236175537,71.88760375976562,-12.0,-23.38909149169922,-13.754242897033691,-10.0,0.0,702.7120971679688,129.0454559326172,22.368019104003906,4.107644081115723,0.8215289115905762,23.189550399780273,69.34086608886719,2.5467398166656494,0.0361381396651268,194.90908813476562,293.81817626953125,480.757568359375,379.19696044921875,152.6969757080078,77.90908813476562,229.2373809814453,1.0,0.000833290396258235,0.03864924982190132,0.801262617111206,0.324848473072052,0.4896969795227051,0.38206231594085693,1.0
env_steps,40512,67,67,61,40510,0.8690629333333333,0.4309331178665161,0.6168547868728638,0.6299062967300415,0.6950380802154541,4.726080417633057,2032,12.862422943115234,0.5005059242248535,0.0,600.0,0.5644076466560364,2.3803482055664062,451.88739013671875,8.374327659606934,246.96612548828125,0.0,0.0,2.3803482055664062,2.3803482055664062,0.0,0.0,8.374327659606934,8.054875373840332,0.3194527328014374,0.1577860563993454,0.1577860563993454,6.036169052124023,4.429805278778076,71.94898986816406,-12.0,-23.3391056060791,-13.74746322631836,-10.0,0.0,703.2985229492188,129.223876953125,22.386686325073242,4.11332368850708,0.8226647973060608,23.209352493286133,69.39872741699219,2.5502610206604004,0.03614524379372597,194.49253845214844,292.97015380859375,480.5074768066406,378.9253845214844,152.4776153564453,77.98507690429688,229.1243896484375,1.0,0.0008341765496879816,0.038682252168655396,0.800845742225647,0.32415422797203064,0.48828357458114624,0.3818739652633667,1.0
env_steps,41008,68,68,62,41006,0.8674592,0.35519731044769287,0.7781521081924438,0.8724946975708008,0.6611922979354858,5.374906063079834,2063,12.91937255859375,0.501035213470459,0.0,600.0,0.5636194944381714,2.3623528480529785,450.3262023925781,8.374313354492188,248.00088500976562,0.0,0.0,2.3623528480529785,2.3623528480529785,0.0,0.0,8.374313354492188,8.04975414276123,0.324558824300766,0.16137254238128662,0.16137254238128662,6.068137168884277,4.476168632507324,72.01437377929688,-12.0,-23.341766357421875,-13.753235816955566,-10.0,0.0,704.0,129.0294189453125,22.409013748168945,4.107133388519287,0.8214268088340759,23.230443954467773,69.46795654296875,2.5464231967926025,0.036054376512765884,194.51470947265625,292.5882263183594,480.1470642089844,379.058837890625,152.5441131591797,78.02941131591797,229.22059631347656,1.0,0.0008350587449967861,0.03871740400791168,0.8002450466156006,0.324191153049469,0.48764705657958984,0.3820343315601349,1.0
env_steps,41504,69,69,63,41502,0.8658554666666667,0.49397897720336914,0.6321388483047485,0.46014219522476196,0.7770889401435852,4.714181423187256,2094,13.054290771484375,0.5016651153564453,0.0,600.0,0.5630712509155273,2.387342929840088,449.87091064453125,8.453598022460938,246.1228790283203,0.0,0.0,2.387342929840088,2.387342929840088,0.0,0.0,8.453598022460938,8.121859550476074,0.3317391276359558,0.1698550581932068,0.1698550581932068,6.1061110496521,4.4679718017578125,72.12791442871094,-12.0,-23.328697204589844,-13.744928359985352,-10.0,0.0,705.0724487304688,129.4202880859375,22.443151473999023,4.119575500488281,0.8239151835441589,23.267070770263672,69.57377624511719,2.5541372299194336,0.03609063848853111,194.40579223632812,292.3333435058594,479.840576171875,378.76812744140625,152.5072479248047,77.98550415039062,229.08213806152344,1.0,0.0008361086365766823,0.03877844661474228,0.7997342348098755,0.32400962710380554,0.48722219467163086,0.38180357217788696,1.0
env_steps,42000,70,70,64,42000,0.8642517333333333,0.3849356174468994,0.507220447063446,0.8640304207801819,0.6867255568504333,7.049159526824951,2125,13.233434677124023,0.5021784901618958,0.0,600.0,0.562348484992981,2.3877620697021484,453.02557373046875,8.450261116027832,247.55081176757812,0.0,0.0,2.3877620697021484,2.3877620697021484,0.0,0.0,8.450261116027832,8.121500015258789,0.32876190543174744,0.16833332180976868,0.16833332180976868,6.107738018035889,4.462495803833008,72.29601287841797,-12.0,-23.314285278320312,-13.748286247253418,-10.0,0.0,706.7285766601562,129.6571502685547,22.495868682861328,4.127114772796631,0.8254230618476868,23.3212947845459,69.73719787597656,2.558811664581299,0.03606570139527321,194.2857208251953,292.24285888671875,479.72857666015625,378.94287109375,152.41429138183594,78.02857208251953,229.1381072998047,1.0,0.0008369642309844494,0.03886881843209267,0.799547553062439,0.3238094747066498,0.4870713949203491,0.38189685344696045,1.0
env_steps,42512,70,70,64,42510,0.8625962666666667,0.27721452713012695,0.8461463451385498,0.9398323893547058,0.5641276836395264,5.758983612060547,2157,13.233434677124023,0.5021784901618958,0.0,600.0,0.562348484992981,2.3877620697021484,453.02557373046875,8.450261116027832,247.55081176757812,0.0,0.0,2.3877620697021484,2.3877620697021484,0.0,0.0,8.450261116027832,8.121500015258789,0.32876190543174744,0.16833332180976868,0.16833332180976868,6.107738018035889,4.462495803833008,72.29601287841797,-12.0,-23.314285278320312,-13.748286247253418,-10.0,0.0,706.7285766601562,129.6571502685547,22.495868682861328,4.127114772796631,0.8254230618476868,23.3212947845459,69.73719787597656,2.558811664581299,0.03606570139527321,194.2857208251953,292.24285888671875,479.72857666015625,378.94287109375,152.41429138183594,78.02857208251953,229.1381072998047,1.0,0.0008369642309844494,0.03886881843209267,0.799547553062439,0.3238094747066498,0.4870713949203491,0.38189685344696045,1.0
env_steps,43008,71,71,65,43006,0.8609925333333334,0.3346967101097107,0.7269195318222046,0.7950272560119629,0.627151370048523,6.4115891456604,2188,13.364689826965332,0.502694308757782,0.0,600.0,0.5608258843421936,2.3930985927581787,451.12261962890625,8.450819969177246,245.92893981933594,0.0,0.0,2.3930985927581787,2.3930985927581787,0.0,0.0,8.450819969177246,8.126103401184082,0.32471829652786255,0.16654929518699646,0.16654929518699646,6.108333110809326,4.449506759643555,72.37736511230469,-12.0,-23.273239135742188,-13.739436149597168,-10.0,0.0,707.4647827148438,130.0985870361328,22.519302368164062,4.141166687011719,0.8282334208488464,23.3475399017334,69.80984497070312,2.567523717880249,0.036130938678979874,193.94366455078125,291.2676086425781,479.3380432128906,378.9013977050781,152.23944091796875,77.91548919677734,228.99063110351562,1.0,0.0008378238999284804,0.038912560790777206,0.7988966703414917,0.32323938608169556,0.4854459762573242,0.3816510736942291,1.0
env_steps,43504,72,72,66,43502,0.8593888000000001,0.4525200426578522,0.6056843400001526,0.6637524962425232,0.7501875162124634,4.647958278656006,2219,13.499100685119629,0.5035416483879089,0.0,600.0,0.5600618720054626,2.3848843574523926,451.27392578125,8.45287036895752,246.29405212402344,0.0,0.0,2.3848843574523926,2.3848843574523926,0.0,0.0,8.45287036895752,8.130115509033203,0.3227546215057373,0.16636572778224945,0.16636572778224945,6.129351615905762,4.459364891052246,72.44632720947266,-12.0,-23.220001220703125,-13.727222442626953,-10.0,0.0,708.111083984375,130.36111450195312,22.53987693786621,4.1495232582092285,0.8299045562744141,23.369781494140625,69.87361907958984,2.572704315185547,0.03615717589855194,193.5,291.8888854980469,479.3888854980469,378.6805419921875,152.01388549804688,77.83333587646484,228.78704833984375,1.0,0.000839236075989902,0.0389496348798275,0.7989814281463623,0.3225000202655792,0.48648151755332947,0.38131171464920044,1.0
env_steps,44000,73,73,67,43998,0.8577850666666667,0.29598018527030945,0.787955105304718,0.8675285577774048,0.5704448223114014,3.983377695083618,2250,13.91075611114502,0.5056972503662109,0.0,600.0,0.5582247972488403,2.383150815963745,451.4562683105469,8.455114364624023,245.84848022460938,0.0,0.0,2.383150815963745,2.383150815963745,0.0,0.0,8.455114364624023,8.136780738830566,0.31833332777023315,0.1640867441892624,0.1640867441892624,6.109771728515625,4.452041149139404,72.81185913085938,-12.0,-23.181371688842773,-13.719725608825684,-10.0,0.0,711.7123413085938,130.876708984375,22.65450668334961,4.165935516357422,0.8331869840621948,23.487693786621094,70.22897338867188,2.5828797817230225,0.036120034754276276,193.17808532714844,291.5479431152344,478.90411376953125,378.4794616699219,151.75341796875,77.876708984375,228.662109375,1.0,0.0008428287692368031,0.03914615511894226,0.7981734871864319,0.32196348905563354,0.4859132766723633,0.3811034858226776,1.0
env_steps,44512,74,74,68,44510,0.8561296,0.371163010597229,0.7553618550300598,0.5917847752571106,0.6793092489242554,4.963931560516357,2282,14.029889106750488,0.5065472722053528,0.0,600.0,0.557449221611023,2.3951802253723145,451.7962951660156,8.481148719787598,245.69430541992188,0.0,0.0,2.3951802253723145,2.3951802253723145,0.0,0.0,8.481148719787598,8.164009094238281,0.3171396255493164,0.1643918752670288,0.1643918752670288,6.110180377960205,4.452893257141113,72.94934844970703,-12.0,-23.19891929626465,-13.720541000366211,-10.0,0.0,712.9865112304688,131.4729766845703,22.6950626373291,4.184915065765381,0.8369829058647156,23.53204917907715,70.35469818115234,2.594647169113159,0.036194320768117905,193.32432556152344,291.1216125488281,478.6486511230469,378.4864807128906,151.729736328125,77.90540313720703,228.67567443847656,1.0,0.0008442454854957759,0.03922007977962494,0.7977477312088013,0.3222072124481201,0.48520272970199585,0.3811261057853699,1.0
env_steps,45008,75,75,69,45006,0.8545258666666666,0.30373555421829224,0.6613299250602722,0.6832941770553589,0.5686924457550049,4.520223617553711,2313,14.759526252746582,0.5099853277206421,0.0,600.0,0.5555629134178162,2.385999917984009,452.86224365234375,8.492755889892578,246.66668701171875,0.0,0.0,2.385999917984009,2.385999917984009,0.0,0.0,8.492755889892578,8.178044319152832,0.3147110939025879,0.16351109743118286,0.16351109743118286,6.129666805267334,4.471109867095947,73.63365936279297,-12.0,-23.153602600097656,-13.720534324645996,-10.0,0.0,719.8133544921875,132.01333618164062,22.912368774414062,4.202115058898926,0.8404229879379272,23.752792358398438,71.0283432006836,2.605311393737793,0.03607592731714249,192.94667053222656,290.50665283203125,478.1199951171875,378.5733337402344,151.586669921875,77.93333435058594,228.67555236816406,1.0,0.0008499755640514195,0.03958798572421074,0.7968666553497314,0.321577787399292,0.4841777980327606,0.38112592697143555,1.0
env_steps,45504,75,75,69,45502,0.8529221333333333,0.2598125636577606,0.6809173822402954,0.5895932912826538,0.5598043203353882,5.048984527587891,2344,14.759526252746582,0.5099853277206421,0.0,600.0,0.5555629134178162,2.385999917984009,452.86224365234375,8.492755889892578,246.66668701171875,0.0,0.0,2.385999917984009,2.385999917984009,0.0,0.0,8.492755889892578,8.178044319152832,0.3147110939025879,0.16351109743118286,0.16351109743118286,6.129666805267334,4.471109867095947,73.63365936279297,-12.0,-23.153602600097656,-13.720534324645996,-10.0,0.0,719.8133544921875,132.01333618164062,22.912368774414062,4.202115058898926,0.8404229879379272,23.752792358398438,71.0283432006836,2.605311393737793,0.03607592731714249,192.94667053222656,290.50665283203125,478.1199951171875,378.5733337402344,151.586669921875,77.93333435058594,228.67555236816406,1.0,0.0008499755640514195,0.03958798572421074,0.7968666553497314,0.321577787399292,0.4841777980327606,0.38112592697143555,1.0
env_steps,46000,76,76,70,45998,0.8513184,0.4113682806491852,0.7583025097846985,0.8588098883628845,0.7032937407493591,4.772578239440918,2375,14.704193115234375,0.5100052356719971,0.0,600.0,0.5548427700996399,2.3821492195129395,453.6046447753906,8.488553047180176,246.7660369873047,0.0,0.0,2.3821492195129395,2.3821492195129395,0.0,0.0,8.488553047180176,8.177982330322266,0.3105701506137848,0.16135963797569275,0.16135963797569275,6.128245830535889,4.466804504394531,73.55313873291016,-12.0,-23.12526512145996,-13.723684310913086,-10.0,0.0,719.0263061523438,131.86842346191406,22.88731575012207,4.197502613067627,0.8395004272460938,23.72681999206543,70.95068359375,2.6024513244628906,0.03606663644313812,192.7105255126953,290.868408203125,478.2894592285156,378.6973571777344,151.82894897460938,77.82894897460938,228.72805786132812,1.0,0.0008500088006258011,0.03954469785094261,0.797149121761322,0.3211842179298401,0.4847806990146637,0.3812134265899658,1.0
env_steps,46512,77,77,71,46510,0.8496629333333333,0.23350906372070312,0.8255715370178223,0.7293636798858643,0.5142115354537964,5.325227737426758,2407,14.967708587646484,0.5110311508178711,0.0,600.0,0.5536658763885498,2.3749783039093018,452.9486083984375,8.467229843139648,247.0171661376953,0.0,0.0,2.3749783039093018,2.3749783039093018,0.0,0.0,8.467229843139648,8.160693168640137,0.30653679370880127,0.15926405787467957,0.15926405787467957,6.1138529777526855,4.4660563468933105,73.822509765625,-12.0,-23.13039207458496,-13.72441577911377,-10.0,0.0,721.6363525390625,132.467529296875,22.97039794921875,4.2165727615356445,0.843314528465271,23.8137149810791,71.20823669433594,2.614274740219116,0.036082055419683456,192.7532501220703,290.6363525390625,477.93505859375,378.6103820800781,151.81817626953125,77.89610290527344,228.740234375,1.0,0.0008517186506651342,0.03968952223658562,0.7965584397315979,0.3212553858757019,0.48439398407936096,0.38123375177383423,1.0
env_steps,47008,78,78,72,47006,0.8480592,0.2958229184150696,0.7663689851760864,1.0110973119735718,0.5760413408279419,5.0728759765625,2438,15.21996784210205,0.5122448801994324,0.0,600.0,0.553223192691803,2.3702564239501953,453.5582580566406,8.471901893615723,247.30047607421875,0.0,0.0,2.3702564239501953,2.3702564239501953,0.0,0.0,8.471901893615723,8.169230461120605,0.3026709258556366,0.15728631615638733,0.15728631615638733,6.11476469039917,4.468766689300537,74.05714416503906,-12.0,-23.11077117919922,-13.726410865783691,-10.0,0.0,723.9871826171875,132.60256958007812,23.045225143432617,4.2208709716796875,0.8441742062568665,23.889402389526367,71.44020080566406,2.6169395446777344,0.03601221367716789,192.58973693847656,290.69232177734375,477.6794738769531,378.5769348144531,152.1794891357422,77.78205108642578,228.7734832763672,1.0,0.000853741483297199,0.03981567174196243,0.7961324453353882,0.3209828734397888,0.4844872057437897,0.38128915429115295,1.0
env_steps,47504,79,79,73,47502,0.8464554666666666,0.3430010676383972,0.7914162874221802,0.9273731708526611,0.6190131306648254,4.867870330810547,2469,15.661489486694336,0.514756977558136,0.0,600.0,0.5520545244216919,2.378037929534912,455.2091064453125,8.499093055725098,246.8474578857422,0.0,0.0,2.378037929534912,2.378037929534912,0.0,0.0,8.499093055725098,8.19054889678955,0.3085442781448364,0.16478902101516724,0.16478902101516724,6.145590305328369,4.461164474487305,74.49693298339844,-12.0,-23.105318069458008,-13.730127334594727,-10.0,0.0,728.2785034179688,133.4303741455078,23.181821823120117,4.247220993041992,0.8494442105293274,24.031269073486328,71.86365509033203,2.63327693939209,0.0360109843313694,192.54429626464844,289.582275390625,477.06329345703125,378.5569763183594,152.17721557617188,77.88607788085938,228.83541870117188,1.0,0.0008579283021390438,0.04005211591720581,0.7951054573059082,0.3209071457386017,0.4826371371746063,0.38139238953590393,1.0
env_steps,48000,80,80,74,48000,0.8448517333333334,0.3005957007408142,0.7551428079605103,0.8680105209350586,0.578176736831665,4.680988788604736,2500,15.408475875854492,0.5141087770462036,0.0,600.0,0.5519342422485352,2.3943123817443848,452.299560546875,8.483125686645508,244.7898406982422,0.0,0.0,2.3943123817443848,2.3943123817443848,0.0,0.0,8.483125686645508,8.178438186645508,0.3046875,0.1627291738986969,0.1627291738986969,6.114895820617676,4.434803485870361,74.27322387695312,-12.0,-23.127002716064453,-13.737750053405762,-10.0,0.0,725.9749755859375,133.6125030517578,23.108501434326172,4.253018379211426,0.8506035804748535,23.959104537963867,71.63636016845703,2.636870861053467,0.036205895245075226,192.72500610351562,290.61248779296875,477.1875,378.625,152.2375030517578,78.01249694824219,228.96249389648438,1.0,0.000856847851537168,0.03993184119462967,0.7953125238418579,0.32120832800865173,0.484354168176651,0.3816041350364685,1.0
env_steps,48512,80,80,74,48510,0.8431962666666667,0.24224410951137543,0.6425690650939941,0.6426665186882019,0.5036905407905579,5.279376983642578,2532,15.408475875854492,0.5141087770462036,0.0,600.0,0.5519342422485352,2.3943123817443848,452.299560546875,8.483125686645508,244.7898406982422,0.0,0.0,2.3943123817443848,2.3943123817443848,0.0,0.0,8.483125686645508,8.178438186645508,0.3046875,0.1627291738986969,0.1627291738986969,6.114895820617676,4.434803485870361,74.27322387695312,-12.0,-23.127002716064453,-13.737750053405762,-10.0,0.0,725.9749755859375,133.6125030517578,23.108501434326172,4.253018379211426,0.8506035804748535,23.959104537963867,71.63636016845703,2.636870861053467,0.036205895245075226,192.72500610351562,290.61248779296875,477.1875,378.625,152.2375030517578,78.01249694824219,228.96249389648438,1.0,0.000856847851537168,0.03993184119462967,0.7953125238418579,0.32120832800865173,0.484354168176651,0.3816041350364685,1.0
env_steps,49008,81,81,75,49006,0.8415925333333334,0.429988294839859,0.6955127716064453,0.703738808631897,0.7207012176513672,5.061888694763184,2563,15.19154167175293,0.5127382874488831,0.0,600.0,0.5526180267333984,2.3867077827453613,452.5064697265625,8.45563793182373,245.89881896972656,0.0,0.0,2.3867077827453613,2.3867077827453613,0.0,0.0,8.45563793182373,8.154711723327637,0.30092594027519226,0.16072016954421997,0.16072016954421997,6.1067280769348145,4.428168296813965,74.07697296142578,-12.0,-23.137779235839844,-13.747654914855957,-10.0,0.0,724.0493774414062,133.29629516601562,23.047208786010742,4.242953300476074,0.8485904932022095,23.895797729492188,71.44634246826172,2.6306307315826416,0.03620966151356697,192.8148193359375,291.0617370605469,477.3827209472656,378.8518371582031,152.25926208496094,78.13580322265625,229.12757873535156,1.0,0.0008545637247152627,0.03982632979750633,0.7956377863883972,0.3213580250740051,0.4851028621196747,0.3818792700767517,1.0
env_steps,49504,82,82,76,49502,0.8399888,0.4182278513908386,0.5962663292884827,0.515735924243927,0.7058451771736145,4.696044445037842,2594,15.176142692565918,0.5124390125274658,0.0,600.0,0.5522705912590027,2.4058942794799805,454.5087585449219,8.518942832946777,245.0989227294922,0.0,0.0,2.4058942794799805,2.4058942794799805,0.0,0.0,8.518942832946777,8.219064712524414,0.2998780608177185,0.15953251719474792,0.15953251719474792,6.110020160675049,4.421746730804443,74.03809356689453,-12.0,-23.11902618408203,-13.742927551269531,-10.0,0.0,723.5853881835938,133.64634704589844,23.032438278198242,4.254095077514648,0.8508189916610718,23.883256912231445,71.40055847167969,2.6375389099121094,0.036318082362413406,192.65853881835938,291.43902587890625,477.4634094238281,378.756103515625,152.21951293945312,78.08536529541016,229.0487823486328,1.0,0.0008540649432688951,0.03980543091893196,0.7957722544670105,0.32109755277633667,0.48573169112205505,0.38174793124198914,1.0
env_steps,50000,83,83,77,49998,0.8383850666666667,0.3288372755050659,0.8092490434646606,0.8589975833892822,0.6279729604721069,5.48375940322876,2625,15.386186599731445,0.5135458111763,0.0,600.0,0.5513501167297363,2.4073896408081055,455.5284118652344,8.502368927001953,245.18406677246094,0.0,0.0,2.4073896408081055,2.4073896408081055,0.0,0.0,8.502368927001953,8.206104278564453,0.2962650656700134,0.1576104462146759,0.1576104462146759,6.09092378616333,4.411405563354492,74.25076293945312,-12.0,-23.123857498168945,-13.740724563598633,-10.0,0.0,725.6265258789062,134.2168731689453,23.097408294677734,4.272255897521973,0.8544511198997498,23.951860427856445,71.60196685791016,2.6487982273101807,0.03634989261627197,192.69879150390625,290.5662536621094,477.06024169921875,378.5903625488281,151.77108764648438,78.33734893798828,229.01205444335938,1.0,0.0008559096022509038,0.03991977125406265,0.7951002717018127,0.32116463780403137,0.4842770993709564,0.3816867172718048,1.0
env_steps,50512,84,84,78,50510,0.8367296,0.2050272822380066,0.5772651433944702,0.598572313785553,0.46316927671432495,4.748734951019287,2657,15.729255676269531,0.5154571533203125,0.0,600.0,0.5496989488601685,2.4045634269714355,455.4311828613281,8.499245643615723,244.8965301513672,0.0,0.0,2.4045634269714355,2.4045634269714355,0.0,0.0,8.499245643615723,8.205336570739746,0.2939087450504303,0.1564881056547165,0.1564881056547165,6.101527690887451,4.409818172454834,74.5699691772461,-12.0,-23.10428810119629,-13.736430168151855,-10.0,0.0,728.6904907226562,135.07142639160156,23.19493865966797,4.299457550048828,0.859891414642334,24.05483055114746,71.90431213378906,2.665663242340088,0.03639604523777962,192.5357208251953,289.4285583496094,476.4166564941406,378.48809814453125,151.8095245361328,78.26190185546875,228.9404754638672,1.0,0.000859095249325037,0.040091387927532196,0.7940276861190796,0.320892870426178,0.4823809564113617,0.38156744837760925,1.0
env_steps,51008,85,85,79,51006,0.8351258666666667,0.33120298385620117,0.8411621451377869,0.756772518157959,0.6385884284973145,4.777227401733398,2688,15.992260932922363,0.5168870687484741,0.0,600.0,0.5490456819534302,2.39184308052063,455.8970947265625,8.487333297729492,247.0605010986328,0.0,0.0,2.39184308052063,2.39184308052063,0.0,0.0,8.487333297729492,8.196470260620117,0.2908627390861511,0.15496079623699188,0.15496079623699188,6.112117290496826,4.433712482452393,74.77579498291016,-12.0,-23.058353424072266,-13.725177764892578,-10.0,0.0,730.682373046875,135.5411834716797,23.258342742919922,4.314410209655762,0.8628818988800049,24.12122344970703,72.10086059570312,2.674933671951294,0.03640919178724289,192.15293884277344,289.2470703125,476.20001220703125,378.2470703125,151.68235778808594,78.16470336914062,228.75294494628906,1.0,0.0008614783873781562,0.04020204395055771,0.7936666011810303,0.3202548921108246,0.4820784032344818,0.3812548816204071,1.0
env_steps,51504,85,85,79,51502,0.8335221333333334,0.31950855255126953,0.7401386499404907,0.7348400354385376,0.6013433933258057,4.877078056335449,2719,15.992260932922363,0.5168870687484741,0.0,600.0,0.5490456819534302,2.39184308052063,455.8970947265625,8.487333297729492,247.0605010986328,0.0,0.0,2.39184308052063,2.39184308052063,0.0,0.0,8.487333297729492,8.196470260620117,0.2908627390861511,0.15496079623699188,0.15496079623699188,6.112117290496826,4.433712482452393,74.77579498291016,-12.0,-23.058353424072266,-13.725177764892578,-10.0,0.0,730.682373046875,135.5411834716797,23.258342742919922,4.314410209655762,0.8628818988800049,24.12122344970703,72.10086059570312,2.674933671951294,0.03640919178724289,192.15293884277344,289.2470703125,476.20001220703125,378.2470703125,151.68235778808594,78.16470336914062,228.75294494628906,1.0,0.0008614783873781562,0.04020204395055771,0.7936666011810303,0.3202548921108246,0.4820784032344818,0.3812548816204071,1.0
env_steps,52000,86,86,80,51998,0.8319184,0.43799418210983276,0.8288480639457703,0.9236971139907837,0.7510527968406677,4.939362049102783,2750,16.206233978271484,0.5178953409194946,0.0,600.0,0.5476531386375427,2.384263753890991,456.2159729003906,8.531007766723633,247.60491943359375,0.0,0.0,2.384263753890991,2.384263753890991,0.0,0.0,8.531007766723633,8.202906608581543,0.3281007707118988,0.1638565957546234,0.1638565957546234,6.173158645629883,4.472968578338623,74.95158386230469,-12.0,-23.03162956237793,-13.713722229003906,-10.0,0.0,732.3837280273438,135.94186401367188,23.312498092651367,4.327164173126221,0.8654327392578125,24.17793083190918,72.26874542236328,2.6828413009643555,0.03641979768872261,191.93023681640625,289.5581359863281,475.9651184082031,378.0813903808594,151.62791442871094,77.98837280273438,228.56202697753906,1.0,0.000863158842548728,0.04029655456542969,0.7932751774787903,0.3198837339878082,0.48259690403938293,0.3809366822242737,1.0
env_steps,52512,87,87,81,52510,0.8302629333333333,0.25151321291923523,0.5402880907058716,0.49100810289382935,0.5355014801025391,5.223280906677246,2782,15.971887588500977,0.5167862176895142,0.0,600.0,0.5470384359359741,2.3738698959350586,455.7921142578125,8.520766258239746,248.363037109375,0.0,0.0,2.3738698959350586,2.3738698959350586,0.0,0.0,8.520766258239746,8.19639778137207,0.32436782121658325,0.1620115041732788,0.1620115041732788,6.184329509735107,4.4867753982543945,74.6741943359375,-12.0,-22.994483947753906,-13.707817077636719,-10.0,0.0,729.6206665039062,135.70115661621094,23.22454833984375,4.319501876831055,0.8639003038406372,24.088449478149414,71.99610137939453,2.678090810775757,0.0365145169198513,191.62069702148438,290.2643737792969,476.24139404296875,378.0,151.55172729492188,77.91954040527344,228.46360778808594,1.0,0.000861310341861099,0.04014741629362106,0.7937356233596802,0.31936782598495483,0.48377394676208496,0.3807726502418518,1.0
env_steps,53008,88,88,82,53006,0.8286592,0.2539418041706085,0.7352867126464844,0.7276747226715088,0.5172315835952759,4.6188764572143555,2813,15.870415687561035,0.5161738991737366,0.0,600.0,0.5465700626373291,2.3614583015441895,457.6723937988281,8.50291633605957,251.43124389648438,0.0,0.0,2.3614583015441895,2.3614583015441895,0.0,0.0,8.50291633605957,8.182234764099121,0.3206818103790283,0.16017045080661774,0.16017045080661774,6.184848308563232,4.504133701324463,74.55223846435547,-12.0,-22.97727394104004,-13.704545021057129,-10.0,0.0,728.352294921875,135.86363220214844,23.184171676635742,4.324673652648926,0.8649347424507141,24.049104690551758,71.87094116210938,2.681297540664673,0.03662567213177681,191.47727966308594,290.1363525390625,476.2840881347656,377.9659118652344,151.39772033691406,77.93181610107422,228.40908813476562,1.0,0.0008602897287346423,0.040081847459077835,0.793806791305542,0.31912878155708313,0.48356059193611145,0.3806818127632141,1.0
env_steps,53504,89,89,83,53502,0.8270554666666667,0.3692837059497833,0.8776671290397644,0.8378945589065552,0.664690375328064,5.1768388748168945,2844,16.185993194580078,0.5182876586914062,0.0,600.0,0.5455513596534729,2.3672096729278564,458.15191650390625,8.495711326599121,251.00494384765625,0.0,0.0,2.3672096729278564,2.3672096729278564,0.0,0.0,8.495711326599121,8.178614616394043,0.31709736585617065,0.15838950872421265,0.15838950872421265,6.181966304779053,4.492143154144287,74.88958740234375,-12.0,-22.99146270751953,-13.712135314941406,-10.0,0.0,731.6629028320312,136.4044952392578,23.28955078125,4.34188985824585,0.8683779239654541,24.157928466796875,72.19762420654297,2.691971778869629,0.036604300141334534,191.5955047607422,289.59552001953125,475.9325866699219,378.0337219238281,151.3483123779297,78.11235809326172,228.5355682373047,1.0,0.000863812689203769,0.04026322066783905,0.7932209372520447,0.31932583451271057,0.48265916109085083,0.38089263439178467,1.0
env_steps,54000,90,90,84,54000,0.8254517333333333,0.26416176557540894,0.8154973983764648,0.6501272916793823,0.5569796562194824,5.626779556274414,2875,16.131982803344727,0.5177233219146729,0.0,600.0,0.5452763438224792,2.371148109436035,457.0911560058594,8.49824047088623,249.846435546875,0.0,0.0,2.371148109436035,2.371148109436035,0.0,0.0,8.49824047088623,8.184536933898926,0.313703715801239,0.15675924718379974,0.15675924718379974,6.180185317993164,4.480250835418701,74.81531524658203,-12.0,-22.972002029418945,-13.711333274841309,-10.0,0.0,730.888916015625,136.5111083984375,23.264911651611328,4.345283508300781,0.8690567016601562,24.133968353271484,72.12124633789062,2.6940758228302,0.036666978150606155,191.43333435058594,290.022216796875,476.0555419921875,378.0,151.45555114746094,78.05555725097656,228.522216796875,1.0,0.0008628721698187292,0.04022328928112984,0.7934259176254272,0.31905555725097656,0.4833703339099884,0.38087034225463867,1.0
env_steps,54512,90,90,84,54510,0.8237962666666667,0.2895979881286621,0.9271802306175232,0.872376024723053,0.5735515356063843,5.490440845489502,2907,16.131982803344727,0.5177233219146729,0.0,600.0,0.5452763438224792,2.371148109436035,457.0911560058594,8.49824047088623,249.846435546875,0.0,0.0,2.371148109436035,2.371148109436035,0.0,0.0,8.49824047088623,8.184536933898926,0.313703715801239,0.15675924718379974,0.15675924718379974,6.180185317993164,4.480250835418701,74.81531524658203,-12.0,-22.972002029418945,-13.711333274841309,-10.0,0.0,730.888916015625,136.5111083984375,23.264911651611328,4.345283508300781,0.8690567016601562,24.133968353271484,72.12124633789062,2.6940758228302,0.036666978150606155,191.43333435058594,290.022216796875,476.0555419921875,378.0,151.45555114746094,78.05555725097656,228.522216796875,1.0,0.0008628721698187292,0.04022328928112984,0.7934259176254272,0.31905555725097656,0.4833703339099884,0.38087034225463867,1.0
env_steps,55008,91,91,85,55006,0.8221925333333333,0.2995064854621887,0.5442581176757812,0.5413292050361633,0.5577930808067322,5.243757247924805,2938,16.228696823120117,0.518267035484314,0.0,600.0,0.5452816486358643,2.3740475177764893,456.3790283203125,8.494359016418457,248.7953338623047,0.0,0.0,2.3740475177764893,2.3740475177764893,0.0,0.0,8.494359016418457,8.184103012084961,0.3102564215660095,0.15503662824630737,0.15503662824630737,6.158297061920166,4.466004371643066,74.89990234375,-12.0,-22.968793869018555,-13.702418327331543,-10.0,0.0,731.6923217773438,136.78021240234375,23.290483474731445,4.353849411010742,0.8707698583602905,24.161256790161133,72.20052337646484,2.6993868350982666,0.036687202751636505,191.40660095214844,290.5384521484375,476.0879211425781,377.8681335449219,151.3406524658203,77.95604705810547,228.37362670898438,1.0,0.0008637782884761691,0.04026876762509346,0.793479859828949,0.31901100277900696,0.48423075675964355,0.3806226849555969,1.0
env_steps,55504,92,92,86,55502,0.8205888,0.3797602653503418,0.8575692176818848,0.7353258728981018,0.6875138282775879,5.258922100067139,2969,16.85212516784668,0.5215184688568115,0.0,600.0,0.5438218116760254,2.392862319946289,456.653076171875,8.5673189163208,247.47357177734375,0.0,0.0,2.392862319946289,2.392862319946289,0.0,0.0,8.5673189163208,8.225543022155762,0.3417753577232361,0.1637318730354309,0.1637318730354309,6.212627410888672,4.4627580642700195,75.49212646484375,-12.0,-22.942174911499023,-13.697827339172363,-10.0,0.0,737.3695678710938,138.4021759033203,23.4711971282959,4.405478000640869,0.8810955286026001,24.352294921875,72.76073455810547,2.731396436691284,0.03676260635256767,191.18478393554688,289.521728515625,475.1847839355469,377.8043518066406,151.28260803222656,77.90217590332031,228.29710388183594,1.0,0.000869197363499552,0.0405871644616127,0.7919746041297913,0.3186413049697876,0.4825362265110016,0.3804951608181,1.0
