dk0113-Y/DRL-path-finding/experiment_records/full_method_main/logs/train_steps.csv
budget_mode,env_steps,episode_idx,train_episode_idx,completed_train_episodes,replay_size,epsilon,loss,q_mean,target_q_mean,td_abs_mean,grad_norm,learner_steps,recent_mean_reward,recent_mean_coverage,recent_success_rate,recent_mean_episode_length,recent_mean_repeat_visit_ratio,recent_accessible_block_count,recent_total_accessible_unknown_area,recent_total_frontier_cluster_count,recent_mean_block_area,recent_local_frontier_coverage,recent_local_frontier_block_area_mean,recent_value_total_block_count_before_cap,recent_value_packed_block_count,recent_value_truncated_block_count,recent_value_block_cap_hit_flag,recent_value_total_entry_count_before_cap,recent_value_packed_entry_count,recent_value_truncated_entry_count,recent_value_entry_cap_hit_block_count,recent_value_entry_cap_hit_flag,recent_value_max_frontier_clusters_per_block,recent_value_mean_frontier_clusters_per_block,recent_info_reward_sum,recent_step_penalty_sum,recent_recent_revisit_penalty_sum,recent_turn_penalty_sum,recent_timeout_penalty_sum,recent_terminal_bonus_sum,recent_delta_empty_sum,recent_delta_obstacle_sum,recent_empty_info_gain_sum,recent_obstacle_info_gain_sum,recent_weighted_obstacle_info_gain_sum,recent_weighted_info_gain_sum,recent_empty_info_reward_sum,recent_obstacle_info_reward_sum,recent_obstacle_info_contribution_ratio,recent_recent_revisit_trigger_count,recent_stall_trigger_count,recent_zero_info_step_count,recent_turn_ge_90_count,recent_turn_135_count,recent_turn_180_count,recent_turn_penalty_weight_sum,recent_timeout_flag,recent_coverage_gain_per_step,recent_weighted_info_gain_per_step,recent_zero_info_rate,recent_recent_revisit_rate,recent_stall_rate,recent_turn_burden_rate,recent_timeout_rate
env_steps,4512,7,7,1,4510,0.982016,nan,nan,nan,nan,nan,0,11.520491600036621,0.4528000056743622,0.0,600.0,0.6268124580383301,2.2254765033721924,424.6495056152344,8.565237998962402,243.85841369628906,0.029014144092798233,0.6078932881355286,2.2254765033721924,2.2254765033721924,0.0,0.0,8.565237998962402,8.238809585571289,0.3264285922050476,0.18285714089870453,0.18285714089870453,6.1773810386657715,4.777527809143066,63.74191665649414,-12.0,-20.514284133911133,-11.70714282989502,-8.0,0.0,624.5714111328125,107.0,19.880725860595703,3.4059157371520996,0.6811831593513489,20.56191062927246,61.6302490234375,2.1116678714752197,0.033474504947662354,205.14285278320312,311.8571472167969,493.4285583496094,387.28570556640625,157.42857360839844,78.85713958740234,234.14285278320312,1.0,0.0007546666311100125,0.034269846975803375,0.8223809599876404,0.34190478920936584,0.5197619199752808,0.39023807644844055,1.0
env_steps,5008,8,8,2,5006,0.980032,nan,nan,nan,nan,nan,0,8.653136253356934,0.44091248512268066,0.0,600.0,0.6356073021888733,2.2127084732055664,416.923095703125,8.36229133605957,235.72242736816406,0.02934429422020912,0.6043105721473694,2.2127084732055664,2.2127084732055664,0.0,0.0,8.36229133605957,8.076666831970215,0.28562501072883606,0.1599999964237213,0.1599999964237213,5.916874885559082,4.611430644989014,61.628135681152344,-12.0,-21.049999237060547,-11.925000190734863,-8.0,0.0,602.75,109.0,19.186128616333008,3.4695777893066406,0.6939155459403992,19.88004493713379,59.47699737548828,2.1511383056640625,0.03576933592557907,210.5,313.875,495.125,391.125,158.625,82.875,238.5,1.0,0.0007348541403189301,0.033133406192064285,0.825208306312561,0.35083332657814026,0.5231250524520874,0.3974999785423279,1.0
env_steps,5504,9,9,3,5502,0.978048,nan,nan,nan,nan,nan,0,9.426457405090332,0.4439221918582916,0.0,600.0,0.6267331838607788,2.280740976333618,422.94720458984375,8.039073944091797,228.29283142089844,0.0277580413967371,0.5707758665084839,2.280740976333618,2.280740976333618,0.0,0.0,8.039073944091797,7.785184860229492,0.25388890504837036,0.14222222566604614,0.14222222566604614,5.55648136138916,4.316827297210693,62.04312515258789,-12.0,-20.78888702392578,-11.827777862548828,-8.0,0.0,607.4444580078125,106.55555725097656,19.33555793762207,3.39176869392395,0.6783537268638611,20.013912200927734,59.94022750854492,2.1028966903686523,0.03471364453434944,207.88888549804688,319.0,496.4444580078125,389.77777099609375,159.0,80.44444274902344,236.55555725097656,1.0,0.0007398703601211309,0.03335651755332947,0.8274074196815491,0.34648147225379944,0.5316666960716248,0.3942592442035675,1.0
env_steps,6000,10,10,4,6000,0.976064,nan,nan,nan,nan,nan,0,10.303361892700195,0.44544997811317444,0.0,600.0,0.6231280565261841,2.2865002155303955,431.92901611328125,8.238665580749512,231.64266967773438,0.028037037700414658,0.6011641621589661,2.2865002155303955,2.2865002155303955,0.0,0.0,8.238665580749512,7.911499977111816,0.32716667652130127,0.17599999904632568,0.17599999904632568,5.865499973297119,4.420880317687988,62.87836456298828,-12.0,-20.770000457763672,-11.805000305175781,-8.0,0.0,615.5,108.5999984741211,19.59197425842285,3.45684552192688,0.6913690567016602,20.283344268798828,60.7351188659668,2.1432442665100098,0.034802697598934174,207.6999969482422,312.70001220703125,495.1000061035156,389.1000061035156,158.8000030517578,80.19999694824219,236.10000610351562,1.0,0.0007424166542477906,0.033805571496486664,0.8251667022705078,0.3461666703224182,0.5211666822433472,0.3935000002384186,1.0
env_steps,6512,10,10,4,6510,0.974016,nan,nan,nan,nan,nan,0,10.303361892700195,0.44544997811317444,0.0,600.0,0.6231280565261841,2.2865002155303955,431.92901611328125,8.238665580749512,231.64266967773438,0.028037037700414658,0.6011641621589661,2.2865002155303955,2.2865002155303955,0.0,0.0,8.238665580749512,7.911499977111816,0.32716667652130127,0.17599999904632568,0.17599999904632568,5.865499973297119,4.420880317687988,62.87836456298828,-12.0,-20.770000457763672,-11.805000305175781,-8.0,0.0,615.5,108.5999984741211,19.59197425842285,3.45684552192688,0.6913690567016602,20.283344268798828,60.7351188659668,2.1432442665100098,0.034802697598934174,207.6999969482422,312.70001220703125,495.1000061035156,389.1000061035156,158.8000030517578,80.19999694824219,236.10000610351562,1.0,0.0007424166542477906,0.033805571496486664,0.8251667022705078,0.3461666703224182,0.5211666822433472,0.3935000002384186,1.0
env_steps,7008,11,11,5,7006,0.972032,nan,nan,nan,nan,nan,0,10.036070823669434,0.44423630833625793,0.0,600.0,0.6212372779846191,2.2283334732055664,426.48028564453125,8.239089965820312,232.9482421875,0.02779839187860489,0.6064854264259338,2.2283334732055664,2.2283334732055664,0.0,0.0,8.239089965820312,7.921818256378174,0.31727272272109985,0.17984849214553833,0.17984849214553833,5.905757427215576,4.519740104675293,62.47092056274414,-12.0,-20.618181228637695,-11.816666603088379,-8.0,0.0,612.0,105.45454406738281,19.480566024780273,3.356722354888916,0.6713444590568542,20.15191078186035,60.38975524902344,2.0811679363250732,0.033912308514118195,206.18182373046875,321.4545593261719,497.2727355957031,389.0,159.63636779785156,80.18181610107422,236.33334350585938,1.0,0.0007403939380310476,0.033586516976356506,0.8287878632545471,0.3436363637447357,0.5357576012611389,0.3938888609409332,1.0
env_steps,7504,12,12,6,7502,0.970048,nan,nan,nan,nan,nan,0,8.86856460571289,0.4422582685947418,0.0,600.0,0.6231280565261841,2.1693058013916016,436.521240234375,8.010693550109863,247.22972106933594,0.0269970390945673,0.6195381283760071,2.1693058013916016,2.1693058013916016,0.0,0.0,8.010693550109863,7.7198615074157715,0.29083332419395447,0.16486111283302307,0.16486111283302307,5.8125,4.47253942489624,61.57551193237305,-12.0,-20.866666793823242,-11.840278625488281,-8.0,0.0,602.6666870117188,106.75,19.1834774017334,3.3979580402374268,0.6795915961265564,19.863069534301758,59.46877670288086,2.106734037399292,0.034933414310216904,208.6666717529297,320.75,497.0833435058594,389.3333435058594,160.0833282470703,80.5,236.80555725097656,1.0,0.0007370971725322306,0.03310511261224747,0.8284721970558167,0.34777775406837463,0.5345833897590637,0.3946758806705475,1.0
env_steps,8000,13,13,7,7998,0.968064,nan,nan,nan,nan,nan,0,7.625376224517822,0.4343230128288269,0.0,600.0,0.6247279644012451,2.129743814468384,425.63897705078125,7.981281757354736,244.0106658935547,0.026925403624773026,0.6276016235351562,2.129743814468384,2.129743814468384,0.0,0.0,7.981281757354736,7.703333377838135,0.2779487073421478,0.1616666615009308,0.1616666615009308,5.876410484313965,4.526916980743408,60.429222106933594,-12.0,-20.93846321105957,-11.865386009216309,-8.0,0.0,591.2307739257812,105.84615325927734,18.819459915161133,3.369187831878662,0.6738375425338745,19.49329948425293,58.340328216552734,2.0888962745666504,0.03533616289496422,209.38461303710938,319.9230651855469,497.69232177734375,389.69232177734375,159.46153259277344,81.38461303710938,237.3076934814453,1.0,0.0007238717516884208,0.032488830387592316,0.829487144947052,0.348974347114563,0.5332051515579224,0.39551278948783875,1.0
env_steps,8512,14,14,8,8510,0.966016,0.33005642890930176,0.03706663101911545,0.047528691589832306,0.5819391012191772,0.7383449673652649,32,6.959957122802734,0.429778516292572,0.0,600.0,0.6285951733589172,2.095595598220825,424.1396484375,8.212262153625488,246.348388671875,0.027587464079260826,0.6303917765617371,2.095595598220825,2.095595598220825,0.0,0.0,8.212262153625488,7.848571300506592,0.36369046568870544,0.19630953669548035,0.19630953669548035,6.100119113922119,4.748228549957275,59.6468620300293,-12.0,-20.83571434020996,-11.851191520690918,-8.0,0.0,582.9285888671875,107.71428680419922,18.555192947387695,3.428652286529541,0.6857303977012634,19.240924835205078,57.52109909057617,2.1257643699645996,0.036573052406311035,208.35714721679688,321.1428527832031,498.6428527832031,388.9285583496094,160.2857208251953,80.92857360839844,237.0238037109375,1.0,0.0007162975962273777,0.03206820413470268,0.8310713768005371,0.34726187586784363,0.5352381467819214,0.3950396478176117,1.0
env_steps,9008,15,15,9,9006,0.964032,0.17066669464111328,0.03370139002799988,0.0640011578798294,0.40904784202575684,0.7529805302619934,63,6.348652362823486,0.4267599284648895,0.0,600.0,0.6268441081047058,2.0363335609436035,424.0592041015625,8.397443771362305,255.2999725341797,0.027524566277861595,0.643630862236023,2.0363335609436035,2.0363335609436035,0.0,0.0,8.397443771362305,7.870999813079834,0.5264444351196289,0.23855556547641754,0.23855556547641754,6.397555351257324,5.083318710327148,58.83198547363281,-12.0,-20.686668395996094,-11.79666805267334,-8.0,0.0,574.8666381835938,106.73332977294922,18.298574447631836,3.397427558898926,0.6794854402542114,18.97806167602539,56.725582122802734,2.106405019760132,0.036714959889650345,206.86666870117188,321.0,498.26666259765625,388.0666809082031,158.93333435058594,80.4000015258789,235.93333435058594,1.0,0.0007112667080946267,0.031630102545022964,0.8304443955421448,0.3447777330875397,0.5350000262260437,0.39322221279144287,1.0
env_steps,9504,15,15,9,9502,0.962048,0.29819801449775696,0.09976905584335327,0.15572664141654968,0.5264468193054199,0.8056321144104004,94,6.348652362823486,0.4267599284648895,0.0,600.0,0.6268441081047058,2.0363335609436035,424.0592041015625,8.397443771362305,255.2999725341797,0.027524566277861595,0.643630862236023,2.0363335609436035,2.0363335609436035,0.0,0.0,8.397443771362305,7.870999813079834,0.5264444351196289,0.23855556547641754,0.23855556547641754,6.397555351257324,5.083318710327148,58.83198547363281,-12.0,-20.686668395996094,-11.79666805267334,-8.0,0.0,574.8666381835938,106.73332977294922,18.298574447631836,3.397427558898926,0.6794854402542114,18.97806167602539,56.725582122802734,2.106405019760132,0.036714959889650345,206.86666870117188,321.0,498.26666259765625,388.0666809082031,158.93333435058594,80.4000015258789,235.93333435058594,1.0,0.0007112667080946267,0.031630102545022964,0.8304443955421448,0.3447777330875397,0.5350000262260437,0.39322221279144287,1.0
env_steps,10000,16,16,10,9998,0.960064,0.22624360024929047,-0.04509631544351578,0.03812256455421448,0.4397914409637451,0.7779985070228577,125,8.219478607177734,0.43428748846054077,0.0,600.0,0.6253119707107544,2.109375,427.7966613769531,8.419271469116211,249.50453186035156,0.02761668711900711,0.6307106614112854,2.109375,2.109375,0.0,0.0,8.419271469116211,7.9219794273376465,0.4972916841506958,0.22739583253860474,0.22739583253860474,6.328958034515381,4.948521137237549,60.58094024658203,-12.0,-20.625,-11.736457824707031,-8.0,0.0,592.4375,107.5,18.857872009277344,3.4218311309814453,0.6843662261962891,19.542238235473633,58.45940399169922,2.121535301208496,0.03611099347472191,206.25,322.1875,497.125,386.125,157.6875,80.1875,234.7291717529297,1.0,0.0007238124962896109,0.03257039561867714,0.82854163646698,0.34375,0.5369791388511658,0.3912152647972107,1.0
env_steps,10512,17,17,11,10510,0.958016,0.2565884292125702,0.04174765944480896,-0.0945684015750885,0.5014069676399231,1.2371752262115479,157,7.27057409286499,0.4295470714569092,0.0,600.0,0.6293432712554932,2.090980291366577,430.043212890625,8.424019813537598,250.1232452392578,0.02759993076324463,0.6428532600402832,2.090980291366577,2.090980291366577,0.0,0.0,8.424019813537598,7.951667308807373,0.4723529815673828,0.21833333373069763,0.21833333373069763,6.404019355773926,4.947039604187012,59.55391311645508,-12.0,-20.58823585510254,-11.695097923278809,-8.0,0.0,582.2941284179688,106.17646789550781,18.534997940063477,3.379701852798462,0.6759403944015503,19.210939407348633,57.45849609375,2.0954151153564453,0.03627514839172363,205.88235473632812,325.23529052734375,498.5294189453125,385.1176452636719,157.1764678955078,79.70587921142578,233.9019775390625,1.0,0.0007159117958508432,0.032018229365348816,0.8308823704719543,0.343137264251709,0.5420587658882141,0.3898365795612335,1.0
env_steps,11008,18,18,12,11006,0.956032,0.1648922860622406,-0.09549928456544876,0.0877777710556984,0.3903549015522003,1.5105440616607666,188,6.0978522300720215,0.4230722188949585,0.0,600.0,0.6309854388237,2.0579628944396973,439.9139709472656,8.348611831665039,264.0848083496094,0.027147479355335236,0.634243369102478,2.0579628944396973,2.0579628944396973,0.0,0.0,8.348611831665039,7.8982415199279785,0.4503704309463501,0.21037036180496216,0.21037036180496216,6.403611183166504,4.980282783508301,58.48860168457031,-12.0,-20.71666717529297,-11.674074172973633,-8.0,0.0,571.6666870117188,105.33333587646484,18.19671630859375,3.3528642654418945,0.670572817325592,18.86728858947754,56.409820556640625,2.0787758827209473,0.0367308109998703,207.1666717529297,329.3888854980469,500.1666564941406,384.5555419921875,156.6666717529297,79.61111450195312,233.48150634765625,1.0,0.0007051203865557909,0.03144548088312149,0.8336111307144165,0.3452777862548828,0.5489814281463623,0.38913577795028687,1.0
env_steps,11504,19,19,13,11502,0.954048,0.1399322897195816,0.05792619660496712,0.08644994348287582,0.37221479415893555,1.4547674655914307,219,8.564359664916992,0.43353161215782166,0.0,600.0,0.6238725185394287,2.036841869354248,453.7671813964844,8.435702323913574,274.5762634277344,0.027221625670790672,0.640363335609436,2.036841869354248,2.036841869354248,0.0,0.0,8.435702323913574,7.951930999755859,0.4837719798088074,0.2404385805130005,0.2404385805130005,6.527631759643555,5.062906742095947,60.660858154296875,-12.0,-20.489473342895508,-11.607017517089844,-8.0,0.0,593.0,108.7368392944336,18.875778198242188,3.4612014293670654,0.6922402381896973,19.568017959594727,58.51491165161133,2.145944595336914,0.03656761348247528,204.8947296142578,323.6842041015625,496.9473571777344,383.2631530761719,155.8947296142578,78.63157653808594,232.14036560058594,1.0,0.0007225525914691389,0.0326133631169796,0.8282456398010254,0.3414912521839142,0.5394737124443054,0.38690057396888733,1.0
env_steps,12000,20,20,14,12000,0.952064,0.08182188868522644,0.06162847578525543,-0.022272281348705292,0.30026498436927795,1.7143595218658447,250,9.028227806091309,0.4371899962425232,0.0,600.0,0.6232113242149353,2.0209999084472656,452.9457092285156,8.47108268737793,274.8228454589844,0.02703363634645939,0.6434148550033569,2.0209999084472656,2.0209999084472656,0.0,0.0,8.47108268737793,8.004834175109863,0.4662500321865082,0.23283331096172333,0.23283331096172333,6.5599164962768555,5.1172895431518555,61.049903869628906,-12.0,-20.420000076293945,-11.601666450500488,-8.0,0.0,597.0,108.44999694824219,19.003101348876953,3.452070951461792,0.6904141306877136,19.69351577758789,58.90961456298828,2.1402838230133057,0.03622423857450485,204.1999969482422,324.3500061035156,496.6000061035156,382.54998779296875,155.75,78.9000015258789,232.03335571289062,1.0,0.0007286499603651464,0.03282252699136734,0.8276666402816772,0.34033334255218506,0.5405833125114441,0.386722207069397,1.0
env_steps,12512,20,20,14,12510,0.950016,0.0899687260389328,0.048178017139434814,0.02450890839099884,0.3151674270629883,1.52704656124115,282,9.028227806091309,0.4371899962425232,0.0,600.0,0.6232113242149353,2.0209999084472656,452.9457092285156,8.47108268737793,274.8228454589844,0.02703363634645939,0.6434148550033569,2.0209999084472656,2.0209999084472656,0.0,0.0,8.47108268737793,8.004834175109863,0.4662500321865082,0.23283331096172333,0.23283331096172333,6.5599164962768555,5.1172895431518555,61.049903869628906,-12.0,-20.420000076293945,-11.601666450500488,-8.0,0.0,597.0,108.44999694824219,19.003101348876953,3.452070951461792,0.6904141306877136,19.69351577758789,58.90961456298828,2.1402838230133057,0.03622423857450485,204.1999969482422,324.3500061035156,496.6000061035156,382.54998779296875,155.75,78.9000015258789,232.03335571289062,1.0,0.0007286499603651464,0.03282252699136734,0.8276666402816772,0.34033334255218506,0.5405833125114441,0.386722207069397,1.0
env_steps,13008,21,21,15,13006,0.948032,0.13279786705970764,0.0722845047712326,0.06614746898412704,0.36223310232162476,1.5302913188934326,313,10.073951721191406,0.4404619336128235,0.0,600.0,0.6189684271812439,2.0723016262054443,458.9183044433594,8.604762077331543,271.6465148925781,0.02730950526893139,0.6362087726593018,2.0723016262054443,2.0723016262054443,0.0,0.0,8.604762077331543,8.160635948181152,0.44412702322006226,0.22182537615299225,0.22182537615299225,6.512698173522949,5.068086624145508,62.02872085571289,-12.0,-20.38571548461914,-11.569047927856445,-8.0,0.0,606.7619018554688,109.23809814453125,19.313831329345703,3.4771568775177,0.6954312920570374,20.009262084960938,59.87287902832031,2.155836820602417,0.03593878448009491,203.85714721679688,320.8571472167969,495.5238037109375,381.6666564941406,155.23809814453125,78.61904907226562,231.3809814453125,1.0,0.0007341031450778246,0.033348772674798965,0.825873076915741,0.3397619128227234,0.534761905670166,0.3856349289417267,1.0
env_steps,13504,22,22,16,13502,0.946048,0.16086167097091675,0.06117253005504608,0.10343701392412186,0.402103066444397,2.012077808380127,344,11.493193626403809,0.4489818513393402,0.0,600.0,0.6156406402587891,2.063939332962036,462.2920837402344,8.609317779541016,276.3217468261719,0.02767401933670044,0.6436793208122253,2.063939332962036,2.063939332962036,0.0,0.0,8.609317779541016,8.162273406982422,0.4470455050468445,0.22303028404712677,0.22303028404712677,6.557651042938232,5.109254360198975,63.374263763427734,-12.0,-20.304546356201172,-11.576515197753906,-8.0,0.0,620.1363525390625,110.54545593261719,19.739553451538086,3.5187714099884033,0.703754186630249,20.443307876586914,61.1926155090332,2.18163800239563,0.03565621003508568,203.0454559326172,317.6363525390625,493.7272644042969,381.6363525390625,154.40908813476562,79.2727279663086,231.5303192138672,1.0,0.0007483029621653259,0.034072183072566986,0.8228788375854492,0.33840909600257874,0.5293939113616943,0.3858838379383087,1.0
env_steps,14000,23,23,17,13998,0.944064,0.2620241045951843,0.0353715643286705,-0.055347662419080734,0.4758618175983429,1.7414696216583252,375,11.577651023864746,0.4499695897102356,0.0,600.0,0.6116617321968079,2.0802173614501953,457.08831787109375,8.558550834655762,271.1684265136719,0.0275097768753767,0.6437845826148987,2.0802173614501953,2.0802173614501953,0.0,0.0,8.558550834655762,8.130943298339844,0.4276087284088135,0.21333332359790802,0.21333332359790802,6.5145649909973145,5.030252933502197,63.289974212646484,-12.0,-20.18260955810547,-11.52971076965332,-8.0,0.0,619.3478393554688,110.21739196777344,19.714452743530273,3.508328914642334,0.7016656994819641,20.416118621826172,61.114803314208984,2.175163507461548,0.035544510930776596,201.82608032226562,316.1739196777344,493.34783935546875,380.86956787109375,154.04347229003906,78.43478393554688,230.59422302246094,1.0,0.0007499491912312806,0.034026868641376495,0.8222463726997375,0.336376816034317,0.5269564986228943,0.38432368636131287,1.0
env_steps,14512,24,24,18,14510,0.942016,0.26113003492355347,0.14982590079307556,0.23174813389778137,0.4677416682243347,2.8342626094818115,407,11.498684883117676,0.4488958418369293,0.0,600.0,0.6089850068092346,2.0947916507720947,452.3491516113281,8.546736717224121,265.9905090332031,0.02709498442709446,0.6330987811088562,2.0947916507720947,2.0947916507720947,0.0,0.0,8.546736717224121,8.136943817138672,0.4097916781902313,0.20444445312023163,0.20444445312023163,6.452847003936768,4.966821670532227,63.077850341796875,-12.0,-20.075000762939453,-11.504166603088379,-8.0,0.0,617.1666870117188,110.375,19.6450252532959,3.51334547996521,0.702669084072113,20.347694396972656,60.89958190917969,2.178274154663086,0.03567420318722725,200.75,316.1666564941406,493.625,380.4166564941406,154.0,77.91666412353516,230.0833282470703,1.0,0.0007481596549041569,0.03391282260417938,0.8227083086967468,0.3345833122730255,0.5269444584846497,0.383472204208374,1.0
env_steps,15008,25,25,19,15006,0.940032,0.22090204060077667,-0.038241028785705566,0.02011522650718689,0.4385914206504822,2.1926913261413574,438,11.31287956237793,0.4475080072879791,0.0,600.0,0.6095174551010132,2.091399908065796,456.88055419921875,8.448200225830078,266.6263122558594,0.027507029473781586,0.6447807550430298,2.091399908065796,2.091399908065796,0.0,0.0,8.448200225830078,8.05479907989502,0.39340001344680786,0.19626666605472565,0.19626666605472565,6.396266460418701,4.8905487060546875,62.879547119140625,-12.0,-20.07200050354004,-11.494667053222656,-8.0,0.0,615.280029296875,109.76000213623047,19.584970474243164,3.4937691688537598,0.698753833770752,20.283723831176758,60.71341323852539,2.1661369800567627,0.03553755581378937,200.72000122070312,318.44000244140625,494.1199951171875,380.4800109863281,153.36000061035156,77.91999816894531,229.89334106445312,1.0,0.0007458466570824385,0.0338062085211277,0.823533296585083,0.33453330397605896,0.5307333469390869,0.38315555453300476,1.0
env_steps,15504,25,25,19,15502,0.938048,0.16673226654529572,0.027963222935795784,0.17441920936107635,0.3794437646865845,2.6136865615844727,469,11.31287956237793,0.4475080072879791,0.0,600.0,0.6095174551010132,2.091399908065796,456.88055419921875,8.448200225830078,266.6263122558594,0.027507029473781586,0.6447807550430298,2.091399908065796,2.091399908065796,0.0,0.0,8.448200225830078,8.05479907989502,0.39340001344680786,0.19626666605472565,0.19626666605472565,6.396266460418701,4.8905487060546875,62.879547119140625,-12.0,-20.07200050354004,-11.494667053222656,-8.0,0.0,615.280029296875,109.76000213623047,19.584970474243164,3.4937691688537598,0.698753833770752,20.283723831176758,60.71341323852539,2.1661369800567627,0.03553755581378937,200.72000122070312,318.44000244140625,494.1199951171875,380.4800109863281,153.36000061035156,77.91999816894531,229.89334106445312,1.0,0.0007458466570824385,0.0338062085211277,0.823533296585083,0.33453330397605896,0.5307333469390869,0.38315555453300476,1.0
env_steps,16000,26,26,20,15998,0.936064,0.12168481945991516,0.0498318113386631,0.12266921252012253,0.33403897285461426,2.0580813884735107,500,10.444462776184082,0.4441884756088257,0.0,600.0,0.6109689474105835,2.092564105987549,458.17205810546875,8.439167022705078,265.73077392578125,0.027052007615566254,0.6400626301765442,2.092564105987549,2.092564105987549,0.0,0.0,8.439167022705078,8.060896873474121,0.378269225358963,0.18871794641017914,0.18871794641017914,6.339102745056152,4.85791015625,61.97843551635742,-12.0,-20.02307891845703,-11.510896682739258,-8.0,0.0,606.3076782226562,108.96154022216797,19.299373626708984,3.468353271484375,0.6936706304550171,19.993043899536133,59.828060150146484,2.150379180908203,0.03588312491774559,200.23077392578125,322.9230651855469,495.5384521484375,381.1153869628906,153.23077392578125,78.15384674072266,230.21795654296875,1.0,0.0007403140189126134,0.033321741968393326,0.8258974552154541,0.333717942237854,0.5382051467895508,0.383696585893631,1.0
env_steps,16512,27,27,21,16510,0.934016,0.1785224974155426,0.008149717003107071,-0.0570746548473835,0.3795958161354065,1.8151904344558716,532,11.320564270019531,0.44871851801872253,0.0,600.0,0.6076292991638184,2.0596296787261963,460.2724914550781,8.47802448272705,272.8498229980469,0.027308166027069092,0.6493769288063049,2.0596296787261963,2.0596296787261963,0.0,0.0,8.47802448272705,8.066665649414062,0.4113580286502838,0.20450617372989655,0.20450617372989655,6.4449381828308105,4.994602680206299,62.795257568359375,-12.0,-19.99259376525879,-11.482098579406738,-8.0,0.0,614.370361328125,110.03704071044922,19.55601692199707,3.5025875568389893,0.7005174160003662,20.256532669067383,60.623653411865234,2.1716043949127197,0.035754475742578506,199.92591857910156,320.59259033203125,493.96295166015625,380.40740966796875,152.59259033203125,77.96295928955078,229.64198303222656,1.0,0.0007478641928173602,0.03376089036464691,0.8232715725898743,0.3332098424434662,0.5343210101127625,0.3827366232872009,1.0
env_steps,17008,28,28,22,17006,0.932032,0.17492800951004028,0.10951031744480133,0.07710082828998566,0.3943359851837158,2.0476536750793457,563,13.310861587524414,0.4582892954349518,0.0,600.0,0.6044687628746033,2.099761962890625,459.7885437011719,8.547499656677246,268.5107727050781,0.02733195759356022,0.6444533467292786,2.099761962890625,2.099761962890625,0.0,0.0,8.547499656677246,8.147796630859375,0.39970237016677856,0.1996428519487381,0.1996428519487381,6.445833683013916,4.943783760070801,64.63705444335938,-12.0,-19.878572463989258,-11.44761848449707,-8.0,0.0,632.6071166992188,112.17857360839844,20.136510848999023,3.5707547664642334,0.7141509056091309,20.85066032409668,62.423187255859375,2.2138679027557373,0.03552522882819176,198.7857208251953,317.21429443359375,491.5714416503906,379.6785583496094,152.10714721679688,77.53571319580078,228.952392578125,1.0,0.0007638154202140868,0.034751102328300476,0.8192856907844543,0.3313094973564148,0.5286905169487,0.38158729672431946,1.0
env_steps,17504,29,29,23,17502,0.930048,0.1914179027080536,0.049743250012397766,0.06461784243583679,0.4450564384460449,2.040647506713867,594,14.44012451171875,0.4632861912250519,0.0,600.0,0.6011819243431091,2.1129310131073,455.3047790527344,8.465632438659668,264.1626892089844,0.027380431070923805,0.6378150582313538,2.1129310131073,2.1129310131073,0.0,0.0,8.465632438659668,8.0797119140625,0.3859195411205292,0.19275860488414764,0.19275860488414764,6.343563079833984,4.862405300140381,65.59645080566406,-12.0,-19.748275756835938,-11.408044815063477,-8.0,0.0,642.0689697265625,113.48275756835938,20.43769073486328,3.6122684478759766,0.7224535942077637,21.160140991210938,63.356842041015625,2.2396063804626465,0.0354042574763298,197.48275756835938,316.0,490.3793029785156,378.5862121582031,152.10345458984375,76.89655303955078,228.1609344482422,1.0,0.000772143597714603,0.03526690602302551,0.8172988295555115,0.3291378915309906,0.5266667008399963,0.3802681863307953,1.0
env_steps,18000,30,30,24,18000,0.928064,0.09050853550434113,0.022976387292146683,0.042913757264614105,0.2841036319732666,2.093858242034912,625,14.606005668640137,0.46483665704727173,0.0,600.0,0.5973932147026062,2.129166603088379,452.8833923339844,8.436666488647461,261.97796630859375,0.027186822146177292,0.633894681930542,2.129166603088379,2.129166603088379,0.0,0.0,8.436666488647461,8.063387870788574,0.37327778339385986,0.18655554950237274,0.18655554950237274,6.263833045959473,4.813766002655029,65.7537841796875,-12.0,-19.753334045410156,-11.39444351196289,-8.0,0.0,643.5333251953125,114.13333129882812,20.484304428100586,3.632976770401001,0.7265952825546265,21.210895538330078,63.501338958740234,2.252445697784424,0.035468388348817825,197.53334045410156,314.70001220703125,489.6000061035156,377.9333190917969,152.0,76.86666870117188,227.88890075683594,1.0,0.0007747277268208563,0.03535149618983269,0.8159999847412109,0.3292222023010254,0.5245000720024109,0.3798148036003113,1.0
env_steps,18512,30,30,24,18510,0.926016,0.17818668484687805,-0.035491470247507095,-0.01957489550113678,0.39805060625076294,1.7489100694656372,657,14.606005668640137,0.46483665704727173,0.0,600.0,0.5973932147026062,2.129166603088379,452.8833923339844,8.436666488647461,261.97796630859375,0.027186822146177292,0.633894681930542,2.129166603088379,2.129166603088379,0.0,0.0,8.436666488647461,8.063387870788574,0.37327778339385986,0.18655554950237274,0.18655554950237274,6.263833045959473,4.813766002655029,65.7537841796875,-12.0,-19.753334045410156,-11.39444351196289,-8.0,0.0,643.5333251953125,114.13333129882812,20.484304428100586,3.632976770401001,0.7265952825546265,21.210895538330078,63.501338958740234,2.252445697784424,0.035468388348817825,197.53334045410156,314.70001220703125,489.6000061035156,377.9333190917969,152.0,76.86666870117188,227.88890075683594,1.0,0.0007747277268208563,0.03535149618983269,0.8159999847412109,0.3292222023010254,0.5245000720024109,0.3798148036003113,1.0
env_steps,19008,31,31,25,19006,0.924032,0.2581615447998047,0.17934031784534454,0.09461814165115356,0.48072153329849243,2.1104958057403564,688,13.654687881469727,0.4593515992164612,0.0,600.0,0.5962105989456177,2.1323654651641846,447.4444274902344,8.313817024230957,257.9449462890625,0.02691817283630371,0.6318039298057556,2.1323654651641846,2.1323654651641846,0.0,0.0,8.313817024230957,7.952579498291016,0.361236572265625,0.1805376261472702,0.1805376261472702,6.163440704345703,4.7343525886535645,64.74232482910156,-12.0,-19.706453323364258,-11.381182670593262,-8.0,0.0,633.2903442382812,114.09677124023438,20.15825843811035,3.6318130493164062,0.7263625264167786,20.88461685180664,62.490596771240234,2.2517242431640625,0.03641556203365326,197.06451416015625,315.7742004394531,490.54840087890625,378.0967712402344,151.93548583984375,76.41935729980469,227.6236572265625,1.0,0.0007655859808437526,0.03480769693851471,0.8175806403160095,0.3284408450126648,0.5262904167175293,0.3793727457523346,1.0
env_steps,19504,32,32,26,19502,0.922048,0.30590230226516724,0.07167741656303406,-0.1880374252796173,0.5321826338768005,2.025285243988037,719,13.774759292602539,0.46067190170288086,0.0,600.0,0.5952578783035278,2.142239570617676,449.9613037109375,8.294530868530273,257.3190002441406,0.026843111962080002,0.6313343048095703,2.142239570617676,2.142239570617676,0.0,0.0,8.294530868530273,7.944583415985107,0.3499479293823242,0.17489582300186157,0.17489582300186157,6.128072738647461,4.692917346954346,64.84559631347656,-12.0,-19.706249237060547,-11.364583969116211,-8.0,0.0,634.25,114.53125,20.188804626464844,3.6456427574157715,0.7291285991668701,20.91793441772461,62.585296630859375,2.260298728942871,0.03643766790628433,197.0625,315.8125,490.34375,377.4375,152.0,76.21875,227.2916717529297,1.0,0.0007677864050492644,0.034863222390413284,0.81723952293396,0.3284375071525574,0.526354193687439,0.37881946563720703,1.0
env_steps,20000,33,33,27,19998,0.920064,0.19991739094257355,-0.003478575497865677,0.1024416908621788,0.4117286205291748,2.5448262691497803,750,14.236129760742188,0.46290305256843567,0.0,600.0,0.5933040976524353,2.1531312465667725,449.0618896484375,8.29772663116455,254.85565185546875,0.02690739557147026,0.6287838816642761,2.1531312465667725,2.1531312465667725,0.0,0.0,8.29772663116455,7.95424222946167,0.3434848487377167,0.17252524197101593,0.17252524197101593,6.113636493682861,4.654396057128906,65.2972412109375,-12.0,-19.693939208984375,-11.367172241210938,-8.0,0.0,638.3636474609375,116.8484878540039,20.319746017456055,3.719402551651001,0.743880569934845,21.063629150390625,62.9912109375,2.306029796600342,0.03676578402519226,196.93939208984375,313.57574462890625,489.1515197753906,377.7272644042969,151.63636779785156,76.33333587646484,227.34344482421875,1.0,0.0007715050014667213,0.03510604426264763,0.8152524828910828,0.3282323181629181,0.5226262807846069,0.3789057433605194,1.0
env_steps,20512,34,34,28,20510,0.9180159999999999,0.15006834268569946,0.12683461606502533,0.04515422135591507,0.35865694284439087,2.152395486831665,782,13.764166831970215,0.46047648787498474,0.0,600.0,0.5937163233757019,2.213137149810791,452.5393981933594,8.363136291503906,251.52590942382812,0.026756256818771362,0.6218419075012207,2.213137149810791,2.213137149810791,0.0,0.0,8.363136291503906,8.029362678527832,0.33377450704574585,0.16784313321113586,0.16784313321113586,6.073333263397217,4.59367561340332,64.824951171875,-12.0,-19.688234329223633,-11.372550010681152,-8.0,0.0,633.5882568359375,116.79412078857422,20.167739868164062,3.717672109603882,0.743534505367279,20.91127586364746,62.519989013671875,2.3049566745758057,0.03704008832573891,196.88235473632812,314.6764831542969,489.6176452636719,377.6764831542969,151.44117736816406,76.61764526367188,227.45098876953125,1.0,0.0007674607331864536,0.034852124750614166,0.8160293698310852,0.32813724875450134,0.5244607925415039,0.379084974527359,1.0
env_steps,21008,35,35,29,21006,0.916032,0.24159175157546997,0.06706893444061279,0.04800739139318466,0.4634140133857727,2.2237372398376465,813,13.051346778869629,0.4554286003112793,0.0,600.0,0.5941526293754578,2.2126190662384033,447.28106689453125,8.285284996032715,247.97564697265625,0.026363134384155273,0.6115238070487976,2.2126190662384033,2.2126190662384033,0.0,0.0,8.285284996032715,7.961047172546387,0.3242380917072296,0.16304761171340942,0.16304761171340942,6.025428771972656,4.538971424102783,64.13944244384766,-12.0,-19.694284439086914,-11.393810272216797,-8.0,0.0,626.6857299804688,116.57142639160156,19.948026657104492,3.710583448410034,0.7421168088912964,20.69014549255371,61.83887481689453,2.3005619049072266,0.03748701140284538,196.94285583496094,316.8857116699219,490.6000061035156,377.8571472167969,151.60000610351562,77.0857162475586,227.87620544433594,1.0,0.0007590475725010037,0.034483570605516434,0.8176666498184204,0.3282380998134613,0.5281428694725037,0.379793643951416,1.0
env_steps,21504,35,35,29,21502,0.914048,0.10841470956802368,0.23783254623413086,0.28538697957992554,0.31751275062561035,2.203822612762451,844,13.051346778869629,0.4554286003112793,0.0,600.0,0.5941526293754578,2.2126190662384033,447.28106689453125,8.285284996032715,247.97564697265625,0.026363134384155273,0.6115238070487976,2.2126190662384033,2.2126190662384033,0.0,0.0,8.285284996032715,7.961047172546387,0.3242380917072296,0.16304761171340942,0.16304761171340942,6.025428771972656,4.538971424102783,64.13944244384766,-12.0,-19.694284439086914,-11.393810272216797,-8.0,0.0,626.6857299804688,116.57142639160156,19.948026657104492,3.710583448410034,0.7421168088912964,20.69014549255371,61.83887481689453,2.3005619049072266,0.03748701140284538,196.94285583496094,316.8857116699219,490.6000061035156,377.8571472167969,151.60000610351562,77.0857162475586,227.87620544433594,1.0,0.0007590475725010037,0.034483570605516434,0.8176666498184204,0.3282380998134613,0.5281428694725037,0.379793643951416,1.0
env_steps,22000,36,36,30,21998,0.912064,0.14618495106697083,0.02849874645471573,-0.04148251190781593,0.3735729455947876,1.5109182596206665,875,12.676372528076172,0.4534555673599243,0.0,600.0,0.5971066951751709,2.212592601776123,444.0213928222656,8.174999237060547,245.38519287109375,0.026055574417114258,0.6119017601013184,2.212592601776123,2.212592601776123,0.0,0.0,8.174999237060547,7.859768390655518,0.31523147225379944,0.15851850807666779,0.15851850807666779,5.921944618225098,4.46909236907959,63.80229949951172,-12.0,-19.730554580688477,-11.395371437072754,-8.0,0.0,623.3333129882812,116.25,19.84131622314453,3.700352191925049,0.7400705814361572,20.581388473510742,61.50807571411133,2.2942185401916504,0.0375526025891304,197.30555725097656,319.72222900390625,491.6111145019531,378.1388854980469,151.4166717529297,77.08333587646484,227.90740966796875,1.0,0.0007557591889053583,0.03430231288075447,0.819351851940155,0.3288426101207733,0.5328704118728638,0.37984567880630493,1.0
env_steps,22512,37,37,31,22510,0.910016,0.1674860715866089,0.12707757949829102,0.07914082705974579,0.3878013789653778,2.439519166946411,907,12.319778442382812,0.4520135223865509,0.0,600.0,0.5968880653381348,2.2083334922790527,444.0313415527344,8.21090030670166,244.779296875,0.025693446397781372,0.6070768237113953,2.2083334922790527,2.2083334922790527,0.0,0.0,8.21090030670166,7.904188632965088,0.30671170353889465,0.15423423051834106,0.15423423051834106,5.923243522644043,4.47799825668335,63.395904541015625,-12.0,-19.697296142578125,-11.378829956054688,-8.0,0.0,619.1621704101562,116.51351165771484,19.70854377746582,3.708740234375,0.7417481541633606,20.450294494628906,61.09648132324219,2.2994189262390137,0.03791581466794014,196.9729766845703,321.5946044921875,492.0540466308594,378.0,151.05404663085938,76.83783721923828,227.57659912109375,1.0,0.0007533557945862412,0.03408382460474968,0.8200900554656982,0.32828831672668457,0.5359910130500793,0.3792943060398102,1.0
env_steps,23008,38,38,32,23006,0.908032,0.15895181894302368,0.09062150120735168,0.08482073247432709,0.3757309913635254,2.6238081455230713,938,12.049537658691406,0.44965001940727234,0.0,600.0,0.5966809391975403,2.177412271499634,443.53387451171875,8.156359672546387,249.3368682861328,0.02564874291419983,0.6148083209991455,2.177412271499634,2.177412271499634,0.0,0.0,8.156359672546387,7.8577189445495605,0.29864034056663513,0.15017543733119965,0.15017543733119965,5.927850723266602,4.518767356872559,63.07322311401367,-12.0,-19.652631759643555,-11.371053695678711,-8.0,0.0,616.0,115.97368621826172,19.60788917541504,3.691556930541992,0.7383114695549011,20.346202850341797,60.78445053100586,2.2887651920318604,0.03789306804537773,196.5263214111328,322.7894592285156,492.84210205078125,377.7368469238281,151.3157958984375,76.60526275634766,227.42108154296875,1.0,0.0007494165911339223,0.03391033783555031,0.8214035034179688,0.32754388451576233,0.5379824638366699,0.379035085439682,1.0
env_steps,23504,39,39,33,23502,0.906048,0.10673089325428009,0.15114013850688934,0.16506072878837585,0.3215760588645935,2.1592259407043457,969,12.502421379089355,0.4531974196434021,0.0,600.0,0.5954605340957642,2.1953847408294678,442.7936096191406,8.204230308532715,247.43592834472656,0.025841034948825836,0.6111154556274414,2.1953847408294678,2.1953847408294678,0.0,0.0,8.204230308532715,7.913248062133789,0.2909829020500183,0.1463247835636139,0.1463247835636139,5.912265300750732,4.505606174468994,63.57977294921875,-12.0,-19.687179565429688,-11.390172004699707,-8.0,0.0,621.05126953125,116.38461303710938,19.7686767578125,3.704637289047241,0.740927517414093,20.509605407714844,61.28289031982422,2.296875,0.03772788494825363,196.87179565429688,322.28204345703125,492.4615478515625,378.0,151.15383911132812,77.12820434570312,227.80343627929688,1.0,0.0007553289760835469,0.034182675182819366,0.820769190788269,0.328119695186615,0.5371367335319519,0.3796723783016205,1.0
env_steps,24000,40,40,34,24000,0.904064,0.13078832626342773,0.141633540391922,0.20113307237625122,0.36094629764556885,2.64451003074646,1000,11.782557487487793,0.44997501373291016,0.0,600.0,0.5977953672409058,2.1677918434143066,440.33642578125,8.219625473022461,249.6927032470703,0.02611885592341423,0.620254635810852,2.1677918434143066,2.1677918434143066,0.0,0.0,8.219625473022461,7.912083625793457,0.3075416684150696,0.16220833361148834,0.16220833361148834,5.981541633605957,4.607472896575928,62.9321403503418,-12.0,-19.74250030517578,-11.407083511352539,-8.0,0.0,614.7000122070312,115.32499694824219,19.566509246826172,3.6709086894989014,0.7341817617416382,20.300689697265625,60.65617752075195,2.275963544845581,0.03775378316640854,197.4250030517578,323.9750061035156,493.17498779296875,378.4750061035156,151.1999969482422,77.375,228.1416473388672,1.0,0.000749958329834044,0.03383448347449303,0.8219583630561829,0.32904165983200073,0.5399583578109741,0.38023608922958374,1.0
env_steps,24512,40,40,34,24510,0.902016,0.2553998529911041,0.4332807660102844,0.5514972805976868,0.5140571594238281,3.933220386505127,1032,11.782557487487793,0.44997501373291016,0.0,600.0,0.5977953672409058,2.1677918434143066,440.33642578125,8.219625473022461,249.6927032470703,0.02611885592341423,0.620254635810852,2.1677918434143066,2.1677918434143066,0.0,0.0,8.219625473022461,7.912083625793457,0.3075416684150696,0.16220833361148834,0.16220833361148834,5.981541633605957,4.607472896575928,62.9321403503418,-12.0,-19.74250030517578,-11.407083511352539,-8.0,0.0,614.7000122070312,115.32499694824219,19.566509246826172,3.6709086894989014,0.7341817617416382,20.300689697265625,60.65617752075195,2.275963544845581,0.03775378316640854,197.4250030517578,323.9750061035156,493.17498779296875,378.4750061035156,151.1999969482422,77.375,228.1416473388672,1.0,0.000749958329834044,0.03383448347449303,0.8219583630561829,0.32904165983200073,0.5399583578109741,0.38023608922958374,1.0
env_steps,25008,41,41,35,25006,0.900032,0.45484524965286255,0.36684995889663696,0.14764153957366943,0.720857560634613,3.474524736404419,1063,11.350397109985352,0.44915854930877686,0.0,600.0,0.5989610552787781,2.1563010215759277,436.9910888671875,8.151788711547852,248.72732543945312,0.025948969647288322,0.6203745603561401,2.1563010215759277,2.1563010215759277,0.0,0.0,8.151788711547852,7.851747989654541,0.3000406324863434,0.1582520306110382,0.1582520306110382,5.936341285705566,4.582348346710205,62.5837287902832,-12.0,-19.821950912475586,-11.411381721496582,-8.0,0.0,611.219482421875,115.07317352294922,19.455720901489258,3.6628928184509277,0.7325785756111145,20.18829917907715,60.31273651123047,2.270993709564209,0.037871893495321274,198.21951293945312,324.56097412109375,493.6341552734375,378.5853576660156,151.26829528808594,77.41463470458984,228.22763061523438,1.0,0.0007485975511372089,0.033647168427705765,0.8227235674858093,0.3303658664226532,0.5409349799156189,0.38037940859794617,1.0
env_steps,25504,42,42,36,25502,0.898048,0.2962031066417694,0.2096238136291504,0.319364458322525,0.5512420535087585,4.381722450256348,1094,11.8063325881958,0.4511428475379944,0.0,600.0,0.5971792936325073,2.139047622680664,433.775634765625,8.098174095153809,248.71498107910156,0.025850430130958557,0.6225805878639221,2.139047622680664,2.139047622680664,0.0,0.0,8.098174095153809,7.803531646728516,0.2946428656578064,0.15611110627651215,0.15611110627651215,5.922301292419434,4.585642337799072,62.951568603515625,-12.0,-19.75,-11.395237922668457,-8.0,0.0,614.8095092773438,115.76190185546875,19.56999397277832,3.6848158836364746,0.7369632124900818,20.306957244873047,60.66698455810547,2.284585952758789,0.03783729672431946,197.5,324.1666564941406,493.1428527832031,378.0714416503906,150.9761962890625,77.33333587646484,227.90475463867188,1.0,0.0007519046775996685,0.033844929188489914,0.8219047784805298,0.3291666507720947,0.5402778387069702,0.37984126806259155,1.0
env_steps,26000,43,43,37,25998,0.896064,0.3194494843482971,0.42726945877075195,0.6147462725639343,0.587185263633728,4.231735706329346,1125,11.852141380310059,0.45024651288986206,0.0,600.0,0.5967186093330383,2.1361241340637207,432.8299865722656,8.069806098937988,247.84815979003906,0.025831444188952446,0.6215245723724365,2.1361241340637207,2.1361241340637207,0.0,0.0,8.069806098937988,7.782014846801758,0.2877906858921051,0.1524806171655655,0.1524806171655655,5.887673854827881,4.564462184906006,62.909889221191406,-12.0,-19.681394577026367,-11.376357078552246,-8.0,0.0,614.2557983398438,116.4186019897461,19.552370071411133,3.705719232559204,0.7411439418792725,20.29351234436035,60.61235046386719,2.297546148300171,0.0380379781126976,196.81394958496094,323.88372802734375,493.18603515625,377.7674560546875,151.0465087890625,76.88372039794922,227.5271453857422,1.0,0.0007504107779823244,0.033822521567344666,0.8219767808914185,0.3280232548713684,0.5398063063621521,0.3792118728160858,1.0
env_steps,26512,44,44,38,26510,0.894016,0.32761791348457336,0.25531205534935,0.15087890625,0.6114600300788879,4.212172031402588,1157,11.684337615966797,0.4493159055709839,0.0,600.0,0.5959385633468628,2.1245834827423096,432.6350402832031,8.07715892791748,249.47483825683594,0.025812463834881783,0.6225714087486267,2.1245834827423096,2.1245834827423096,0.0,0.0,8.07715892791748,7.785833358764648,0.29132577776908875,0.1541287750005722,0.1541287750005722,5.925605773925781,4.602924823760986,62.7131233215332,-12.0,-19.649999618530273,-11.378787994384766,-8.0,0.0,612.2954711914062,116.25,19.48996925354004,3.700352430343628,0.7400705218315125,20.230039596557617,60.41891098022461,2.2942187786102295,0.03807463124394417,196.5,323.5227355957031,493.43182373046875,377.93182373046875,150.84091186523438,76.9772720336914,227.57577514648438,1.0,0.0007488597766496241,0.03371673449873924,0.8223863840103149,0.32749998569488525,0.5392045974731445,0.37929293513298035,1.0
env_steps,27008,45,45,39,27006,0.8920319999999999,0.26083773374557495,0.312362939119339,0.36191558837890625,0.5218892693519592,3.582831621170044,1188,11.44886589050293,0.44782888889312744,0.0,600.0,0.5973747372627258,2.1041483879089355,436.70172119140625,8.124258995056152,256.17431640625,0.026005376130342484,0.6294494867324829,2.1041483879089355,2.1041483879089355,0.0,0.0,8.124258995056152,7.794740676879883,0.32951852679252625,0.17099998891353607,0.17099998891353607,6.015666484832764,4.70263147354126,62.50404739379883,-12.0,-19.675554275512695,-11.379630088806152,-8.0,0.0,610.2222290039062,116.02222442626953,19.42397689819336,3.6931021213531494,0.738620400428772,20.162595748901367,60.214332580566406,2.2897236347198486,0.03810063377022743,196.75555419921875,323.79998779296875,493.75555419921875,377.5111083984375,150.46665954589844,77.4000015258789,227.5926055908203,1.0,0.0007463814690709114,0.03360432758927345,0.8229259848594666,0.3279259204864502,0.5396667122840881,0.37932097911834717,1.0
env_steps,27504,45,45,39,27502,0.890048,0.3264683485031128,0.38493889570236206,0.451680451631546,0.6142727136611938,3.2671844959259033,1219,11.44886589050293,0.44782888889312744,0.0,600.0,0.5973747372627258,2.1041483879089355,436.70172119140625,8.124258995056152,256.17431640625,0.026005376130342484,0.6294494867324829,2.1041483879089355,2.1041483879089355,0.0,0.0,8.124258995056152,7.794740676879883,0.32951852679252625,0.17099998891353607,0.17099998891353607,6.015666484832764,4.70263147354126,62.50404739379883,-12.0,-19.675554275512695,-11.379630088806152,-8.0,0.0,610.2222290039062,116.02222442626953,19.42397689819336,3.6931021213531494,0.738620400428772,20.162595748901367,60.214332580566406,2.2897236347198486,0.03810063377022743,196.75555419921875,323.79998779296875,493.75555419921875,377.5111083984375,150.46665954589844,77.4000015258789,227.5926055908203,1.0,0.0007463814690709114,0.03360432758927345,0.8229259848594666,0.3279259204864502,0.5396667122840881,0.37932097911834717,1.0
env_steps,28000,46,46,40,27998,0.888064,0.18294622004032135,0.3279687166213989,0.35871174931526184,0.4369463324546814,2.5998282432556152,1250,12.292950630187988,0.4519999921321869,0.0,600.0,0.5953121781349182,2.1042754650115967,439.4052734375,8.071955680847168,256.4724426269531,0.026155643165111542,0.634967029094696,2.1042754650115967,2.1042754650115967,0.0,0.0,8.071955680847168,7.749601364135742,0.32235509157180786,0.1672825962305069,0.1672825962305069,5.984311103820801,4.660804748535156,63.3487434387207,-12.0,-19.67608642578125,-11.379712104797363,-8.0,0.0,618.45654296875,117.65217590332031,19.686080932617188,3.7449848651885986,0.7489969730377197,20.435077667236328,61.026859283447266,2.3218910694122314,0.03808080777525902,196.7608642578125,322.3260803222656,492.6739196777344,377.2391357421875,150.71739196777344,77.41304016113281,227.59422302246094,1.0,0.0007533333264291286,0.03405846282839775,0.8211233019828796,0.32793477177619934,0.5372101664543152,0.37932366132736206,1.0
env_steps,28512,47,47,41,28510,0.886016,0.4338263273239136,0.32538706064224243,0.3818521201610565,0.706939697265625,4.223367691040039,1282,12.56995964050293,0.4532574713230133,0.0,600.0,0.5937268137931824,2.1093974113464355,437.9942321777344,8.03588581085205,255.02931213378906,0.026241136714816093,0.6343913078308105,2.1093974113464355,2.1093974113464355,0.0,0.0,8.03588581085205,7.720283508300781,0.3156028389930725,0.16382978856563568,0.16382978856563568,5.961843967437744,4.6261305809021,63.5511589050293,-12.0,-19.608510971069336,-11.372695922851562,-8.0,0.0,620.276611328125,118.80850982666016,19.744016647338867,3.781792163848877,0.7563584446907043,20.500375747680664,61.206459045410156,2.3447115421295166,0.03826179355382919,196.08511352539062,321.4468078613281,492.10638427734375,377.0851135253906,150.63829040527344,77.31914520263672,227.45391845703125,1.0,0.0007554290350526571,0.03416729345917702,0.820177435874939,0.32680848240852356,0.5357447266578674,0.3790898323059082,1.0
env_steps,29008,48,48,42,29006,0.884032,0.2939912676811218,0.31855833530426025,0.4453108608722687,0.5334341526031494,3.2706754207611084,1313,12.415420532226562,0.45260417461395264,0.0,600.0,0.5936980247497559,2.108194589614868,439.8147277832031,8.071423530578613,255.4140167236328,0.026312438771128654,0.6345138549804688,2.108194589614868,2.108194589614868,0.0,0.0,8.071423530578613,7.761146068572998,0.3102777898311615,0.16163194179534912,0.16163194179534912,5.970173358917236,4.63298225402832,63.4556999206543,-12.0,-19.64583396911621,-11.394444465637207,-8.0,0.0,619.25,119.10416412353516,19.711339950561523,3.791203260421753,0.7582406997680664,20.469581604003906,61.10515213012695,2.35054612159729,0.03839199244976044,196.4583282470703,321.1666564941406,492.1666564941406,377.3125,150.5208282470703,77.91666412353516,227.8888702392578,1.0,0.0007543402607552707,0.03411596640944481,0.820277750492096,0.3274305760860443,0.535277783870697,0.37981483340263367,1.0
env_steps,29504,49,49,43,29502,0.8820479999999999,0.26692864298820496,0.2963648736476898,0.328960120677948,0.4979035258293152,2.856873035430908,1344,12.917062759399414,0.4555816352367401,0.0,600.0,0.591361403465271,2.1406803131103516,439.3313903808594,8.099897384643555,252.6652374267578,0.026317816227674484,0.627427339553833,2.1406803131103516,2.1406803131103516,0.0,0.0,8.099897384643555,7.795952796936035,0.3039455711841583,0.15833333134651184,0.15833333134651184,5.9333672523498535,4.593203067779541,63.93644714355469,-12.0,-19.628570556640625,-11.390816688537598,-8.0,0.0,624.0203857421875,119.61224365234375,19.86318588256836,3.807375907897949,0.7614752054214478,20.624662399291992,61.57587814331055,2.3605732917785645,0.03827502205967903,196.2857208251953,319.0408020019531,491.4081726074219,377.2040710449219,150.61224365234375,77.81632995605469,227.81629943847656,1.0,0.0007593026384711266,0.034374434500932693,0.8190136551856995,0.3271428644657135,0.5317347049713135,0.379693865776062,1.0
env_steps,30000,50,50,44,30000,0.880064,0.29007214307785034,0.40517574548721313,0.4836885929107666,0.5729047060012817,3.7042486667633057,1375,13.611258506774902,0.4597399830818176,0.0,600.0,0.5885857343673706,2.150599956512451,439.5201110839844,8.122532844543457,251.57406616210938,0.026339834555983543,0.6257221102714539,2.150599956512451,2.150599956512451,0.0,0.0,8.122532844543457,7.822233200073242,0.3003000020980835,0.15663333237171173,0.15663333237171173,5.941465854644775,4.582401275634766,64.54559326171875,-12.0,-19.559999465942383,-11.374333381652832,-8.0,0.0,630.0800170898438,120.18000030517578,20.056068420410156,3.8254480361938477,0.7650896310806274,20.82115936279297,62.17381286621094,2.3717780113220215,0.03812837973237038,195.60000610351562,317.79998779296875,490.6000061035156,376.94000244140625,150.44000244140625,77.54000091552734,227.48663330078125,1.0,0.0007662333082407713,0.03470192849636078,0.8176667094230652,0.32600003480911255,0.5296666622161865,0.37914443016052246,1.0
env_steps,30512,50,50,44,30510,0.878016,0.21397162973880768,0.36044585704803467,0.2197655439376831,0.45503920316696167,3.73872709274292,1407,13.611258506774902,0.4597399830818176,0.0,600.0,0.5885857343673706,2.150599956512451,439.5201110839844,8.122532844543457,251.57406616210938,0.026339834555983543,0.6257221102714539,2.150599956512451,2.150599956512451,0.0,0.0,8.122532844543457,7.822233200073242,0.3003000020980835,0.15663333237171173,0.15663333237171173,5.941465854644775,4.582401275634766,64.54559326171875,-12.0,-19.559999465942383,-11.374333381652832,-8.0,0.0,630.0800170898438,120.18000030517578,20.056068420410156,3.8254480361938477,0.7650896310806274,20.82115936279297,62.17381286621094,2.3717780113220215,0.03812837973237038,195.60000610351562,317.79998779296875,490.6000061035156,376.94000244140625,150.44000244140625,77.54000091552734,227.48663330078125,1.0,0.0007662333082407713,0.03470192849636078,0.8176667094230652,0.32600003480911255,0.5296666622161865,0.37914443016052246,1.0
env_steps,31008,51,51,45,31006,0.876032,0.2980823516845703,0.41075313091278076,0.44914132356643677,0.5813471078872681,2.677610397338867,1438,14.327746391296387,0.4640803933143616,0.0,600.0,0.5862451791763306,2.180000066757202,439.2684326171875,8.138299942016602,250.0785675048828,0.026337718591094017,0.6268578171730042,2.180000066757202,2.180000066757202,0.0,0.0,8.138299942016602,7.843823432922363,0.2944771349430084,0.1536274552345276,0.1536274552345276,5.941208839416504,4.560252666473389,65.26434326171875,-12.0,-19.562746047973633,-11.373855590820312,-8.0,0.0,637.11767578125,121.4117660522461,20.28008460998535,3.864656448364258,0.7729312777519226,21.053016662597656,62.86825942993164,2.396087169647217,0.038080498576164246,195.62745666503906,315.76470947265625,489.6666564941406,376.8039245605469,150.37254333496094,77.62744903564453,227.4770965576172,1.0,0.0007734672981314361,0.03508835658431053,0.816111147403717,0.3260457515716553,0.5262745022773743,0.3791285455226898,1.0
env_steps,31504,52,52,46,31502,0.8740479999999999,0.421739786863327,0.4064042568206787,0.3886728882789612,0.6892538666725159,3.952465772628784,1469,14.239653587341309,0.4634961783885956,0.0,600.0,0.5857225656509399,2.1889421939849854,438.2777099609375,8.140641212463379,248.3490447998047,0.026272675022482872,0.6278408765792847,2.1889421939849854,2.1889421939849854,0.0,0.0,8.140641212463379,7.851827144622803,0.28881409764289856,0.15067307651042938,0.15067307651042938,5.953269004821777,4.535455703735352,65.13644409179688,-12.0,-19.53461456298828,-11.362178802490234,-8.0,0.0,635.923095703125,120.90384674072266,20.242061614990234,3.8484888076782227,0.7696977853775024,21.01175880432129,62.75038528442383,2.38606333732605,0.03796330466866493,195.34616088867188,315.3846130371094,489.73077392578125,376.5769348144531,150.07691955566406,77.53845977783203,227.24356079101562,1.0,0.0007724935421720147,0.03501959517598152,0.8162180185317993,0.32557693123817444,0.5256410241127014,0.3787393271923065,1.0
env_steps,32000,53,53,47,31998,0.872064,0.15433049201965332,0.16503247618675232,0.1475333869457245,0.38825809955596924,2.989926815032959,1500,14.185298919677734,0.4632377624511719,0.0,600.0,0.585941731929779,2.1918866634368896,437.5692443847656,8.138333320617676,247.12745666503906,0.026364466175436974,0.6312640905380249,2.1918866634368896,2.1918866634368896,0.0,0.0,8.138333320617676,7.854780197143555,0.28355345129966736,0.1479559689760208,0.1479559689760208,5.9646220207214355,4.521055221557617,65.08560943603516,-12.0,-19.53584861755371,-11.36446475982666,-8.0,0.0,635.3585205078125,121.15093994140625,20.224088668823242,3.856353998184204,0.7712708115577698,20.995361328125,62.694671630859375,2.390939712524414,0.03804609924554825,195.35848999023438,314.9433898925781,489.603759765625,376.6226501464844,150.64151000976562,77.30188751220703,227.28927612304688,1.0,0.0007720628054812551,0.034992266446352005,0.8160063624382019,0.32559746503829956,0.5249056816101074,0.37881553173065186,1.0
env_steps,32512,54,54,48,32510,0.870016,0.2416793406009674,0.3151697814464569,0.3081681728363037,0.515091061592102,4.019474506378174,1532,14.269303321838379,0.4631463289260864,0.0,600.0,0.5849818587303162,2.2240123748779297,438.7187805175781,8.167963027954102,245.38153076171875,0.02640841342508793,0.6262601017951965,2.2240123748779297,2.2240123748779297,0.0,0.0,8.167963027954102,7.887129783630371,0.28083333373069763,0.14709876477718353,0.14709876477718353,5.944814205169678,4.4908552169799805,65.15726470947266,-12.0,-19.514816284179688,-11.373147010803223,-8.0,0.0,636.0184936523438,121.48148345947266,20.245100021362305,3.866875648498535,0.7733750939369202,21.018476486206055,62.75979995727539,2.397463083267212,0.03807825595140457,195.1481475830078,315.03704833984375,489.7407531738281,377.03704833984375,150.90740966796875,77.22222137451172,227.46295166015625,1.0,0.0007719104178249836,0.0350307896733284,0.8162346482276917,0.3252469301223755,0.5250617265701294,0.37910494208335876,1.0
env_steps,33008,55,55,49,33006,0.868032,0.3018408417701721,0.3985758423805237,0.44874534010887146,0.5792580842971802,4.122701644897461,1563,14.417267799377441,0.46486184000968933,0.0,600.0,0.5836939215660095,2.2591514587402344,438.50848388671875,8.22606086730957,242.89060974121094,0.026384249329566956,0.6200159788131714,2.2591514587402344,2.2591514587402344,0.0,0.0,8.22606086730957,7.950333595275879,0.2757272720336914,0.14442424476146698,0.14442424476146698,5.918393135070801,4.4614787101745605,65.24999237060547,-12.0,-19.469091415405273,-11.363635063171387,-8.0,0.0,636.963623046875,121.45454406738281,20.275182723999023,3.866018056869507,0.7732036113739014,21.048389434814453,62.85306167602539,2.3969316482543945,0.03799879178404808,194.69090270996094,314.7272644042969,489.7090759277344,377.0727233886719,150.96363830566406,76.89090728759766,227.272705078125,1.0,0.000774769636336714,0.03508064150810242,0.8161818981170654,0.32448485493659973,0.524545431137085,0.3787878453731537,1.0
env_steps,33504,55,55,49,33502,0.8660479999999999,0.23786981403827667,0.19429993629455566,0.16685500741004944,0.48293250799179077,3.1038951873779297,1594,14.417267799377441,0.46486184000968933,0.0,600.0,0.5836939215660095,2.2591514587402344,438.50848388671875,8.22606086730957,242.89060974121094,0.026384249329566956,0.6200159788131714,2.2591514587402344,2.2591514587402344,0.0,0.0,8.22606086730957,7.950333595275879,0.2757272720336914,0.14442424476146698,0.14442424476146698,5.918393135070801,4.4614787101745605,65.24999237060547,-12.0,-19.469091415405273,-11.363635063171387,-8.0,0.0,636.963623046875,121.45454406738281,20.275182723999023,3.866018056869507,0.7732036113739014,21.048389434814453,62.85306167602539,2.3969316482543945,0.03799879178404808,194.69090270996094,314.7272644042969,489.7090759277344,377.0727233886719,150.96363830566406,76.89090728759766,227.272705078125,1.0,0.000774769636336714,0.03508064150810242,0.8161818981170654,0.32448485493659973,0.524545431137085,0.3787878453731537,1.0
env_steps,34000,56,56,50,33998,0.8640639999999999,0.20887091755867004,0.3636189103126526,0.43745389580726624,0.4803202748298645,3.517888069152832,1625,14.84669017791748,0.466957151889801,0.0,600.0,0.5824518203735352,2.2761013507843018,439.93646240234375,8.27928638458252,241.52220153808594,0.026492750272154808,0.6215258240699768,2.2761013507843018,2.2761013507843018,0.0,0.0,8.27928638458252,7.990238189697266,0.28904762864112854,0.1515476256608963,0.1515476256608963,5.96973180770874,4.446597099304199,65.7020492553711,-12.0,-19.47678565979004,-11.378570556640625,-8.0,0.0,641.3035888671875,122.66071319580078,20.413328170776367,3.904411792755127,0.7808823585510254,21.194210052490234,63.28131103515625,2.4207355976104736,0.038055699318647385,194.76785278320312,313.41070556640625,489.08929443359375,377.4285583496094,151.39285278320312,76.94642639160156,227.57142639160156,1.0,0.0007782619213685393,0.03532368317246437,0.8151487708091736,0.324613094329834,0.5223512053489685,0.3792857229709625,1.0
env_steps,34512,57,57,51,34510,0.862016,0.4082436263561249,0.3930809199810028,0.4009397029876709,0.6946083903312683,3.255728006362915,1657,15.228864669799805,0.4689596891403198,0.0,600.0,0.5804652571678162,2.265994071960449,442.3956604003906,8.290643692016602,243.6477813720703,0.026536909863352776,0.6225537657737732,2.265994071960449,2.265994071960449,0.0,0.0,8.290643692016602,8.004064559936523,0.2865789234638214,0.1514912247657776,0.1514912247657776,5.975905895233154,4.465216636657715,66.06102752685547,-12.0,-19.45964813232422,-11.372513771057129,-8.0,0.0,644.859619140625,123.07017517089844,20.526521682739258,3.917445421218872,0.7834891080856323,21.310009002685547,63.6322135925293,2.428816318511963,0.037974726408720016,194.59649658203125,312.5438537597656,488.64910888671875,377.47369384765625,151.50877380371094,76.68421173095703,227.45030212402344,1.0,0.0007815994322299957,0.03551667928695679,0.8144151568412781,0.3243274688720703,0.5209064483642578,0.3790838122367859,1.0
env_steps,35008,58,58,52,35006,0.860032,0.2085421085357666,0.39429330825805664,0.46830934286117554,0.46363353729248047,3.944002151489258,1688,15.814775466918945,0.47199657559394836,0.0,600.0,0.5777726769447327,2.254540205001831,442.87139892578125,8.283793449401855,245.24952697753906,0.026577265933156013,0.6262809634208679,2.254540205001831,2.254540205001831,0.0,0.0,8.283793449401855,8.002098083496094,0.2816953957080841,0.14893677830696106,0.14893677830696106,5.982240676879883,4.489003658294678,66.52195739746094,-12.0,-19.35517120361328,-11.352010726928711,-8.0,0.0,649.3793334960938,123.82758331298828,20.670387268066406,3.941554546356201,0.7883109450340271,21.458696365356445,64.07819366455078,2.4437639713287354,0.037932347506284714,193.55172729492188,311.17242431640625,487.67242431640625,377.0862121582031,151.2413787841797,76.39655303955078,227.0402374267578,1.0,0.0007866609375923872,0.03576449304819107,0.8127873539924622,0.32258617877960205,0.5186207294464111,0.37840038537979126,1.0
env_steps,35504,59,59,53,35502,0.858048,0.166151762008667,0.21354135870933533,0.28008711338043213,0.40145444869995117,3.1337714195251465,1719,15.744782447814941,0.47195765376091003,0.0,600.0,0.5780196785926819,2.255141258239746,442.3110656738281,8.276667594909668,244.28363037109375,0.026547329500317574,0.6250803470611572,2.255141258239746,2.255141258239746,0.0,0.0,8.276667594909668,7.9963274002075195,0.28033897280693054,0.14819207787513733,0.14819207787513733,5.9895195960998535,4.475526809692383,66.45748901367188,-12.0,-19.35762596130371,-11.355083465576172,-8.0,0.0,648.7626953125,123.6440658569336,20.650760650634766,3.935713052749634,0.7871426343917847,21.43790054321289,64.0173568725586,2.4401421546936035,0.037892088294029236,193.57627868652344,312.4067687988281,487.9660949707031,377.05084228515625,151.16949462890625,76.54237365722656,227.10171508789062,1.0,0.0007865960360504687,0.03572983294725418,0.8132768273353577,0.32262712717056274,0.5206779837608337,0.37850281596183777,1.0
env_steps,36000,60,60,54,36000,0.8560639999999999,0.21189364790916443,0.27496105432510376,0.22506378591060638,0.459194540977478,2.6184566020965576,1750,15.932905197143555,0.47343167662620544,0.0,600.0,0.5765390992164612,2.2676942348480225,445.197265625,8.324084281921387,243.779296875,0.02653980627655983,0.623327910900116,2.2676942348480225,2.2676942348480225,0.0,0.0,8.324084281921387,8.037666320800781,0.2864166498184204,0.14883331954479218,0.14883331954479218,5.995611190795898,4.465010166168213,66.64318084716797,-12.0,-19.356666564941406,-11.353610038757324,-8.0,0.0,650.4166870117188,124.78333282470703,20.703407287597656,3.9719772338867188,0.794395387172699,21.497800827026367,64.1805648803711,2.462625741958618,0.03807438537478447,193.56666564941406,311.6000061035156,487.4333190917969,377.01666259765625,151.1999969482422,76.5,227.07223510742188,1.0,0.0007890528067946434,0.03582966700196266,0.8123888373374939,0.32261112332344055,0.5193333625793457,0.37845370173454285,1.0
env_steps,36512,60,60,54,36510,0.854016,0.2541866600513458,0.42083603143692017,0.44381505250930786,0.5189590454101562,2.9699106216430664,1782,15.932905197143555,0.47343167662620544,0.0,600.0,0.5765390992164612,2.2676942348480225,445.197265625,8.324084281921387,243.779296875,0.02653980627655983,0.623327910900116,2.2676942348480225,2.2676942348480225,0.0,0.0,8.324084281921387,8.037666320800781,0.2864166498184204,0.14883331954479218,0.14883331954479218,5.995611190795898,4.465010166168213,66.64318084716797,-12.0,-19.356666564941406,-11.353610038757324,-8.0,0.0,650.4166870117188,124.78333282470703,20.703407287597656,3.9719772338867188,0.794395387172699,21.497800827026367,64.1805648803711,2.462625741958618,0.03807438537478447,193.56666564941406,311.6000061035156,487.4333190917969,377.01666259765625,151.1999969482422,76.5,227.07223510742188,1.0,0.0007890528067946434,0.03582966700196266,0.8123888373374939,0.32261112332344055,0.5193333625793457,0.37845370173454285,1.0
env_steps,37008,61,61,55,37006,0.852032,0.2996446490287781,0.25763988494873047,0.3544732332229614,0.576008141040802,3.663339853286743,1813,15.855291366577148,0.4728459119796753,0.0,600.0,0.5760344862937927,2.277841567993164,444.4074401855469,8.290437698364258,242.63946533203125,0.02651326172053814,0.6229763627052307,2.277841567993164,2.277841567993164,0.0,0.0,8.290437698364258,8.008715629577637,0.281721293926239,0.14639343321323395,0.14639343321323395,5.953852653503418,4.432435512542725,66.55036926269531,-12.0,-19.3360652923584,-11.359015464782715,-8.0,0.0,649.4754028320312,124.7868881225586,20.673446655273438,3.972090244293213,0.7944180369377136,21.46786117553711,64.08768463134766,2.462695837020874,0.03811337798833847,193.36065673828125,311.80328369140625,487.4262390136719,377.1639404296875,151.19671630859375,76.59016418457031,227.1803436279297,1.0,0.0007880765479058027,0.03577977046370506,0.8123770356178284,0.3222677409648895,0.519672155380249,0.37863388657569885,1.0
env_steps,37504,62,62,56,37502,0.850048,0.34717345237731934,0.4235292673110962,0.2556689381599426,0.6118029356002808,3.9810969829559326,1844,16.239049911499023,0.4752451777458191,0.0,600.0,0.5757339596748352,2.2887635231018066,445.25518798828125,8.28016185760498,241.58285522460938,0.026596136391162872,0.6213601231575012,2.2887635231018066,2.2887635231018066,0.0,0.0,8.28016185760498,8.0029296875,0.2772311866283417,0.14408600330352783,0.14408600330352783,5.929731369018555,4.406798362731934,66.93769836425781,-12.0,-19.33709716796875,-11.36155891418457,-8.0,0.0,653.241943359375,125.58064270019531,20.793338775634766,3.9973561763763428,0.7994712591171265,21.59280776977539,64.45934295654297,2.478360891342163,0.03811020776629448,193.3709716796875,310.758056640625,487.0,377.17742919921875,151.2903289794922,76.61289978027344,227.23118591308594,1.0,0.0007920752977952361,0.035988010466098785,0.8116666674613953,0.3222849369049072,0.5179301500320435,0.37871861457824707,1.0
env_steps,38000,63,63,57,37998,0.848064,0.20086832344532013,0.2273014634847641,0.3332012891769409,0.42212384939193726,3.051816701889038,1875,16.94352912902832,0.4787444472312927,0.0,600.0,0.5753373503684998,2.3016932010650635,444.171875,8.325185775756836,239.843505859375,0.02661813236773014,0.6202871203422546,2.3016932010650635,2.3016932010650635,0.0,0.0,8.325185775756836,8.050475120544434,0.274709016084671,0.1428571343421936,0.1428571343421936,5.959735870361328,4.399741172790527,67.6009292602539,-12.0,-19.307937622070312,-11.349470138549805,-8.0,0.0,659.8729858398438,126.03174591064453,21.004411697387695,4.011715412139893,0.8023430705070496,21.806753158569336,65.11367797851562,2.4872634410858154,0.03794900327920914,193.07936096191406,310.80950927734375,486.6349182128906,376.8730163574219,151.3015899658203,76.3968276977539,226.9894256591797,1.0,0.0007979074725881219,0.03634458780288696,0.8110582232475281,0.3217989206314087,0.5180159211158752,0.37831565737724304,1.0
env_steps,38512,64,64,58,38510,0.846016,0.24133676290512085,0.14741820096969604,0.37428340315818787,0.4859452247619629,2.926138162612915,1907,16.825910568237305,0.47819846868515015,0.0,600.0,0.5760711431503296,2.3199219703674316,445.6566467285156,8.385468482971191,238.58209228515625,0.026499375700950623,0.6162005662918091,2.3199219703674316,2.3199219703674316,0.0,0.0,8.385468482971191,8.102343559265137,0.28312498331069946,0.1449739634990692,0.1449739634990692,5.964010238647461,4.389203071594238,67.5042953491211,-12.0,-19.321874618530273,-11.356510162353516,-8.0,0.0,658.953125,125.734375,20.975128173828125,4.002249240875244,0.8004498481750488,21.77557945251465,65.02290344238281,2.4813947677612305,0.03789328783750534,193.21875,312.21875,486.984375,376.984375,151.1875,76.609375,227.1302032470703,1.0,0.0007969973958097398,0.03629263490438461,0.8116406202316284,0.32203125953674316,0.5203646421432495,0.37855035066604614,1.0
env_steps,39008,65,65,59,39006,0.844032,0.2600613236427307,0.3382684588432312,0.4036579728126526,0.539881706237793,3.040841817855835,1938,16.84241485595703,0.47880157828330994,0.0,600.0,0.5763726830482483,2.3379745483398438,444.4785461425781,8.396537780761719,236.57089233398438,0.026352697983384132,0.6107677817344666,2.3379745483398438,2.3379745483398438,0.0,0.0,8.396537780761719,8.117768287658691,0.27876922488212585,0.14274358749389648,0.14274358749389648,5.948948383331299,4.362674713134766,67.52600860595703,-12.0,-19.323076248168945,-11.360511779785156,-8.0,0.0,659.2153930664062,125.52307891845703,20.983474731445312,3.99552321434021,0.7991046905517578,21.782581329345703,65.04878234863281,2.477224826812744,0.03780375048518181,193.23077392578125,313.5538330078125,487.21539306640625,376.8615417480469,151.015380859375,76.87692260742188,227.2102508544922,1.0,0.0007980025839060545,0.036304306238889694,0.8120256066322327,0.3220512866973877,0.5225898027420044,0.37868377566337585,1.0
env_steps,39504,65,65,59,39502,0.842048,0.1766740083694458,0.32670533657073975,0.30902576446533203,0.42799532413482666,3.296261787414551,1969,16.84241485595703,0.47880157828330994,0.0,600.0,0.5763726830482483,2.3379745483398438,444.4785461425781,8.396537780761719,236.57089233398438,0.026352697983384132,0.6107677817344666,2.3379745483398438,2.3379745483398438,0.0,0.0,8.396537780761719,8.117768287658691,0.27876922488212585,0.14274358749389648,0.14274358749389648,5.948948383331299,4.362674713134766,67.52600860595703,-12.0,-19.323076248168945,-11.360511779785156,-8.0,0.0,659.2153930664062,125.52307891845703,20.983474731445312,3.99552321434021,0.7991046905517578,21.782581329345703,65.04878234863281,2.477224826812744,0.03780375048518181,193.23077392578125,313.5538330078125,487.21539306640625,376.8615417480469,151.015380859375,76.87692260742188,227.2102508544922,1.0,0.0007980025839060545,0.036304306238889694,0.8120256066322327,0.3220512866973877,0.5225898027420044,0.37868377566337585,1.0
env_steps,40000,66,66,60,39998,0.840064,0.25336670875549316,0.40165796875953674,0.5015746355056763,0.5215250253677368,4.011335849761963,2000,16.786714553833008,0.4779045879840851,0.0,600.0,0.5743961930274963,2.34734845161438,441.8526611328125,8.349570274353027,234.57481384277344,0.02620668336749077,0.6070932745933533,2.34734845161438,2.34734845161438,0.0,0.0,8.349570274353027,8.07502555847168,0.27454543113708496,0.14058081805706024,0.14058081805706024,5.908332824707031,4.328779220581055,67.37661743164062,-12.0,-19.24242401123047,-11.347474098205566,-8.0,0.0,657.6818237304688,125.6212158203125,20.934661865234375,3.9986469745635986,0.7997294068336487,21.734392166137695,64.89745330810547,2.479161262512207,0.0379154272377491,192.4242401123047,314.4090881347656,487.3787841796875,376.742431640625,150.9545440673828,76.57575988769531,226.94947814941406,1.0,0.000796507578343153,0.036223988980054855,0.8122979998588562,0.3207070827484131,0.5240151882171631,0.3782491683959961,1.0
env_steps,40512,67,67,61,40510,0.838016,0.3526400923728943,0.7320406436920166,0.6918164491653442,0.684809684753418,4.027214050292969,2032,17.027626037597656,0.47927168011665344,0.0,600.0,0.5728015303611755,2.355746269226074,442.42254638671875,8.392064094543457,233.6348876953125,0.026349715888500214,0.6080570220947266,2.355746269226074,2.355746269226074,0.0,0.0,8.392064094543457,8.116467475891113,0.2755969762802124,0.14203980565071106,0.14203980565071106,5.931740760803223,4.324355125427246,67.6119613647461,-12.0,-19.237314224243164,-11.347014427185059,-8.0,0.0,660.0149536132812,125.88059997558594,21.008926391601562,4.006903171539307,0.8013807535171509,21.8103084564209,65.12767791748047,2.4842803478240967,0.03785613179206848,192.37313842773438,313.2686462402344,486.80596923828125,376.52239990234375,150.98507690429688,76.6567153930664,226.94027709960938,1.0,0.0007987860590219498,0.036350518465042114,0.8113433122634888,0.32062190771102905,0.5221144556999207,0.3782338500022888,1.0
env_steps,41008,68,68,62,41006,0.836032,0.48956796526908875,0.6671290397644043,0.8302829265594482,0.8168880939483643,3.9388506412506104,2063,17.408981323242188,0.48161035776138306,0.0,600.0,0.5720367431640625,2.3498775959014893,444.3562316894531,8.394607543945312,235.21792602539062,0.026342371478676796,0.6080683469772339,2.3498775959014893,2.3498775959014893,0.0,0.0,8.394607543945312,8.120538711547852,0.27406859397888184,0.14213237166404724,0.14213237166404724,5.943798542022705,4.333136558532715,67.99158477783203,-12.0,-19.235294342041016,-11.347302436828613,-8.0,0.0,663.7205810546875,126.5882339477539,21.126880645751953,4.029428482055664,0.8058857321739197,21.932767868041992,65.49333953857422,2.4982457160949707,0.037839941680431366,192.35293579101562,312.1617736816406,486.3382263183594,376.4264831542969,150.85293579101562,76.77941131591797,226.94606018066406,1.0,0.0008026838768273592,0.03655461594462395,0.8105637431144714,0.32058826088905334,0.5202696919441223,0.37824347615242004,1.0
env_steps,41504,69,69,63,41502,0.834048,0.4952174425125122,0.8225173950195312,1.0587577819824219,0.8354483246803284,4.119144439697266,2094,17.489870071411133,0.4816899001598358,0.0,600.0,0.570594847202301,2.3419806957244873,445.3067932128906,8.424129486083984,236.61907958984375,0.026317767798900604,0.6083706021308899,2.3419806957244873,2.3419806957244873,0.0,0.0,8.424129486083984,8.147826194763184,0.27630433440208435,0.14285025000572205,0.14285025000572205,5.97782564163208,4.366130352020264,68.02127075195312,-12.0,-19.18695640563965,-11.344443321228027,-8.0,0.0,664.0289916992188,126.55072784423828,21.13669776916504,4.028234481811523,0.8056468963623047,21.942346572875977,65.52377319335938,2.4975054264068604,0.03779790550470352,191.86956787109375,311.5942077636719,486.23187255859375,376.3623046875,151.02899169921875,76.63768005371094,226.8888702392578,1.0,0.0008028164738789201,0.036570578813552856,0.8103864789009094,0.3197826147079468,0.5193237662315369,0.3781481385231018,1.0
env_steps,42000,70,70,64,42000,0.832064,0.5852781534194946,0.933063268661499,0.8589577674865723,0.927275538444519,4.221401691436768,2125,17.358642578125,0.4807285964488983,0.0,600.0,0.5705965757369995,2.3330237865448,446.75103759765625,8.41064167022705,238.6271514892578,0.026339704170823097,0.610202431678772,2.3330237865448,2.3330237865448,0.0,0.0,8.41064167022705,8.138285636901855,0.27235713601112366,0.1408095359802246,0.1408095359802246,5.977880477905273,4.374126434326172,67.8829345703125,-12.0,-19.174285888671875,-11.34999942779541,-8.0,0.0,662.5999755859375,126.68571472167969,21.091211318969727,4.032531261444092,0.8065062761306763,21.89771842956543,65.38276672363281,2.500169515609741,0.037915196269750595,191.74285888671875,311.3571472167969,486.1714172363281,376.4285583496094,151.08570861816406,76.74285888671875,226.99998474121094,1.0,0.0008012143080122769,0.036496203392744064,0.810285747051239,0.31957143545150757,0.5189286470413208,0.37833333015441895,1.0
env_steps,42512,70,70,64,42510,0.830016,0.37934842705726624,0.8489675521850586,0.8568739891052246,0.6763080358505249,4.163308143615723,2157,17.358642578125,0.4807285964488983,0.0,600.0,0.5705965757369995,2.3330237865448,446.75103759765625,8.41064167022705,238.6271514892578,0.026339704170823097,0.610202431678772,2.3330237865448,2.3330237865448,0.0,0.0,8.41064167022705,8.138285636901855,0.27235713601112366,0.1408095359802246,0.1408095359802246,5.977880477905273,4.374126434326172,67.8829345703125,-12.0,-19.174285888671875,-11.34999942779541,-8.0,0.0,662.5999755859375,126.68571472167969,21.091211318969727,4.032531261444092,0.8065062761306763,21.89771842956543,65.38276672363281,2.500169515609741,0.037915196269750595,191.74285888671875,311.3571472167969,486.1714172363281,376.4285583496094,151.08570861816406,76.74285888671875,226.99998474121094,1.0,0.0008012143080122769,0.036496203392744064,0.810285747051239,0.31957143545150757,0.5189286470413208,0.37833333015441895,1.0
env_steps,43008,71,71,65,43006,0.828032,0.3810831904411316,0.751248836517334,0.6974723935127258,0.6856681108474731,4.024112224578857,2188,17.988882064819336,0.48427748680114746,0.0,600.0,0.5690984129905701,2.3437323570251465,446.9017333984375,8.436994552612305,237.9042205810547,0.026395250111818314,0.6104352474212646,2.3437323570251465,2.3437323570251465,0.0,0.0,8.436994552612305,8.166971206665039,0.2700234651565552,0.14028170704841614,0.14028170704841614,5.987018585205078,4.370105743408203,68.50953674316406,-12.0,-19.169015884399414,-11.351642608642578,-8.0,0.0,668.591552734375,128.47886657714844,21.28192710876465,4.089609622955322,0.8179219365119934,22.099851608276367,65.97398376464844,2.535557985305786,0.038009464740753174,191.6901397705078,309.7464904785156,485.1971740722656,376.46478271484375,150.97183227539062,76.83098602294922,227.03285217285156,1.0,0.0008071291376836598,0.03683309257030487,0.8086619973182678,0.31948357820510864,0.5162442326545715,0.3783881366252899,1.0
env_steps,43504,72,72,66,43502,0.826048,0.37845394015312195,0.7830270528793335,0.8953491449356079,0.6999943256378174,3.002838611602783,2219,18.02920150756836,0.48467084765434265,0.0,600.0,0.5679654479026794,2.3426618576049805,445.00634765625,8.397430419921875,236.6267852783203,0.026309316977858543,0.6063393354415894,2.3426618576049805,2.3426618576049805,0.0,0.0,8.397430419921875,8.131157875061035,0.2662731409072876,0.13833333551883698,0.13833333551883698,5.950254440307617,4.34611701965332,68.50859832763672,-12.0,-19.134721755981445,-11.34467601776123,-8.0,0.0,668.5972290039062,128.40277099609375,21.28211212158203,4.087186813354492,0.817437469959259,22.09954833984375,65.97454071044922,2.5340564250946045,0.03797415643930435,191.34722900390625,310.0,485.15277099609375,376.4305419921875,151.0,76.625,226.8935089111328,1.0,0.0008077847305685282,0.03683257848024368,0.808587908744812,0.3189120590686798,0.5166666507720947,0.3781558573246002,1.0
env_steps,44000,73,73,67,43998,0.824064,0.4685646891593933,0.7966631054878235,0.8659422397613525,0.7985951900482178,3.77337908744812,2250,17.839256286621094,0.4834301471710205,0.0,600.0,0.5679802894592285,2.3251140117645264,444.1636657714844,8.338059425354004,238.484619140625,0.02606659010052681,0.6037541627883911,2.3251140117645264,2.3251140117645264,0.0,0.0,8.338059425354004,8.075434684753418,0.2626255452632904,0.13643835484981537,0.13643835484981537,5.923401832580566,4.340096950531006,68.22030639648438,-12.0,-19.047945022583008,-11.333105087280273,-8.0,0.0,665.7671508789062,127.94520568847656,21.192026138305664,4.072622299194336,0.8145245313644409,22.006549835205078,65.69528198242188,2.5250260829925537,0.03799507021903992,190.4794464111328,311.7945251464844,485.6986389160156,376.27398681640625,150.67123413085938,76.52054595947266,226.66207885742188,1.0,0.0008057168452069163,0.036677584052085876,0.8094976544380188,0.31746578216552734,0.5196574926376343,0.37777018547058105,1.0
env_steps,44512,74,74,68,44510,0.822016,0.4539799392223358,0.8635270595550537,0.6657033562660217,0.7800784111022949,3.8826138973236084,2282,17.883878707885742,0.48355814814567566,0.0,600.0,0.5670953989028931,2.353017807006836,443.1822204589844,8.361215591430664,236.7291717529297,0.02598496712744236,0.6009113192558289,2.353017807006836,2.353017807006836,0.0,0.0,8.361215591430664,8.102139472961426,0.2590765655040741,0.13459458947181702,0.13459458947181702,5.897590160369873,4.318234443664551,68.23049926757812,-12.0,-19.021621704101562,-11.324999809265137,-8.0,0.0,665.8243408203125,128.17567443847656,21.19384765625,4.079957962036133,0.8159917593002319,22.009838104248047,65.70092010498047,2.529574394226074,0.03804226964712143,190.21621704101562,311.7432556152344,485.7837829589844,376.0946044921875,150.54054260253906,76.43243408203125,226.49996948242188,1.0,0.0008059301762841642,0.036683063954114914,0.809639573097229,0.3170270323753357,0.5195720195770264,0.3775000274181366,1.0
env_steps,45008,75,75,69,45006,0.820032,0.537992000579834,0.6265184879302979,0.7361228466033936,0.8566960096359253,4.184358596801758,2313,17.54891014099121,0.48204535245895386,0.0,600.0,0.5669439435005188,2.351088762283325,440.9206237792969,8.352977752685547,235.39395141601562,0.025870751589536667,0.599122941493988,2.351088762283325,2.351088762283325,0.0,0.0,8.352977752685547,8.096933364868164,0.2560444176197052,0.1331111192703247,0.1331111192703247,5.9046220779418945,4.311783790588379,67.91913604736328,-12.0,-19.038667678833008,-11.331555366516113,-8.0,0.0,662.693359375,128.05332946777344,21.09418487548828,4.076063632965088,0.8152128458023071,21.909395217895508,65.3919677734375,2.5271599292755127,0.03823278471827507,190.3866729736328,312.3999938964844,486.0533447265625,376.413330078125,150.7866668701172,76.34666442871094,226.63108825683594,1.0,0.0008034088532440364,0.03651566058397293,0.8100888729095459,0.3173111081123352,0.5206665992736816,0.3777185380458832,1.0
env_steps,45504,75,75,69,45502,0.818048,0.3974575996398926,0.5757800340652466,0.7212581038475037,0.6861833333969116,4.1715168952941895,2344,17.54891014099121,0.48204535245895386,0.0,600.0,0.5669439435005188,2.351088762283325,440.9206237792969,8.352977752685547,235.39395141601562,0.025870751589536667,0.599122941493988,2.351088762283325,2.351088762283325,0.0,0.0,8.352977752685547,8.096933364868164,0.2560444176197052,0.1331111192703247,0.1331111192703247,5.9046220779418945,4.311783790588379,67.91913604736328,-12.0,-19.038667678833008,-11.331555366516113,-8.0,0.0,662.693359375,128.05332946777344,21.09418487548828,4.076063632965088,0.8152128458023071,21.909395217895508,65.3919677734375,2.5271599292755127,0.03823278471827507,190.3866729736328,312.3999938964844,486.0533447265625,376.413330078125,150.7866668701172,76.34666442871094,226.63108825683594,1.0,0.0008034088532440364,0.03651566058397293,0.8100888729095459,0.3173111081123352,0.5206665992736816,0.3777185380458832,1.0
env_steps,46000,76,76,70,45998,0.816064,0.4020971953868866,0.7537315487861633,0.9252487421035767,0.724582314491272,4.154875755310059,2375,17.964624404907227,0.4843026101589203,0.0,600.0,0.5655486583709717,2.3479602336883545,440.8060302734375,8.33103084564209,235.12664794921875,0.02581314742565155,0.5963053703308105,2.3479602336883545,2.3479602336883545,0.0,0.0,8.33103084564209,8.07835578918457,0.2526754140853882,0.13135965168476105,0.13135965168476105,5.892434120178223,4.298725128173828,68.29708862304688,-12.0,-19.005264282226562,-11.327192306518555,-8.0,0.0,666.51318359375,128.1052703857422,21.215774536132812,4.077716827392578,0.8155434727668762,22.03131675720215,65.76889038085938,2.5281848907470703,0.038084398955106735,190.05262756347656,312.8947448730469,485.97369384765625,376.2894592285156,150.63157653808594,76.35526275634766,226.54383850097656,1.0,0.0008071710471995175,0.036718860268592834,0.8099560737609863,0.31675440073013306,0.5214911699295044,0.3775731027126312,1.0
env_steps,46512,77,77,71,46510,0.814016,0.35720300674438477,0.7305192351341248,0.8636942505836487,0.6604763269424438,3.9485855102539062,2407,18.320384979248047,0.4855791926383972,0.0,600.0,0.5634332299232483,2.3370559215545654,442.02740478515625,8.330086708068848,237.0272216796875,0.02585083246231079,0.5982156991958618,2.3370559215545654,2.3370559215545654,0.0,0.0,8.330086708068848,8.07909107208252,0.2509956359863281,0.13093073666095734,0.13093073666095734,5.913181304931641,4.321295261383057,68.60242462158203,-12.0,-18.96103858947754,-11.320995330810547,-8.0,0.0,669.4415283203125,128.93505859375,21.30898666381836,4.104129791259766,0.8208261728286743,22.129812240600586,66.05785369873047,2.5445609092712402,0.03812580183148384,189.61038208007812,312.1038818359375,485.3636474609375,376.22076416015625,150.64935302734375,76.19480895996094,226.41989135742188,1.0,0.0008092987118288875,0.036883022636175156,0.8089393377304077,0.3160173296928406,0.5201730728149414,0.3773665428161621,1.0
env_steps,47008,78,78,72,47006,0.812032,0.46407100558280945,0.7763553261756897,1.047898530960083,0.7745122909545898,4.2003021240234375,2438,18.374969482421875,0.48570123314857483,0.0,600.0,0.5625239610671997,2.339743137359619,440.9626770019531,8.308547973632812,235.96104431152344,0.02578371949493885,0.597278356552124,2.339743137359619,2.339743137359619,0.0,0.0,8.308547973632812,8.060770034790039,0.24777774512767792,0.1292521357536316,0.1292521357536316,5.884358882904053,4.302366733551025,68.62946319580078,-12.0,-18.933334350585938,-11.321152687072754,-8.0,0.0,669.7435913085938,128.7948760986328,21.318599700927734,4.099667072296143,0.8199336528778076,22.138534545898438,66.08765411376953,2.5417943000793457,0.03805923089385033,189.3333282470703,311.8846130371094,485.23077392578125,376.0769348144531,150.55128479003906,76.32051086425781,226.4230499267578,1.0,0.00080950214760378,0.036897558718919754,0.8087179064750671,0.3155555725097656,0.5198075771331787,0.37737181782722473,1.0
env_steps,47504,79,79,73,47502,0.810048,0.3549911081790924,0.6937552690505981,0.8874810934066772,0.6471234560012817,3.477447271347046,2469,18.250274658203125,0.4856012165546417,0.0,600.0,0.5632174015045166,2.356624126434326,440.6649475097656,8.333523750305176,235.5096893310547,0.025802791118621826,0.5963250994682312,2.356624126434326,2.356624126434326,0.0,0.0,8.333523750305176,8.081477165222168,0.2520463764667511,0.13175106048583984,0.13175106048583984,5.8999786376953125,4.308337211608887,68.5523910522461,-12.0,-18.97088623046875,-11.331222534179688,-8.0,0.0,668.8987426757812,129.11392211914062,21.29170799255371,4.109823226928711,0.8219648003578186,22.113672256469727,66.00428009033203,2.548090696334839,0.03819260373711586,189.7088623046875,312.10125732421875,485.18988037109375,376.16455078125,150.74684143066406,76.48101043701172,226.62445068359375,1.0,0.0008093354408629239,0.03685612231492996,0.8086497783660889,0.3161814510822296,0.520168662071228,0.37770748138427734,1.0
env_steps,48000,80,80,74,48000,0.808064,0.36091476678848267,0.6785573959350586,0.6589967012405396,0.6621484160423279,3.605311870574951,2500,17.82351303100586,0.4838375151157379,0.0,600.0,0.564059853553772,2.3424582481384277,440.8487243652344,8.30327033996582,237.73257446289062,0.025597553700208664,0.5967134237289429,2.3424582481384277,2.3424582481384277,0.0,0.0,8.30327033996582,8.054375648498535,0.24889583885669708,0.1301041543483734,0.1301041543483734,5.897187232971191,4.318885803222656,68.14643859863281,-12.0,-18.985000610351562,-11.337916374206543,-8.0,0.0,664.875,128.66250610351562,21.16362953186035,4.095454692840576,0.8190909624099731,21.98271942138672,65.60725402832031,2.53918194770813,0.038351137191057205,189.85000610351562,313.8999938964844,485.8125,376.2875061035156,150.7624969482422,76.61250305175781,226.7583465576172,1.0,0.0008063958957791328,0.036637865006923676,0.8096874356269836,0.3164166808128357,0.5231666564941406,0.37793055176734924,1.0
env_steps,48512,80,80,74,48510,0.8060160000000001,0.3613995909690857,0.7420048117637634,0.8068587183952332,0.6887694001197815,4.090989589691162,2532,17.82351303100586,0.4838375151157379,0.0,600.0,0.564059853553772,2.3424582481384277,440.8487243652344,8.30327033996582,237.73257446289062,0.025597553700208664,0.5967134237289429,2.3424582481384277,2.3424582481384277,0.0,0.0,8.30327033996582,8.054375648498535,0.24889583885669708,0.1301041543483734,0.1301041543483734,5.897187232971191,4.318885803222656,68.14643859863281,-12.0,-18.985000610351562,-11.337916374206543,-8.0,0.0,664.875,128.66250610351562,21.16362953186035,4.095454692840576,0.8190909624099731,21.98271942138672,65.60725402832031,2.53918194770813,0.038351137191057205,189.85000610351562,313.8999938964844,485.8125,376.2875061035156,150.7624969482422,76.61250305175781,226.7583465576172,1.0,0.0008063958957791328,0.036637865006923676,0.8096874356269836,0.3164166808128357,0.5231666564941406,0.37793055176734924,1.0
env_steps,49008,81,81,75,49006,0.804032,0.5072168111801147,0.7579143643379211,0.65176922082901,0.7987048625946045,4.552386283874512,2563,18.29851722717285,0.4858185052871704,0.0,600.0,0.562950611114502,2.3400206565856934,443.1604919433594,8.293354034423828,238.761962890625,0.02564523182809353,0.5960168242454529,2.3400206565856934,2.3400206565856934,0.0,0.0,8.293354034423828,8.047222137451172,0.24613168835639954,0.12870369851589203,0.12870369851589203,5.883786201477051,4.313450813293457,68.59132385253906,-12.0,-18.961729049682617,-11.331069946289062,-8.0,0.0,669.2345581054688,129.40740966796875,21.302398681640625,4.119165897369385,0.8238331079483032,22.126232147216797,66.03743743896484,2.5538828372955322,0.0383196659386158,189.61727905273438,313.2469177246094,485.32098388671875,376.04937744140625,150.77777099609375,76.51851654052734,226.6214141845703,1.0,0.0008096975507214665,0.03687705099582672,0.8088682293891907,0.3160288333892822,0.5220782160758972,0.3777023255825043,1.0
env_steps,49504,82,82,76,49502,0.802048,0.26076024770736694,0.8136426210403442,0.858192503452301,0.5416032075881958,3.782181739807129,2594,18.274063110351562,0.48547685146331787,0.0,600.0,0.5628017783164978,2.3379268646240234,444.17730712890625,8.297073364257812,239.0029296875,0.025642385706305504,0.5971134901046753,2.3379268646240234,2.3379268646240234,0.0,0.0,8.297073364257812,8.05164623260498,0.24542683362960815,0.1279471516609192,0.1279471516609192,5.899674892425537,4.3122382164001465,68.56085968017578,-12.0,-18.957317352294922,-11.329471588134766,-8.0,0.0,668.9024658203125,129.52438354492188,21.291826248168945,4.122889518737793,0.8245778679847717,22.116403579711914,66.0046615600586,2.5561914443969727,0.03835850954055786,189.5731658935547,313.1097412109375,485.30487060546875,376.01220703125,150.756103515625,76.5,226.5894317626953,1.0,0.0008091280469670892,0.036860670894384384,0.808841347694397,0.3159553110599518,0.5218496322631836,0.3776490390300751,1.0
env_steps,50000,83,83,77,49998,0.800064,0.4540967345237732,0.7476757168769836,0.7929929494857788,0.7693840265274048,4.3198981285095215,2625,18.569561004638672,0.486765056848526,0.0,600.0,0.561694324016571,2.3446385860443115,443.7138977050781,8.331947326660156,238.03359985351562,0.0256324615329504,0.59614497423172,2.3446385860443115,2.3446385860443115,0.0,0.0,8.331947326660156,8.081043243408203,0.2509036362171173,0.13006022572517395,0.13006022572517395,5.926225185394287,4.3137407302856445,68.82096862792969,-12.0,-18.933734893798828,-11.317669868469238,-8.0,0.0,671.44580078125,129.98794555664062,21.372783660888672,4.1376447677612305,0.8275290131568909,22.200313568115234,66.25563049316406,2.565340042114258,0.038339462131261826,189.3373565673828,312.6747131347656,485.0361328125,375.6144714355469,150.65060424804688,76.39759063720703,226.35342407226562,1.0,0.0008112751529552042,0.037000518292188644,0.8083934783935547,0.31556224822998047,0.5211244821548462,0.3772556483745575,1.0
env_steps,50512,84,84,78,50510,0.7980160000000001,0.32771092653274536,0.7592896819114685,0.8704192638397217,0.6338261961936951,3.929295063018799,2657,18.607656478881836,0.48706549406051636,0.0,600.0,0.5608707070350647,2.3435516357421875,442.64642333984375,8.321249961853027,237.1411895751953,0.025532521307468414,0.5948118567466736,2.3435516357421875,2.3435516357421875,0.0,0.0,8.321249961853027,8.073332786560059,0.24791666865348816,0.12851189076900482,0.12851189076900482,5.917995929718018,4.303464889526367,68.84793853759766,-12.0,-18.924999237060547,-11.315277099609375,-8.0,0.0,671.6785888671875,130.1904754638672,21.38019371032715,4.144091606140137,0.8288182616233826,22.20901107788086,66.27860260009766,2.5693368911743164,0.03836888074874878,189.25,312.71429443359375,485.0,375.46429443359375,150.5,76.47618865966797,226.30557250976562,1.0,0.000811775797046721,0.03701501712203026,0.8083332777023315,0.3154166638851166,0.5211904644966125,0.377175897359848,1.0
env_steps,51008,85,85,79,51006,0.7960320000000001,0.42568063735961914,0.4722289741039276,0.6893550157546997,0.748676061630249,4.276463985443115,2688,18.789623260498047,0.48800355195999146,0.0,600.0,0.5594792366027832,2.34580397605896,442.2027587890625,8.295372009277344,236.3050537109375,0.02546427585184574,0.5925310254096985,2.34580397605896,2.34580397605896,0.0,0.0,8.295372009277344,8.050372123718262,0.24500000476837158,0.12699998915195465,0.12699998915195465,5.894705772399902,4.281586170196533,68.98943328857422,-12.0,-18.89176368713379,-11.308038711547852,-8.0,0.0,673.11767578125,130.16470336914062,21.426000595092773,4.143271446228027,0.8286542296409607,22.254653930664062,66.42060089111328,2.5688283443450928,0.03828494995832443,188.9176483154297,312.188232421875,484.7294006347656,375.3647155761719,150.4588165283203,76.32941436767578,226.16079711914062,1.0,0.0008133391966111958,0.03709109127521515,0.8078822493553162,0.31486275792121887,0.5203137397766113,0.37693464756011963,1.0
env_steps,51504,85,85,79,51502,0.794048,0.3940345346927643,0.6087695360183716,0.5780175924301147,0.7010716199874878,4.11323881149292,2719,18.789623260498047,0.48800355195999146,0.0,600.0,0.5594792366027832,2.34580397605896,442.2027587890625,8.295372009277344,236.3050537109375,0.02546427585184574,0.5925310254096985,2.34580397605896,2.34580397605896,0.0,0.0,8.295372009277344,8.050372123718262,0.24500000476837158,0.12699998915195465,0.12699998915195465,5.894705772399902,4.281586170196533,68.98943328857422,-12.0,-18.89176368713379,-11.308038711547852,-8.0,0.0,673.11767578125,130.16470336914062,21.426000595092773,4.143271446228027,0.8286542296409607,22.254653930664062,66.42060089111328,2.5688283443450928,0.03828494995832443,188.9176483154297,312.188232421875,484.7294006347656,375.3647155761719,150.4588165283203,76.32941436767578,226.16079711914062,1.0,0.0008133391966111958,0.03709109127521515,0.8078822493553162,0.31486275792121887,0.5203137397766113,0.37693464756011963,1.0
env_steps,52000,86,86,80,51998,0.792064,0.4261053800582886,0.4782852232456207,0.5807793736457825,0.7020527720451355,3.0638678073883057,2750,19.378143310546875,0.49115583300590515,0.0,600.0,0.5576944947242737,2.3538758754730225,442.7724304199219,8.295445442199707,235.5349578857422,0.025472236797213554,0.5947448015213013,2.3538758754730225,2.3538758754730225,0.0,0.0,8.295445442199707,8.053293228149414,0.2421511709690094,0.12552323937416077,0.12552323937416077,5.8931779861450195,4.266635417938232,69.54597473144531,-12.0,-18.862791061401367,-11.305038452148438,-8.0,0.0,678.4534912109375,131.68605041503906,21.59584617614746,4.191697120666504,0.8383393287658691,22.434185028076172,66.9471206665039,2.5988523960113525,0.03835234045982361,188.62791442871094,310.9651184082031,483.9651184082031,375.3023376464844,150.55813598632812,76.22093200683594,226.1007843017578,1.0,0.0008185930200852454,0.03739030659198761,0.8066084384918213,0.31437984108924866,0.5182752013206482,0.37683460116386414,1.0
env_steps,52512,87,87,81,52510,0.790016,0.40657782554626465,0.6195722818374634,0.8043810129165649,0.7098300457000732,4.185685634613037,2782,19.49146270751953,0.49206095933914185,0.0,600.0,0.556352436542511,2.3668391704559326,442.8753967285156,8.314598083496094,234.3782958984375,0.025466982275247574,0.5933825373649597,2.3668391704559326,2.3668391704559326,0.0,0.0,8.314598083496094,8.074174880981445,0.24042147397994995,0.12498082965612411,0.12498082965612411,5.8836588859558105,4.253225326538086,69.64012908935547,-12.0,-18.85172462463379,-11.296934127807617,-8.0,0.0,679.298828125,132.22988891601562,21.62275505065918,4.20900821685791,0.8418015241622925,22.464553833007812,67.0305404663086,2.6095850467681885,0.03843384236097336,188.51724243164062,310.287353515625,483.6436767578125,375.03448486328125,150.43678283691406,76.17241668701172,225.93870544433594,1.0,0.0008201015298254788,0.03744092583656311,0.8060727119445801,0.3141954243183136,0.517145574092865,0.37656447291374207,1.0
env_steps,53008,88,88,82,53006,0.7880320000000001,0.25882488489151,0.6357822418212891,0.6958011984825134,0.5249817371368408,3.806138753890991,2813,19.671205520629883,0.4930625259876251,0.0,600.0,0.5557404160499573,2.3617613315582275,445.3001708984375,8.30117416381836,235.8823699951172,0.025398975238204002,0.5922351479530334,2.3617613315582275,2.3617613315582275,0.0,0.0,8.30117416381836,8.063485145568848,0.23768940567970276,0.1235605999827385,0.1235605999827385,5.871382236480713,4.253194808959961,69.82386016845703,-12.0,-18.857954025268555,-11.294696807861328,-8.0,0.0,681.022705078125,132.9204559326172,21.677627563476562,4.230989456176758,0.8461979031562805,22.523826599121094,67.20063781738281,2.623213768005371,0.03850150853395462,188.5795440673828,310.06817626953125,483.43182373046875,375.0795593261719,150.35227966308594,76.125,225.89395141601562,1.0,0.0008217707509174943,0.037539705634117126,0.8057197332382202,0.31429922580718994,0.5167803168296814,0.37648990750312805,1.0
env_steps,53504,89,89,83,53502,0.7860480000000001,0.42264676094055176,0.6742193102836609,0.971428394317627,0.7363574504852295,4.223775863647461,2844,20.12864112854004,0.4954887926578522,0.0,600.0,0.553833544254303,2.367434501647949,444.4566345214844,8.302303314208984,235.5113525390625,0.025471650063991547,0.5923348069190979,2.367434501647949,2.367434501647949,0.0,0.0,8.302303314208984,8.067228317260742,0.23507490754127502,0.1222284585237503,0.1222284585237503,5.8694376945495605,4.253834247589111,70.21479034423828,-12.0,-18.805618286132812,-11.280524253845215,-8.0,0.0,684.8427124023438,133.62921142578125,21.79922103881836,4.253550052642822,0.8507099747657776,22.649930953979492,67.57757568359375,2.6372013092041016,0.038484349846839905,188.05618286132812,308.7752685546875,482.7752685546875,374.8202209472656,150.05618286132812,75.97753143310547,225.61048889160156,1.0,0.0008258145535364747,0.03774988278746605,0.8046255111694336,0.3134269416332245,0.5146254897117615,0.3760174810886383,1.0
env_steps,54000,90,90,84,54000,0.784064,0.2255280315876007,0.46569961309432983,0.5079251527786255,0.5141964554786682,3.5751571655273438,2875,20.438024520874023,0.4967867136001587,0.0,600.0,0.5531706213951111,2.377666711807251,445.60797119140625,8.324185371398926,234.84523010253906,0.025583945214748383,0.5925320386886597,2.377666711807251,2.377666711807251,0.0,0.0,8.324185371398926,8.09172248840332,0.23246297240257263,0.12087036669254303,0.12087036669254303,5.869129180908203,4.242581367492676,70.5141372680664,-12.0,-18.793333053588867,-11.282777786254883,-8.0,0.0,687.7777709960938,134.12222290039062,21.89264678955078,4.269243240356445,0.8538485765457153,22.746496200561523,67.86719512939453,2.646930694580078,0.03845848888158798,187.93333435058594,308.4111022949219,482.54443359375,374.8222351074219,149.9888916015625,76.07777404785156,225.65554809570312,1.0,0.0008279777248390019,0.0379108227789402,0.8042407631874084,0.313222199678421,0.5140184760093689,0.3760926127433777,1.0
