dk0113-Y/DRL-path-finding/experiment_records/final_method/A_new_minimum_closure/Anew_F3_no_behavior_memory/logs/train_steps.csv
budget_mode,env_steps,episode_idx,train_episode_idx,completed_train_episodes,replay_size,epsilon,loss,q_mean,target_q_mean,td_abs_mean,grad_norm,learner_steps,recent_mean_reward,recent_mean_coverage,recent_success_rate,recent_mean_episode_length,recent_mean_repeat_visit_ratio,recent_accessible_block_count,recent_total_accessible_unknown_area,recent_total_frontier_cluster_count,recent_mean_block_area,recent_local_frontier_coverage,recent_local_frontier_block_area_mean,recent_value_total_block_count_before_cap,recent_value_packed_block_count,recent_value_truncated_block_count,recent_value_block_cap_hit_flag,recent_value_total_entry_count_before_cap,recent_value_packed_entry_count,recent_value_truncated_entry_count,recent_value_entry_cap_hit_block_count,recent_value_entry_cap_hit_flag,recent_value_max_frontier_clusters_per_block,recent_value_mean_frontier_clusters_per_block,recent_info_reward_sum,recent_step_penalty_sum,recent_recent_revisit_penalty_sum,recent_turn_penalty_sum,recent_timeout_penalty_sum,recent_terminal_bonus_sum,recent_delta_empty_sum,recent_delta_obstacle_sum,recent_empty_info_gain_sum,recent_obstacle_info_gain_sum,recent_weighted_obstacle_info_gain_sum,recent_weighted_info_gain_sum,recent_empty_info_reward_sum,recent_obstacle_info_reward_sum,recent_obstacle_info_contribution_ratio,recent_recent_revisit_trigger_count,recent_stall_trigger_count,recent_zero_info_step_count,recent_turn_ge_90_count,recent_turn_135_count,recent_turn_180_count,recent_turn_penalty_weight_sum,recent_timeout_flag,recent_coverage_gain_per_step,recent_weighted_info_gain_per_step,recent_zero_info_rate,recent_recent_revisit_rate,recent_stall_rate,recent_turn_burden_rate,recent_timeout_rate
env_steps,4512,7,7,1,4510,0.9854629333333333,nan,nan,nan,nan,nan,0,4.2396159172058105,0.4578857123851776,0.0,600.0,0.6256240010261536,2.251666784286499,422.25567626953125,8.57880973815918,240.77197265625,0.0,0.0,2.251666784286499,2.251666784286499,0.0,0.0,8.57880973815918,8.25190544128418,0.3269047737121582,0.18333332240581512,0.18333332240581512,6.148333549499512,4.747210502624512,64.76532745361328,-12.0,-24.531429290771484,-13.994285583496094,-10.0,0.0,634.7142944335938,108.14286041259766,20.203582763671875,3.442293882369995,0.6884588003158569,20.892044067382812,62.631103515625,2.1342222690582275,0.033234018832445145,204.42857360839844,307.71429443359375,491.71429443359375,384.5714416503906,155.7142791748047,79.71428680419922,233.2381134033203,1.0,0.0007631428306922317,0.0348200686275959,0.819523811340332,0.3407142758369446,0.5128571391105652,0.38873013854026794,1.0
env_steps,5008,8,8,2,5006,0.9838592,nan,nan,nan,nan,nan,0,-3.202629327774048,0.4223874807357788,0.0,600.0,0.6539101600646973,2.222083330154419,402.146240234375,8.3125,226.93406677246094,0.0,0.0,2.222083330154419,2.222083330154419,0.0,0.0,8.3125,8.026458740234375,0.2860416769981384,0.16041666269302368,0.16041666269302368,5.892292022705078,4.554416656494141,58.144874572753906,-12.0,-25.155000686645508,-14.192499160766602,-10.0,0.0,568.875,101.875,18.107852935791016,3.2427821159362793,0.6485563516616821,18.756412506103516,56.13434600830078,2.0105247497558594,0.04120351001620293,209.625,331.75,500.875,389.125,158.25,81.125,236.54165649414062,1.0,0.0007039791671559215,0.03126068413257599,0.8347916603088379,0.34937500953674316,0.5529166460037231,0.39423608779907227,1.0
env_steps,5504,9,9,3,5502,0.9822554666666666,nan,nan,nan,nan,nan,0,-2.8716588020324707,0.4235110878944397,0.0,600.0,0.6518765091896057,2.1762962341308594,409.1683349609375,7.889444351196289,232.28143310546875,0.0,0.0,2.1762962341308594,2.1762962341308594,0.0,0.0,7.889444351196289,7.635185241699219,0.25425925850868225,0.14259259402751923,0.14259259402751923,5.563889503479004,4.34168815612793,58.3416748046875,-12.0,-25.079999923706055,-14.133333206176758,-10.0,0.0,571.7777709960938,97.33333587646484,18.20025062561035,3.0982162952423096,0.6196432113647461,18.819896697998047,56.420780181884766,1.9208940267562866,0.03885781019926071,209.0,334.0,503.0,388.5555419921875,159.0,79.55555725097656,235.55555725097656,1.0,0.0007058518822304904,0.0313664935529232,0.8383333683013916,0.34833332896232605,0.5566666126251221,0.39259254932403564,1.0
env_steps,6000,10,10,4,6000,0.9806517333333333,nan,nan,nan,nan,nan,0,-3.4773764610290527,0.41766995191574097,0.0,600.0,0.6537437438964844,2.0805001258850098,418.0316467285156,7.9564995765686035,253.35751342773438,0.0,0.0,2.0805001258850098,2.0805001258850098,0.0,0.0,7.9564995765686035,7.676000118255615,0.28049999475479126,0.1758333295583725,0.1758333295583725,5.841333866119385,4.664824962615967,57.790626525878906,-12.0,-25.079999923706055,-14.188000679016113,-10.0,0.0,566.2999877929688,96.80000305175781,18.025888442993164,3.081239938735962,0.6162478923797607,18.642139434814453,55.88025665283203,1.91036856174469,0.038408711552619934,209.0,333.29998779296875,503.3999938964844,388.8999938964844,159.6999969482422,80.4000015258789,236.4666748046875,1.0,0.0006961167091503739,0.031070228666067123,0.8390000462532043,0.34833332896232605,0.5554999709129333,0.39411109685897827,1.0
env_steps,6512,10,10,4,6510,0.9789962666666666,nan,nan,nan,nan,nan,0,-3.4773764610290527,0.41766995191574097,0.0,600.0,0.6537437438964844,2.0805001258850098,418.0316467285156,7.9564995765686035,253.35751342773438,0.0,0.0,2.0805001258850098,2.0805001258850098,0.0,0.0,7.9564995765686035,7.676000118255615,0.28049999475479126,0.1758333295583725,0.1758333295583725,5.841333866119385,4.664824962615967,57.790626525878906,-12.0,-25.079999923706055,-14.188000679016113,-10.0,0.0,566.2999877929688,96.80000305175781,18.025888442993164,3.081239938735962,0.6162478923797607,18.642139434814453,55.88025665283203,1.91036856174469,0.038408711552619934,209.0,333.29998779296875,503.3999938964844,388.8999938964844,159.6999969482422,80.4000015258789,236.4666748046875,1.0,0.0006961167091503739,0.031070228666067123,0.8390000462532043,0.34833332896232605,0.5554999709129333,0.39411109685897827,1.0
env_steps,7008,11,11,5,7006,0.9773925333333333,nan,nan,nan,nan,nan,0,-4.134131908416748,0.4165908694267273,0.0,600.0,0.6523975133895874,2.131969690322876,422.3011779785156,8.053030014038086,247.0124053955078,0.0,0.0,2.131969690322876,2.131969690322876,0.0,0.0,8.053030014038086,7.798030376434326,0.2549999952316284,0.15984848141670227,0.15984848141670227,5.74984884262085,4.568729877471924,57.291324615478516,-12.0,-25.221818923950195,-14.20363712310791,-10.0,0.0,561.5454711914062,95.2727279663086,17.87454605102539,3.032625436782837,0.6065250039100647,18.4810733795166,55.411094665527344,1.8802275657653809,0.037661436945199966,210.18182373046875,335.7272644042969,503.2727355957031,388.9090881347656,159.81817626953125,80.7272720336914,236.72727966308594,1.0,0.0006943182088434696,0.030801789835095406,0.8387879729270935,0.350303053855896,0.5595454573631287,0.39454543590545654,1.0
env_steps,7504,12,12,6,7502,0.9757888,nan,nan,nan,nan,nan,0,-3.3840274810791016,0.4218332767486572,0.0,600.0,0.6435108184814453,2.1965277194976807,419.5470275878906,8.086943626403809,240.1555633544922,0.0,0.0,2.1965277194976807,2.1965277194976807,0.0,0.0,8.086943626403809,7.853194713592529,0.23375000059604645,0.14652778208255768,0.14652778208255768,5.802083492279053,4.467319488525391,57.81431198120117,-12.0,-25.030000686645508,-14.168334007263184,-10.0,0.0,566.25,98.25,18.0242977142334,3.127394914627075,0.6254789233207703,18.649778366088867,55.87532043457031,1.9389845132827759,0.03791220113635063,208.5833282470703,336.5833435058594,503.5,388.0,159.4166717529297,80.5,236.13890075683594,1.0,0.0007030555862002075,0.031082963570952415,0.8391667008399963,0.347638875246048,0.5609722137451172,0.39356479048728943,1.0
env_steps,8000,13,13,7,7998,0.9741850666666667,nan,nan,nan,nan,nan,0,-3.5895299911499023,0.4193307161331177,0.0,600.0,0.6462306380271912,2.1405129432678223,410.2633972167969,7.988973617553711,238.93190002441406,0.0,0.0,2.1405129432678223,2.1405129432678223,0.0,0.0,7.988973617553711,7.773205280303955,0.2157692313194275,0.13525640964508057,0.13525640964508057,5.843717575073242,4.51085901260376,57.81355285644531,-12.0,-25.209232330322266,-14.193846702575684,-10.0,0.0,566.3846435546875,97.53845977783203,18.028581619262695,3.104746103286743,0.6209490895271301,18.649532318115234,55.888607025146484,1.924942135810852,0.03733324632048607,210.07691955566406,339.23077392578125,504.30767822265625,388.1538391113281,158.92308044433594,81.30769348144531,236.56411743164062,1.0,0.000698884658049792,0.031082553789019585,0.8405128717422485,0.3501282036304474,0.5653846263885498,0.39427345991134644,1.0
env_steps,8512,14,14,8,8510,0.9725296,0.26561540365219116,-0.15809446573257446,0.05747894570231438,0.5093268156051636,0.7258630990982056,32,-3.5954859256744385,0.41778564453125,0.0,600.0,0.6515331268310547,2.0805952548980713,425.40435791015625,8.193689346313477,258.2848205566406,0.0,0.0,2.0805952548980713,2.0805952548980713,0.0,0.0,8.193689346313477,7.787499904632568,0.4061904549598694,0.17476190626621246,0.17476190626621246,6.180119037628174,4.813178539276123,57.79880142211914,-12.0,-25.217145919799805,-14.177144050598145,-10.0,0.0,566.1428833007812,98.0,18.02088737487793,3.1194369792938232,0.6238873600959778,18.644775390625,55.864749908447266,1.9340506792068481,0.03721148520708084,210.14285278320312,340.21429443359375,505.0,388.28570556640625,159.2857208251953,80.64286041259766,236.28573608398438,1.0,0.0006963095511309803,0.031074626371264458,0.8416666984558105,0.3502380847930908,0.5670238137245178,0.3938094973564148,1.0
env_steps,9008,15,15,9,9006,0.9709258666666667,0.2297196239233017,-0.16479884088039398,-0.06457613408565521,0.4816868305206299,0.5810360908508301,63,-3.9979233741760254,0.4149666130542755,0.0,600.0,0.6569051146507263,2.012111186981201,429.12884521484375,8.328665733337402,272.9008483886719,0.0,0.0,2.012111186981201,2.012111186981201,0.0,0.0,8.328665733337402,7.793666362762451,0.5349999666213989,0.21766667068004608,0.21766667068004608,6.44344425201416,5.164161205291748,57.08607864379883,-12.0,-24.9840030670166,-14.100001335144043,-10.0,0.0,559.2666625976562,96.26667022705078,17.802011489868164,3.064263343811035,0.6128526329994202,18.41486358642578,55.18623352050781,1.8998429775238037,0.03674161434173584,208.1999969482422,340.3999938964844,505.3333435058594,387.26666259765625,158.8000030517578,79.46666717529297,235.00001525878906,1.0,0.000691611145157367,0.030691441148519516,0.842222273349762,0.34700000286102295,0.5673332810401917,0.39166662096977234,1.0
env_steps,9504,15,15,9,9502,0.9693221333333333,0.26720842719078064,-0.14432090520858765,0.10817617177963257,0.5032261610031128,0.8502877950668335,94,-3.9979233741760254,0.4149666130542755,0.0,600.0,0.6569051146507263,2.012111186981201,429.12884521484375,8.328665733337402,272.9008483886719,0.0,0.0,2.012111186981201,2.012111186981201,0.0,0.0,8.328665733337402,7.793666362762451,0.5349999666213989,0.21766667068004608,0.21766667068004608,6.44344425201416,5.164161205291748,57.08607864379883,-12.0,-24.9840030670166,-14.100001335144043,-10.0,0.0,559.2666625976562,96.26667022705078,17.802011489868164,3.064263343811035,0.6128526329994202,18.41486358642578,55.18623352050781,1.8998429775238037,0.03674161434173584,208.1999969482422,340.3999938964844,505.3333435058594,387.26666259765625,158.8000030517578,79.46666717529297,235.00001525878906,1.0,0.000691611145157367,0.030691441148519516,0.842222273349762,0.34700000286102295,0.5673332810401917,0.39166662096977234,1.0
env_steps,10000,16,16,10,9998,0.9677184,0.18383684754371643,-0.06328409910202026,-0.07684988528490067,0.43549180030822754,0.7959350347518921,125,-1.967317819595337,0.4233749806880951,0.0,600.0,0.6537021398544312,1.96708345413208,425.7132263183594,8.122812271118164,275.89666748046875,0.0,0.0,1.96708345413208,1.96708345413208,0.0,0.0,8.122812271118164,7.621250152587891,0.5015625357627869,0.20406249165534973,0.20406249165534973,6.336562633514404,5.110029697418213,58.960182189941406,-12.0,-24.885000228881836,-14.042499542236328,-10.0,0.0,577.9375,97.875,18.396320343017578,3.1154580116271973,0.6230915784835815,19.0194149017334,57.02859878540039,1.9315840005874634,0.0361735075712204,207.375,335.5,503.4375,385.625,157.625,79.4375,234.04165649414062,1.0,0.0007056249887682498,0.03169902414083481,0.839062511920929,0.34562498331069946,0.559166669845581,0.39006945490837097,1.0
env_steps,10512,17,17,11,10510,0.9660629333333334,0.20958258211612701,-0.19213110208511353,-0.0601930096745491,0.4533277153968811,0.6044318079948425,157,-1.4557701349258423,0.42666468024253845,0.0,600.0,0.6506801843643188,2.005882501602173,436.0517578125,8.179411888122559,274.74078369140625,0.0,0.0,2.005882501602173,2.005882501602173,0.0,0.0,8.179411888122559,7.707353591918945,0.47205886244773865,0.19205881655216217,0.19205881655216217,6.3119611740112305,5.056224346160889,59.398345947265625,-12.0,-24.868236541748047,-13.985881805419922,-10.0,0.0,581.941162109375,100.05882263183594,18.523759841918945,3.184971332550049,0.6369942426681519,19.160757064819336,57.423667907714844,1.974682331085205,0.03640558943152428,207.23529052734375,334.058837890625,502.29412841796875,384.4117736816406,157.58824157714844,78.64705657958984,233.0980224609375,1.0,0.0007111078593879938,0.031934596598148346,0.8371568322181702,0.3453921377658844,0.5567647218704224,0.3884967267513275,1.0
env_steps,11008,18,18,12,11006,0.9644592,0.13910235464572906,-0.2502528131008148,-0.20786386728286743,0.3516857624053955,0.5909760594367981,188,-2.091919183731079,0.4237610995769501,0.0,600.0,0.6501201391220093,1.954537034034729,435.4252624511719,8.31944465637207,282.0992126464844,0.0,0.0,1.954537034034729,1.954537034034729,0.0,0.0,8.31944465637207,7.7238898277282715,0.5955555438995361,0.22990740835666656,0.22990740835666656,6.5504631996154785,5.344597816467285,59.02363586425781,-12.0,-25.100000381469727,-14.015555381774902,-10.0,0.0,578.111083984375,100.22222137451172,18.401845932006836,3.1901724338531494,0.6380345225334167,19.03988265991211,57.04573059082031,1.9779069423675537,0.03652781620621681,209.1666717529297,333.6666564941406,502.5,385.0555419921875,157.61111450195312,79.05555725097656,233.59259033203125,1.0,0.000706268532667309,0.03173314034938812,0.8374999761581421,0.34861108660697937,0.5561110973358154,0.389320969581604,1.0
env_steps,11504,19,19,13,11502,0.9628554666666667,0.25527727603912354,-0.122520312666893,0.0022777076810598373,0.5329456925392151,0.7558356523513794,219,-0.5563690066337585,0.4300210475921631,0.0,600.0,0.642262876033783,1.991754412651062,444.91595458984375,8.476666450500488,282.46221923828125,0.0,0.0,1.991754412651062,1.991754412651062,0.0,0.0,8.476666450500488,7.886404037475586,0.5902631878852844,0.23263157904148102,0.23263157904148102,6.643158435821533,5.335841178894043,60.375205993652344,-12.0,-24.96631622314453,-13.965263366699219,-10.0,0.0,591.368408203125,102.42105102539062,18.823837280273438,3.2601633071899414,0.6520326733589172,19.475875854492188,58.35390853881836,2.02130126953125,0.03634660318493843,208.05262756347656,330.6842041015625,499.8947448730469,384.368408203125,157.05262756347656,78.42105102539062,232.75436401367188,1.0,0.0007167017320170999,0.032459791749715805,0.8331578969955444,0.34675437211990356,0.5511403679847717,0.3879239559173584,1.0
env_steps,12000,20,20,14,12000,0.9612517333333334,0.21576017141342163,-0.1404343694448471,-0.11187957227230072,0.47223973274230957,0.8698914051055908,250,-0.5007451772689819,0.4316349923610687,0.0,600.0,0.6412645578384399,1.9769999980926514,442.6539001464844,8.490583419799805,281.6098937988281,0.0,0.0,1.9769999980926514,1.9769999980926514,0.0,0.0,8.490583419799805,7.908833980560303,0.5817500352859497,0.2370833456516266,0.2370833456516266,6.6753339767456055,5.359160423278809,60.35225296020508,-12.0,-24.906002044677734,-13.947000503540039,-10.0,0.0,591.25,101.8499984741211,18.820068359375,3.241986036300659,0.6483972668647766,19.46847152709961,58.34222412109375,2.0100314617156982,0.03602795675396919,207.5500030517578,330.5,499.75,383.95001220703125,157.10000610351562,78.1500015258789,232.44998168945312,1.0,0.000719391624443233,0.032447449862957,0.8329166173934937,0.34591665863990784,0.5508333444595337,0.38741666078567505,1.0
env_steps,12512,20,20,14,12510,0.9595962666666666,0.3714325726032257,-0.034619469195604324,-0.16114474833011627,0.6423787474632263,1.0088210105895996,282,-0.5007451772689819,0.4316349923610687,0.0,600.0,0.6412645578384399,1.9769999980926514,442.6539001464844,8.490583419799805,281.6098937988281,0.0,0.0,1.9769999980926514,1.9769999980926514,0.0,0.0,8.490583419799805,7.908833980560303,0.5817500352859497,0.2370833456516266,0.2370833456516266,6.6753339767456055,5.359160423278809,60.35225296020508,-12.0,-24.906002044677734,-13.947000503540039,-10.0,0.0,591.25,101.8499984741211,18.820068359375,3.241986036300659,0.6483972668647766,19.46847152709961,58.34222412109375,2.0100314617156982,0.03602795675396919,207.5500030517578,330.5,499.75,383.95001220703125,157.10000610351562,78.1500015258789,232.44998168945312,1.0,0.000719391624443233,0.032447449862957,0.8329166173934937,0.34591665863990784,0.5508333444595337,0.38741666078567505,1.0
env_steps,13008,21,21,15,13006,0.9579925333333333,0.26071810722351074,-0.10733553767204285,-0.014574119821190834,0.5185502767562866,0.943404495716095,313,0.08463328331708908,0.4324857294559479,0.0,600.0,0.6386973857879639,1.983254075050354,444.4552307128906,8.504841804504395,279.2798156738281,0.0,0.0,1.983254075050354,1.983254075050354,0.0,0.0,8.504841804504395,7.924127578735352,0.5807143449783325,0.24539683759212494,0.24539683759212494,6.719921112060547,5.3053507804870605,60.91320037841797,-12.0,-24.88571548461914,-13.942856788635254,-10.0,0.0,597.047607421875,101.28571319580078,19.00461196899414,3.224024534225464,0.6448048949241638,19.649423599243164,58.91431427001953,1.9988951683044434,0.03548490256071091,207.38095092773438,325.047607421875,498.3809509277344,384.0952453613281,156.95237731933594,78.04762268066406,232.3809356689453,1.0,0.0007208095048554242,0.03274903818964958,0.8306348919868469,0.34563490748405457,0.5417460203170776,0.38730159401893616,1.0
env_steps,13504,22,22,16,13502,0.9563888,0.1731998771429062,-0.1748374104499817,-0.016715429723262787,0.4389612674713135,0.9419713616371155,344,1.5890949964523315,0.4426136314868927,0.0,600.0,0.6341702938079834,1.9918181896209717,449.5633850097656,8.565227508544922,283.3309020996094,0.0,0.0,1.9918181896209717,1.9918181896209717,0.0,0.0,8.565227508544922,7.971591472625732,0.5936363935470581,0.25863638520240784,0.25863638520240784,6.80181884765625,5.339856147766113,62.40363693237305,-12.0,-24.861818313598633,-13.952727317810059,-10.0,0.0,611.4091186523438,105.0,19.461753845214844,3.3422539234161377,0.6684507727622986,20.13020896911621,60.331443786621094,2.072197437286377,0.035623885691165924,207.18182373046875,322.2727355957031,496.3636474609375,383.9090881347656,156.0,78.86363983154297,232.54542541503906,1.0,0.0007376894354820251,0.03355034813284874,0.8272726535797119,0.3453030288219452,0.5371212363243103,0.38757574558258057,1.0
env_steps,14000,23,23,17,13998,0.9547850666666666,0.26238924264907837,-0.07705079019069672,-0.13878928124904633,0.5201364755630493,1.104122281074524,375,1.4491573572158813,0.4429217576980591,0.0,600.0,0.6310496926307678,2.0007245540618896,444.6470031738281,8.487174034118652,278.4896240234375,0.0,0.0,2.0007245540618896,2.0007245540618896,0.0,0.0,8.487174034118652,7.91934871673584,0.5678260922431946,0.24739132821559906,0.24739132821559906,6.74731969833374,5.266945838928223,62.183937072753906,-12.0,-24.80348014831543,-13.931303977966309,-10.0,0.0,609.2608642578125,104.60869598388672,19.393373489379883,3.329798460006714,0.6659596562385559,20.059337615966797,60.11946487426758,2.0644750595092773,0.035511329770088196,206.69564819335938,320.478271484375,496.13043212890625,383.9565124511719,156.0,78.3043441772461,232.18838500976562,1.0,0.0007382029434666038,0.03343222662806511,0.8268839716911316,0.34449273347854614,0.5341304540634155,0.38698068261146545,1.0
env_steps,14512,24,24,18,14510,0.9531296,0.12125161290168762,-0.176972895860672,-0.15971721708774567,0.3488638997077942,0.9226629734039307,407,1.4332383871078491,0.44261249899864197,0.0,600.0,0.6279118061065674,1.9667361974716187,446.62353515625,8.465764045715332,285.7859802246094,0.0,0.0,1.9667361974716187,1.9667361974716187,0.0,0.0,8.465764045715332,7.9164581298828125,0.5493055582046509,0.24222223460674286,0.24222223460674286,6.78652811050415,5.348855495452881,62.11740493774414,-12.0,-24.75,-13.934165954589844,-10.0,0.0,608.5,105.04166412353516,19.369157791137695,3.3435800075531006,0.6687160134315491,20.037872314453125,60.04438400268555,2.0730197429656982,0.035592492669820786,206.25,317.9166564941406,495.3333435058594,383.75,155.7916717529297,78.58333587646484,232.2361297607422,1.0,0.000737687514629215,0.03339645639061928,0.8255555033683777,0.34375,0.5298610925674438,0.3870601952075958,1.0
env_steps,15008,25,25,19,15006,0.9515258666666666,0.15672847628593445,-0.18777675926685333,-0.11301158368587494,0.3815496861934662,0.712690532207489,438,1.7430822849273682,0.4440319836139679,0.0,600.0,0.6240931749343872,2.0193333625793457,444.9516296386719,8.429067611694336,279.72210693359375,0.0,0.0,2.0193333625793457,2.0193333625793457,0.0,0.0,8.429067611694336,7.9017333984375,0.5273333191871643,0.23253333568572998,0.23253333568572998,6.691333770751953,5.231637001037598,62.37748718261719,-12.0,-24.7007999420166,-13.933599472045898,-10.0,0.0,610.8800048828125,106.31999969482422,19.444913864135742,3.384270668029785,0.6768541932106018,20.121767044067383,60.279232025146484,2.098247766494751,0.035744864493608475,205.83999633789062,315.79998779296875,494.6400146484375,383.6400146484375,155.1999969482422,78.91999816894531,232.2266845703125,1.0,0.0007400533650070429,0.03353628143668175,0.8243999481201172,0.34306666254997253,0.5263333320617676,0.3870444595813751,1.0
env_steps,15504,25,25,19,15502,0.9499221333333333,0.2897369861602783,-0.05815169960260391,0.04311433807015419,0.5283633470535278,0.9807663559913635,469,1.7430822849273682,0.4440319836139679,0.0,600.0,0.6240931749343872,2.0193333625793457,444.9516296386719,8.429067611694336,279.72210693359375,0.0,0.0,2.0193333625793457,2.0193333625793457,0.0,0.0,8.429067611694336,7.9017333984375,0.5273333191871643,0.23253333568572998,0.23253333568572998,6.691333770751953,5.231637001037598,62.37748718261719,-12.0,-24.7007999420166,-13.933599472045898,-10.0,0.0,610.8800048828125,106.31999969482422,19.444913864135742,3.384270668029785,0.6768541932106018,20.121767044067383,60.279232025146484,2.098247766494751,0.035744864493608475,205.83999633789062,315.79998779296875,494.6400146484375,383.6400146484375,155.1999969482422,78.91999816894531,232.2266845703125,1.0,0.0007400533650070429,0.03353628143668175,0.8243999481201172,0.34306666254997253,0.5263333320617676,0.3870444595813751,1.0
env_steps,16000,26,26,20,15998,0.9483184,0.09657679498195648,-0.1495228409767151,-0.13456887006759644,0.3228900730609894,0.920540452003479,500,0.457275390625,0.439219206571579,0.0,600.0,0.6282477974891663,2.053076982498169,444.0268249511719,8.327885627746582,274.5477294921875,0.0,0.0,2.053076982498169,2.053076982498169,0.0,0.0,8.327885627746582,7.820833683013916,0.5070512890815735,0.22358974814414978,0.22358974814414978,6.544871807098389,5.107140064239502,61.20497131347656,-12.0,-24.784616470336914,-13.963077545166016,-10.0,0.0,599.2692260742188,104.96154022216797,19.075332641601562,3.341029644012451,0.6682059168815613,19.74353790283203,59.13352584838867,2.0714383125305176,0.036059893667697906,206.53846740722656,318.8846130371094,496.1153869628906,384.30767822265625,154.84616088867188,79.5,232.71795654296875,1.0,0.0007320320582948625,0.03290589898824692,0.8268589377403259,0.3442307710647583,0.5314743518829346,0.38786327838897705,1.0
env_steps,16512,27,27,21,16510,0.9466629333333333,0.22954127192497253,-0.045839279890060425,-0.16705259680747986,0.4753605127334595,1.1517910957336426,532,0.40671461820602417,0.4391111135482788,0.0,600.0,0.6257472038269043,2.057037115097046,444.6665344238281,8.286173820495605,272.8468322753906,0.0,0.0,2.057037115097046,2.057037115097046,0.0,0.0,8.286173820495605,7.797901153564453,0.4882715940475464,0.21530865132808685,0.21530865132808685,6.522037029266357,5.055816173553467,61.16819763183594,-12.0,-24.804445266723633,-13.957036972045898,-10.0,0.0,599.0,104.44444274902344,19.066762924194336,3.3245699405670166,0.6649140119552612,19.73167610168457,59.10696029663086,2.0612332820892334,0.03582902252674103,206.70370483398438,319.0740661621094,496.2962951660156,384.03704833984375,155.07408142089844,79.37036895751953,232.61729431152344,1.0,0.0007318519055843353,0.03288612887263298,0.8271604180335999,0.3445061445236206,0.5317900776863098,0.3876954913139343,1.0
env_steps,17008,28,28,22,17006,0.9450592,0.3463555574417114,-0.21648091077804565,-0.2950576841831207,0.5867694616317749,1.111371636390686,563,1.6300557851791382,0.4445071518421173,0.0,600.0,0.6255645155906677,2.0495238304138184,445.9512634277344,8.292024612426758,273.6822204589844,0.0,0.0,2.0495238304138184,2.0495238304138184,0.0,0.0,8.292024612426758,7.82065486907959,0.47136905789375305,0.20815476775169373,0.20815476775169373,6.547023773193359,5.073787689208984,62.28363037109375,-12.0,-24.728572845458984,-13.925000190734863,-10.0,0.0,610.2857055664062,104.53571319580078,19.42599868774414,3.327475070953369,0.6654950380325317,20.09149169921875,60.22058868408203,2.0630345344543457,0.03536560758948326,206.07142639160156,316.1785583496094,495.0714416503906,383.1785583496094,154.7857208251953,79.14286041259766,232.08334350585938,1.0,0.0007408452802337706,0.03348582237958908,0.8251190185546875,0.3434523642063141,0.5269642472267151,0.38680556416511536,1.0
env_steps,17504,29,29,23,17502,0.9434554666666667,0.2999240458011627,-0.16166982054710388,-0.24823451042175293,0.5422976016998291,1.1303893327713013,594,0.9851192235946655,0.4424000084400177,0.0,600.0,0.6275172829627991,2.039022922515869,451.1413269042969,8.235057830810547,278.97064208984375,0.0,0.0,2.039022922515869,2.039022922515869,0.0,0.0,8.235057830810547,7.779942512512207,0.4551149606704712,0.20097701251506805,0.20097701251506805,6.5234479904174805,5.055965423583984,61.76305389404297,-12.0,-24.827587127685547,-13.950345039367676,-10.0,0.0,604.8275756835938,105.44827270507812,19.252262115478516,3.356523036956787,0.6713045835494995,19.92356300354004,59.682003021240234,2.0810441970825195,0.03603537380695343,206.89654541015625,317.5172424316406,495.75860595703125,383.75860595703125,155.13792419433594,79.31034851074219,232.50575256347656,1.0,0.0007373333210125566,0.03320594131946564,0.8262643218040466,0.3448275625705719,0.5291953682899475,0.3875095844268799,1.0
env_steps,18000,30,30,24,18000,0.9418517333333334,0.17573444545269012,-0.1890508532524109,-0.11102855205535889,0.4195175766944885,1.187346339225769,625,1.9322901964187622,0.44812002778053284,0.0,600.0,0.6243482828140259,2.098388910293579,449.8675231933594,8.280667304992676,273.41448974609375,0.0,0.0,2.098388910293579,2.098388910293579,0.0,0.0,8.280667304992676,7.84072208404541,0.43994444608688354,0.1942777782678604,0.1942777782678604,6.436444282531738,4.973275184631348,62.684959411621094,-12.0,-24.803998947143555,-13.9486665725708,-10.0,0.0,613.7000122070312,107.80000305175781,19.534679412841797,3.4313807487487793,0.6862761378288269,20.220951080322266,60.557498931884766,2.127455949783325,0.03612897917628288,206.6999969482422,313.6333312988281,494.3999938964844,383.5666809082031,154.6666717529297,79.5999984741211,232.477783203125,1.0,0.0007468666881322861,0.033701591193675995,0.8240000009536743,0.34449997544288635,0.5227221846580505,0.3874629735946655,1.0
env_steps,18512,30,30,24,18510,0.9401962666666667,0.1659897118806839,-0.14136677980422974,-0.06428126990795135,0.38774436712265015,1.0495187044143677,657,1.9322901964187622,0.44812002778053284,0.0,600.0,0.6243482828140259,2.098388910293579,449.8675231933594,8.280667304992676,273.41448974609375,0.0,0.0,2.098388910293579,2.098388910293579,0.0,0.0,8.280667304992676,7.84072208404541,0.43994444608688354,0.1942777782678604,0.1942777782678604,6.436444282531738,4.973275184631348,62.684959411621094,-12.0,-24.803998947143555,-13.9486665725708,-10.0,0.0,613.7000122070312,107.80000305175781,19.534679412841797,3.4313807487487793,0.6862761378288269,20.220951080322266,60.557498931884766,2.127455949783325,0.03612897917628288,206.6999969482422,313.6333312988281,494.3999938964844,383.5666809082031,154.6666717529297,79.5999984741211,232.477783203125,1.0,0.0007468666881322861,0.033701591193675995,0.8240000009536743,0.34449997544288635,0.5227221846580505,0.3874629735946655,1.0
env_steps,19008,31,31,25,19006,0.9385925333333334,0.1876090168952942,-0.1575695425271988,-0.042088672518730164,0.43197354674339294,1.2535741329193115,688,0.8613203763961792,0.4423677623271942,0.0,600.0,0.6253018379211426,2.0896236896514893,443.4353332519531,8.166236877441406,269.5326843261719,0.0,0.0,2.0896236896514893,2.0896236896514893,0.0,0.0,8.166236877441406,7.74048376083374,0.4257526993751526,0.18801075220108032,0.18801075220108032,6.339354515075684,4.902632236480713,61.64326095581055,-12.0,-24.851613998413086,-13.930322647094727,-10.0,0.0,603.225830078125,107.38710021972656,19.201276779174805,3.4182374477386475,0.6836475133895874,19.884920120239258,59.52394485473633,2.119307279586792,0.03695347160100937,207.09677124023438,316.4193420410156,495.4193420410156,383.0967712402344,154.38710021972656,79.51612854003906,232.1720428466797,1.0,0.0007372795953415334,0.03314153477549553,0.8256989121437073,0.3451612591743469,0.527365505695343,0.3869534134864807,1.0
env_steps,19504,32,32,26,19502,0.9369888,0.1659783124923706,-0.14030441641807556,-0.07517800480127335,0.4152381122112274,1.2944079637527466,719,0.4224224090576172,0.441128134727478,0.0,600.0,0.6260919570922852,2.055781364440918,436.32635498046875,8.08927059173584,267.84075927734375,0.0,0.0,2.055781364440918,2.055781364440918,0.0,0.0,8.08927059173584,7.676822662353516,0.4124479293823242,0.18213540315628052,0.18213540315628052,6.319114685058594,4.927028656005859,61.30867385864258,-12.0,-24.94499969482422,-13.94124984741211,-10.0,0.0,600.03125,106.40625,19.09958839416504,3.3870160579681396,0.6774032115936279,19.776992797851562,59.20872116088867,2.099949836730957,0.03671886399388313,207.875,316.1875,495.625,383.5625,155.0625,79.21875,232.3541717529297,1.0,0.0007352135144174099,0.0329616516828537,0.8260416388511658,0.3464583158493042,0.5269791483879089,0.3872569501399994,1.0
env_steps,20000,33,33,27,19998,0.9353850666666667,0.3453183174133301,-0.1393243968486786,0.17614062130451202,0.590316116809845,1.516459584236145,750,0.9663524627685547,0.4435666799545288,0.0,600.0,0.6266323924064636,2.050151824951172,437.90899658203125,8.202776908874512,268.1567687988281,0.0,0.0,2.050151824951172,2.050151824951172,0.0,0.0,8.202776908874512,7.706717014312744,0.49606063961982727,0.19626261293888092,0.19626261293888092,6.45570707321167,4.976521968841553,61.86272048950195,-12.0,-24.94545555114746,-13.950909614562988,-10.0,0.0,605.3333129882812,107.96969604492188,19.26835823059082,3.436782121658325,0.6873564124107361,19.955717086791992,59.731910705566406,2.1308047771453857,0.03679334744811058,207.8787841796875,315.9696960449219,495.0,383.69696044921875,155.18182373046875,79.33333587646484,232.51515197753906,1.0,0.0007392777479253709,0.03325952589511871,0.8249999284744263,0.3464646339416504,0.526616096496582,0.3875252604484558,1.0
env_steps,20512,34,34,28,20510,0.9337295999999999,0.1828029751777649,-0.1863703727722168,-0.11926143616437912,0.42320775985717773,1.0748432874679565,782,0.25284162163734436,0.4402264654636383,0.0,600.0,0.6284134387969971,2.1008825302124023,434.08172607421875,8.24313735961914,263.0645751953125,0.0,0.0,2.1008825302124023,2.1008825302124023,0.0,0.0,8.24313735961914,7.761568069458008,0.48156866431236267,0.19058823585510254,0.19058823585510254,6.464166641235352,4.912296295166016,61.211669921875,-12.0,-24.998825073242188,-13.960000038146973,-10.0,0.0,598.7941284179688,107.67646789550781,19.060209274291992,3.4274485111236572,0.6854897141456604,19.74570083618164,59.086647033691406,2.1250178813934326,0.03714305907487869,208.3235321044922,318.3235168457031,495.8823547363281,383.73529052734375,155.26470947265625,79.5,232.66665649414062,1.0,0.0007337107672356069,0.03290949761867523,0.8264705538749695,0.34720587730407715,0.5305391550064087,0.38777780532836914,1.0
env_steps,21008,35,35,29,21006,0.9321258666666666,0.17707693576812744,-0.18579134345054626,-0.2340962439775467,0.4020128548145294,1.1919771432876587,813,-0.5687530636787415,0.43491142988204956,0.0,600.0,0.6282861828804016,2.147714376449585,427.8185119628906,8.216142654418945,257.2220764160156,0.0,0.0,2.147714376449585,2.147714376449585,0.0,0.0,8.216142654418945,7.748332977294922,0.4678095579147339,0.1851428598165512,0.1851428598165512,6.36799955368042,4.829167366027832,60.49125289916992,-12.0,-25.069713592529297,-13.990285873413086,-10.0,0.0,591.5999755859375,107.14286041259766,18.831212997436523,3.4104628562927246,0.6820926070213318,19.513307571411133,58.37676239013672,2.1144869327545166,0.037475939840078354,208.91429138183594,319.8857116699219,496.8285827636719,384.1714172363281,155.3428497314453,80.0,233.1714324951172,1.0,0.00072485237615183,0.03252217918634415,0.8280475735664368,0.34819045662879944,0.5331428050994873,0.388619065284729,1.0
env_steps,21504,35,35,29,21502,0.9305221333333333,0.30003541707992554,-0.12580789625644684,-0.09218399971723557,0.5421686172485352,1.6981492042541504,844,-0.5687530636787415,0.43491142988204956,0.0,600.0,0.6282861828804016,2.147714376449585,427.8185119628906,8.216142654418945,257.2220764160156,0.0,0.0,2.147714376449585,2.147714376449585,0.0,0.0,8.216142654418945,7.748332977294922,0.4678095579147339,0.1851428598165512,0.1851428598165512,6.36799955368042,4.829167366027832,60.49125289916992,-12.0,-25.069713592529297,-13.990285873413086,-10.0,0.0,591.5999755859375,107.14286041259766,18.831212997436523,3.4104628562927246,0.6820926070213318,19.513307571411133,58.37676239013672,2.1144869327545166,0.037475939840078354,208.91429138183594,319.8857116699219,496.8285827636719,384.1714172363281,155.3428497314453,80.0,233.1714324951172,1.0,0.00072485237615183,0.03252217918634415,0.8280475735664368,0.34819045662879944,0.5331428050994873,0.388619065284729,1.0
env_steps,22000,36,36,30,21998,0.9289184,0.2005542367696762,-0.23281823098659515,-0.0099891796708107,0.4518643021583557,1.5400851964950562,875,0.32816416025161743,0.4392833411693573,0.0,600.0,0.6269643306732178,2.190324068069458,435.6236877441406,8.206435203552246,255.43841552734375,0.0,0.0,2.190324068069458,2.190324068069458,0.0,0.0,8.206435203552246,7.751619815826416,0.4548148512840271,0.18000000715255737,0.18000000715255737,6.288194179534912,4.7592244148254395,61.37761688232422,-12.0,-25.06333351135254,-13.98611068725586,-10.0,0.0,600.2777709960938,108.66666412353516,19.10743522644043,3.458967447280884,0.6917935013771057,19.799230575561523,59.23305130004883,2.144559621810913,0.03739606961607933,208.86111450195312,319.1111145019531,496.4444580078125,384.27777099609375,155.25,79.88888549804688,233.10186767578125,1.0,0.0007321388693526387,0.032998718321323395,0.8274073600769043,0.3481018543243408,0.5318517684936523,0.3885031044483185,1.0
env_steps,22512,37,37,31,22510,0.9272629333333333,0.13266398012638092,-0.2539592981338501,-0.2475355863571167,0.37455254793167114,0.8044120669364929,907,0.7930856943130493,0.4424973130226135,0.0,600.0,0.625399112701416,2.166576623916626,436.07373046875,8.148874282836914,258.9786682128906,0.0,0.0,2.166576623916626,2.166576623916626,0.0,0.0,8.148874282836914,7.706350803375244,0.4425225555896759,0.17513513565063477,0.17513513565063477,6.273918151855469,4.7678937911987305,61.873634338378906,-12.0,-25.092973709106445,-13.987566947937012,-10.0,0.0,605.0270385742188,110.0540542602539,19.258609771728516,3.503129243850708,0.7006258368492126,19.9592342376709,59.70168685913086,2.1719398498535156,0.03745574131608009,209.1081085205078,317.7567443847656,495.6756896972656,384.45947265625,154.81080627441406,80.0540542602539,233.12612915039062,1.0,0.0007374954875558615,0.03326539322733879,0.8261260986328125,0.34851351380348206,0.5295945405960083,0.38854357600212097,1.0
env_steps,23008,38,38,32,23006,0.9256592,0.24648980796337128,-0.1894870102405548,-0.17345333099365234,0.47937941551208496,1.4182169437408447,938,0.42464056611061096,0.4393736720085144,0.0,600.0,0.6242665648460388,2.156447649002075,435.3435363769531,8.146183967590332,259.50885009765625,0.0,0.0,2.156447649002075,2.156447649002075,0.0,0.0,8.146183967590332,7.715306282043457,0.4308772385120392,0.17052631080150604,0.17052631080150604,6.279736042022705,4.780412673950195,61.39833450317383,-12.0,-24.997894287109375,-13.975788116455078,-10.0,0.0,600.3421020507812,109.39473724365234,19.10948371887207,3.482142448425293,0.6964284777641296,19.805912017822266,59.23939895629883,2.158928155899048,0.03747764974832535,208.3157958984375,318.8157958984375,496.368408203125,384.47369384765625,154.6842041015625,79.81578826904297,232.92984008789062,1.0,0.0007322894525714219,0.033009856939315796,0.8272807002067566,0.34719300270080566,0.5313595533370972,0.38821640610694885,1.0
env_steps,23504,39,39,33,23502,0.9240554666666667,0.263363242149353,-0.17342209815979004,-0.07809795439243317,0.51092529296875,1.332472562789917,969,0.07547207176685333,0.43921539187431335,0.0,600.0,0.6239174008369446,2.13440203666687,434.097412109375,8.139616012573242,261.2558288574219,0.0,0.0,2.13440203666687,2.13440203666687,0.0,0.0,8.139616012573242,7.711452484130859,0.42816245555877686,0.17260684072971344,0.17260684072971344,6.309999465942383,4.828436374664307,61.224708557128906,-12.0,-25.132307052612305,-14.016921997070312,-10.0,0.0,598.7435913085938,108.5897445678711,19.05860137939453,3.4565186500549316,0.6913037300109863,19.74990463256836,59.081661224365234,2.1430413722991943,0.03723922744393349,209.43589782714844,318.5641174316406,496.3589782714844,385.05126953125,155.025634765625,80.38461303710938,233.6154022216797,1.0,0.0007320255972445011,0.03291650861501694,0.8272649049758911,0.3490598499774933,0.530940055847168,0.3893589973449707,1.0
env_steps,24000,40,40,34,24000,0.9224517333333333,0.31519249081611633,-0.1549203097820282,-0.007881909608840942,0.5691678524017334,1.7090317010879517,1000,0.21140260994434357,0.4402550160884857,0.0,600.0,0.6252080202102661,2.1382083892822266,435.35479736328125,8.194541931152344,260.7553405761719,0.0,0.0,2.1382083892822266,2.1382083892822266,0.0,0.0,8.194541931152344,7.759875297546387,0.4346666932106018,0.1824583262205124,0.1824583262205124,6.354458808898926,4.83335542678833,61.3474006652832,-12.0,-25.128000259399414,-14.0079984664917,-10.0,0.0,599.8250122070312,109.4000015258789,19.0930233001709,3.4823105335235596,0.6964620351791382,19.78948402404785,59.1883659362793,2.1590323448181152,0.03736017271876335,209.39999389648438,319.7250061035156,496.6499938964844,384.92498779296875,154.5749969482422,80.44999694824219,233.4666748046875,1.0,0.0007337583228945732,0.0329824760556221,0.827750027179718,0.3490000367164612,0.5328750014305115,0.38911113142967224,1.0
env_steps,24512,40,40,34,24510,0.9207962666666667,0.48130178451538086,0.034649696201086044,0.03710068762302399,0.770218551158905,2.432464361190796,1032,0.21140260994434357,0.4402550160884857,0.0,600.0,0.6252080202102661,2.1382083892822266,435.35479736328125,8.194541931152344,260.7553405761719,0.0,0.0,2.1382083892822266,2.1382083892822266,0.0,0.0,8.194541931152344,7.759875297546387,0.4346666932106018,0.1824583262205124,0.1824583262205124,6.354458808898926,4.83335542678833,61.3474006652832,-12.0,-25.128000259399414,-14.0079984664917,-10.0,0.0,599.8250122070312,109.4000015258789,19.0930233001709,3.4823105335235596,0.6964620351791382,19.78948402404785,59.1883659362793,2.1590323448181152,0.03736017271876335,209.39999389648438,319.7250061035156,496.6499938964844,384.92498779296875,154.5749969482422,80.44999694824219,233.4666748046875,1.0,0.0007337583228945732,0.0329824760556221,0.827750027179718,0.3490000367164612,0.5328750014305115,0.38911113142967224,1.0
env_steps,25008,41,41,35,25006,0.9191925333333333,0.3257772922515869,-0.019669752568006516,-0.1523745208978653,0.5992393493652344,1.7569974660873413,1063,0.876257061958313,0.44419029355049133,0.0,600.0,0.6240006685256958,2.1312196254730225,437.07025146484375,8.182276725769043,261.5694885253906,0.0,0.0,2.1312196254730225,2.1312196254730225,0.0,0.0,8.182276725769043,7.756586074829102,0.4256910979747772,0.17963413894176483,0.17963413894176483,6.365650653839111,4.826220512390137,61.977230072021484,-12.0,-25.10341453552246,-13.997560501098633,-10.0,0.0,606.1707153320312,109.58536529541016,19.295013427734375,3.488210916519165,0.6976420879364014,19.99265480041504,59.814537048339844,2.1626906394958496,0.03709501028060913,209.19512939453125,317.8292541503906,495.68292236328125,384.4634094238281,154.09756469726562,80.65853881835938,233.2926788330078,1.0,0.0007403171039186418,0.03332109376788139,0.8261381983757019,0.34865856170654297,0.5297154784202576,0.38882115483283997,1.0
env_steps,25504,42,42,36,25502,0.9175888,0.31366586685180664,0.0555419921875,0.10867947340011597,0.5807234644889832,2.061979055404663,1094,0.29653435945510864,0.441404789686203,0.0,600.0,0.6264954805374146,2.145277738571167,433.06231689453125,8.157777786254883,257.8014221191406,0.0,0.0,2.145277738571167,2.145277738571167,0.0,0.0,8.157777786254883,7.742222309112549,0.41555559635162354,0.1753571331501007,0.1753571331501007,6.335356712341309,4.776214599609375,61.410343170166016,-12.0,-25.125715255737305,-13.988093376159668,-10.0,0.0,600.5238037109375,109.0952377319336,19.115266799926758,3.472609758377075,0.6945218443870544,19.80978775024414,59.25731658935547,2.15301775932312,0.03730747848749161,209.38095092773438,319.23809814453125,496.3333435058594,384.30950927734375,153.90475463867188,80.5952377319336,233.1349334716797,1.0,0.0007356746355071664,0.03301631286740303,0.8272221684455872,0.3489682674407959,0.5320635437965393,0.38855820894241333,1.0
env_steps,26000,43,43,37,25998,0.9159850666666667,0.1589544117450714,-0.19013027846813202,-0.11071598529815674,0.38586729764938354,1.0516464710235596,1125,-0.5706171989440918,0.43605121970176697,0.0,600.0,0.6287969350814819,2.1375582218170166,430.0044860839844,8.06542682647705,256.086669921875,0.0,0.0,2.1375582218170166,2.1375582218170166,0.0,0.0,8.06542682647705,7.6595354080200195,0.4058915078639984,0.17127905786037445,0.17127905786037445,6.257015705108643,4.722097396850586,60.55589294433594,-12.0,-25.12744140625,-13.999069213867188,-10.0,0.0,592.093017578125,107.9534912109375,18.846906661987305,3.4362668991088867,0.6872532367706299,19.534160614013672,58.42539978027344,2.1304852962493896,0.03755614161491394,209.39535522460938,320.6511535644531,497.3023376464844,384.3721008300781,153.9534912109375,80.81395721435547,233.31784057617188,1.0,0.000726751983165741,0.0325569286942482,0.8288372159004211,0.3489922881126404,0.5344186425209045,0.38886305689811707,1.0
env_steps,26512,44,44,38,26510,0.9143296,0.305685818195343,0.025962913408875465,-0.028528660535812378,0.5791239142417908,2.01796293258667,1157,-0.1602453738451004,0.43783867359161377,0.0,600.0,0.6289517283439636,2.126401662826538,430.7070617675781,8.048257827758789,257.7309265136719,0.0,0.0,2.126401662826538,2.126401662826538,0.0,0.0,8.048257827758789,7.650833606719971,0.39742425084114075,0.16814392805099487,0.16814392805099487,6.262499809265137,4.728260517120361,60.93156814575195,-12.0,-25.099090576171875,-13.992725372314453,-10.0,0.0,595.9091186523438,107.90908813476562,18.96837615966797,3.4348535537719727,0.686970591545105,19.65534782409668,58.80195617675781,2.1296091079711914,0.0373193584382534,209.15908813476562,320.43182373046875,497.0909118652344,384.2727355957031,154.0,80.68181610107422,233.21214294433594,1.0,0.0007297311094589531,0.03275890648365021,0.8284847736358643,0.34859851002693176,0.5340530872344971,0.388686865568161,1.0
env_steps,27008,45,45,39,27006,0.9127258666666667,0.24963758885860443,-0.015578387305140495,-0.05324307084083557,0.5156518816947937,1.6633801460266113,1188,0.4364219307899475,0.4405711591243744,0.0,600.0,0.6273617744445801,2.14044451713562,431.88037109375,8.0447416305542,256.2633361816406,0.0,0.0,2.14044451713562,2.14044451713562,0.0,0.0,8.0447416305542,7.656148910522461,0.38859260082244873,0.1644074022769928,0.1644074022769928,6.227999687194824,4.691797733306885,61.54886245727539,-12.0,-25.10933494567871,-14.0031099319458,-10.0,0.0,602.0,108.73332977294922,19.162254333496094,3.461090087890625,0.6922178864479065,19.854473114013672,59.402984619140625,2.1458754539489746,0.03720688447356224,209.24444580078125,317.95556640625,496.1333312988281,384.26666259765625,153.75555419921875,81.06666564941406,233.38519287109375,1.0,0.0007342852768488228,0.03309078887104988,0.8268888592720032,0.34874075651168823,0.5299259424209595,0.3889753222465515,1.0
env_steps,27504,45,45,39,27502,0.9111221333333334,0.2675352096557617,0.04111803323030472,0.10998354852199554,0.5629249811172485,2.224346160888672,1219,0.4364219307899475,0.4405711591243744,0.0,600.0,0.6273617744445801,2.14044451713562,431.88037109375,8.0447416305542,256.2633361816406,0.0,0.0,2.14044451713562,2.14044451713562,0.0,0.0,8.0447416305542,7.656148910522461,0.38859260082244873,0.1644074022769928,0.1644074022769928,6.227999687194824,4.691797733306885,61.54886245727539,-12.0,-25.10933494567871,-14.0031099319458,-10.0,0.0,602.0,108.73332977294922,19.162254333496094,3.461090087890625,0.6922178864479065,19.854473114013672,59.402984619140625,2.1458754539489746,0.03720688447356224,209.24444580078125,317.95556640625,496.1333312988281,384.26666259765625,153.75555419921875,81.06666564941406,233.38519287109375,1.0,0.0007342852768488228,0.03309078887104988,0.8268888592720032,0.34874075651168823,0.5299259424209595,0.3889753222465515,1.0
env_steps,28000,46,46,40,27998,0.9095184000000001,0.29352402687072754,0.014230402186512947,0.15434785187244415,0.5644809603691101,1.7636070251464844,1250,0.5061848163604736,0.44020876288414,0.0,600.0,0.6286622881889343,2.123985528945923,432.41278076171875,7.9828267097473145,259.06158447265625,0.0,0.0,2.123985528945923,2.123985528945923,0.0,0.0,7.9828267097473145,7.602681636810303,0.38014495372772217,0.16083332896232605,0.16083332896232605,6.187680244445801,4.6779303550720215,61.5305290222168,-12.0,-25.03826141357422,-13.986084938049316,-10.0,0.0,601.7825927734375,108.89130401611328,19.15533447265625,3.466118574142456,0.6932235956192017,19.84855842590332,59.381534576416016,2.1489930152893066,0.03721785172820091,208.6521759033203,318.6956481933594,496.4565124511719,383.9130554199219,153.43478393554688,80.97826385498047,233.10145568847656,1.0,0.0007336812559515238,0.03308093175292015,0.8274275064468384,0.347753643989563,0.5311594605445862,0.38850241899490356,1.0
env_steps,28512,47,47,41,28510,0.9078629333333333,0.4028199017047882,-0.06913091987371445,0.18926486372947693,0.6746528148651123,1.297704815864563,1282,0.9228898882865906,0.4420660436153412,0.0,600.0,0.6268630027770996,2.118617057800293,434.65966796875,7.971702575683594,260.08935546875,0.0,0.0,2.118617057800293,2.118617057800293,0.0,0.0,7.971702575683594,7.599575042724609,0.3721276819705963,0.15748226642608643,0.15748226642608643,6.156027793884277,4.665275573730469,61.91607666015625,-12.0,-25.00851058959961,-13.984679222106934,-10.0,0.0,605.5957641601562,109.36170196533203,19.276710510253906,3.4810917377471924,0.6962181925773621,19.972929000854492,59.75779724121094,2.1582765579223633,0.03711657226085663,208.4042510986328,318.1914978027344,496.04254150390625,383.89361572265625,153.46807861328125,80.93617248535156,233.07801818847656,1.0,0.0007367766811512411,0.03328821435570717,0.8267375230789185,0.3473404347896576,0.5303191542625427,0.3884633779525757,1.0
env_steps,29008,48,48,42,29006,0.9062592,0.3119943141937256,0.06971830129623413,0.08725340664386749,0.5960010290145874,1.7491933107376099,1313,0.518913984298706,0.4399062395095825,0.0,600.0,0.6275998950004578,2.125624895095825,433.1800231933594,7.902360916137695,258.1424865722656,0.0,0.0,2.125624895095825,2.125624895095825,0.0,0.0,7.902360916137695,7.537985324859619,0.3643749952316284,0.15420138835906982,0.15420138835906982,6.093472957611084,4.612156391143799,61.57016372680664,-12.0,-25.052499771118164,-13.998751640319824,-10.0,0.0,602.2083129882812,108.77083587646484,19.168886184692383,3.462283134460449,0.6924566626548767,19.86134147644043,59.42354965209961,2.146615505218506,0.037078291177749634,208.7708282470703,319.5416564941406,496.6458435058594,384.1875,153.375,81.1875,233.3125,1.0,0.0007331770029850304,0.03310224041342735,0.8277430534362793,0.34795141220092773,0.5325694680213928,0.38885417580604553,1.0
env_steps,29504,49,49,43,29502,0.9046554666666666,0.3295527398586273,0.08190113306045532,-0.010839764028787613,0.611551821231842,2.247575521469116,1344,0.5543240308761597,0.44059181213378906,0.0,600.0,0.626948356628418,2.1419389247894287,433.3749084472656,7.914965629577637,256.0805358886719,0.0,0.0,2.1419389247894287,2.1419389247894287,0.0,0.0,7.914965629577637,7.547754287719727,0.36721089482307434,0.16003401577472687,0.16003401577472687,6.10023832321167,4.579538345336914,61.60044479370117,-12.0,-25.045713424682617,-14.000410079956055,-10.0,0.0,602.5306396484375,108.69387817382812,19.17914581298828,3.4598336219787598,0.691966712474823,19.871110916137695,59.45534896850586,2.145096778869629,0.036992281675338745,208.7142791748047,320.1224365234375,497.0204162597656,383.9183654785156,153.12245178222656,81.48979949951172,233.34014892578125,1.0,0.0007343196193687618,0.03311851993203163,0.8283673524856567,0.34785717725753784,0.5335373878479004,0.3889002501964569,1.0
env_steps,30000,50,50,44,30000,0.9030517333333333,0.2970295548439026,0.057835303246974945,0.07328226417303085,0.5568310022354126,2.0001537799835205,1375,1.192893385887146,0.445097953081131,0.0,600.0,0.6243261694908142,2.1541333198547363,431.92022705078125,7.86906623840332,253.7459716796875,0.0,0.0,2.1541333198547363,2.1541333198547363,0.0,0.0,7.86906623840332,7.509199142456055,0.3598666787147522,0.15683333575725555,0.15683333575725555,6.054166793823242,4.530755519866943,62.242496490478516,-12.0,-25.046398162841797,-14.003201484680176,-10.0,0.0,608.8200073242188,109.77999877929688,19.379343032836914,3.494405746459961,0.6988811492919922,20.078222274780273,60.075958251953125,2.166531562805176,0.03693903982639313,208.72000122070312,319.20001220703125,496.3800048828125,384.0,152.72000122070312,81.72000122070312,233.3866729736328,1.0,0.0007418299210257828,0.03346370533108711,0.8273000121116638,0.3478667140007019,0.5320000052452087,0.3889778256416321,1.0
env_steps,30512,50,50,44,30510,0.9013962666666666,0.28498727083206177,-0.08035290241241455,-0.06986703723669052,0.5537117719650269,1.586006760597229,1407,1.192893385887146,0.445097953081131,0.0,600.0,0.6243261694908142,2.1541333198547363,431.92022705078125,7.86906623840332,253.7459716796875,0.0,0.0,2.1541333198547363,2.1541333198547363,0.0,0.0,7.86906623840332,7.509199142456055,0.3598666787147522,0.15683333575725555,0.15683333575725555,6.054166793823242,4.530755519866943,62.242496490478516,-12.0,-25.046398162841797,-14.003201484680176,-10.0,0.0,608.8200073242188,109.77999877929688,19.379343032836914,3.494405746459961,0.6988811492919922,20.078222274780273,60.075958251953125,2.166531562805176,0.03693903982639313,208.72000122070312,319.20001220703125,496.3800048828125,384.0,152.72000122070312,81.72000122070312,233.3866729736328,1.0,0.0007418299210257828,0.03346370533108711,0.8273000121116638,0.3478667140007019,0.5320000052452087,0.3889778256416321,1.0
env_steps,31008,51,51,45,31006,0.8997925333333333,0.2804754674434662,-0.06055548042058945,-0.038172297179698944,0.5476924180984497,1.2683531045913696,1438,0.8664724826812744,0.44376271963119507,0.0,600.0,0.625885009765625,2.169705867767334,429.56671142578125,7.892417907714844,250.96749877929688,0.0,0.0,2.169705867767334,2.169705867767334,0.0,0.0,7.892417907714844,7.539607048034668,0.35281047224998474,0.15375816822052002,0.15375816822052002,6.029542922973633,4.504188537597656,61.92020034790039,-12.0,-25.05647087097168,-13.997257232666016,-10.0,0.0,605.7451171875,108.82353210449219,19.28146743774414,3.463960647583008,0.6927920579910278,19.97425651550293,59.77253723144531,2.147655487060547,0.0367300771176815,208.80392456054688,319.92156982421875,496.92156982421875,383.8823547363281,152.60784912109375,81.68627166748047,233.28758239746094,1.0,0.0007396045257337391,0.03329043090343475,0.8282026648521423,0.34800657629966736,0.5332026481628418,0.38881269097328186,1.0
env_steps,31504,52,52,46,31502,0.8981888,0.3252668082714081,0.14181393384933472,0.18416447937488556,0.5855996608734131,1.9498486518859863,1469,1.0519521236419678,0.44507691264152527,0.0,600.0,0.6259759664535522,2.191922903060913,431.09332275390625,7.938525199890137,250.68670654296875,0.0,0.0,2.191922903060913,2.191922903060913,0.0,0.0,7.938525199890137,7.592339038848877,0.3461858928203583,0.15096153318881989,0.15096153318881989,6.031538963317871,4.492709159851074,62.11772155761719,-12.0,-25.06153678894043,-14.004232406616211,-10.0,0.0,607.6346435546875,109.38461303710938,19.341611862182617,3.4818203449249268,0.6963640451431274,20.037973403930664,59.958988189697266,2.15872859954834,0.0367492213845253,208.84616088867188,319.9230651855469,496.7115478515625,383.98077392578125,152.57691955566406,81.82691955566406,233.40383911132812,1.0,0.000741794821806252,0.03339662775397301,0.8278526067733765,0.3480769693851471,0.5332051515579224,0.38900646567344666,1.0
env_steps,32000,53,53,47,31998,0.8965850666666667,0.2542753517627716,0.1455915868282318,0.1701774001121521,0.5466970205307007,2.4795284271240234,1500,1.111908197402954,0.44502827525138855,0.0,600.0,0.6243054270744324,2.1977672576904297,429.2623596191406,7.992703914642334,249.09585571289062,0.0,0.0,2.1977672576904297,2.1977672576904297,0.0,0.0,7.992703914642334,7.6516032218933105,0.34110063314437866,0.14955975115299225,0.14955975115299225,6.048584938049316,4.497416973114014,62.11341857910156,-12.0,-25.005281448364258,-13.996228218078613,-10.0,0.0,607.5471801757812,109.60377502441406,19.33882713317871,3.4887962341308594,0.697759211063385,20.036584854125977,59.95035934448242,2.1630537509918213,0.036783844232559204,208.3773651123047,320.3584899902344,496.6603698730469,383.867919921875,152.8867950439453,81.52830505371094,233.2704315185547,1.0,0.0007417137967422605,0.03339431434869766,0.8277673721313477,0.3472956418991089,0.5339308381080627,0.38878411054611206,1.0
env_steps,32512,54,54,48,32510,0.8949296,0.14394845068454742,-0.022612109780311584,-0.03717529773712158,0.3930330276489258,1.4432640075683594,1532,1.062768578529358,0.444548100233078,0.0,600.0,0.6247612237930298,2.190215826034546,431.0458679199219,8.034660339355469,250.36708068847656,0.0,0.0,2.190215826034546,2.190215826034546,0.0,0.0,8.034660339355469,7.677993297576904,0.3566666841506958,0.162222221493721,0.162222221493721,6.096944808959961,4.525649070739746,62.09721374511719,-12.0,-25.022220611572266,-14.012224197387695,-10.0,0.0,607.3148193359375,109.94444274902344,19.331432342529297,3.4996402263641357,0.6999279856681824,20.031356811523438,59.927433013916016,2.1697771549224854,0.036866556853055954,208.51852416992188,321.5,496.9259338378906,384.3333435058594,153.12962341308594,81.5740737915039,233.5370330810547,1.0,0.0007409135578200221,0.03338560089468956,0.8282099366188049,0.34753093123435974,0.5358333587646484,0.3892284333705902,1.0
env_steps,33008,55,55,49,33006,0.8933258666666667,0.24946047365665436,0.04363491013646126,-0.018565397709608078,0.5100136399269104,1.3010295629501343,1563,0.9730796217918396,0.4452381432056427,0.0,600.0,0.6250189542770386,2.191636323928833,430.5018615722656,8.034363746643066,249.38897705078125,0.0,0.0,2.191636323928833,2.191636323928833,0.0,0.0,8.034363746643066,7.684181213378906,0.35018181800842285,0.15927273035049438,0.15927273035049438,6.065242767333984,4.508129596710205,62.03889846801758,-12.0,-25.060361862182617,-14.005456924438477,-10.0,0.0,606.8545532226562,109.29090881347656,19.316781997680664,3.478837728500366,0.6957674622535706,20.012544631958008,59.882015228271484,2.156879425048828,0.036647144705057144,208.83636474609375,321.2545471191406,496.8908996582031,384.14544677734375,153.29090881347656,81.41818237304688,233.4242401123047,1.0,0.0007420636247843504,0.033354248851537704,0.8281515836715698,0.348060667514801,0.5354242324829102,0.38904044032096863,1.0
env_steps,33504,55,55,49,33502,0.8917221333333334,0.46575456857681274,-0.056105900555849075,-0.1465088129043579,0.7450118064880371,2.1770503520965576,1594,0.9730796217918396,0.4452381432056427,0.0,600.0,0.6250189542770386,2.191636323928833,430.5018615722656,8.034363746643066,249.38897705078125,0.0,0.0,2.191636323928833,2.191636323928833,0.0,0.0,8.034363746643066,7.684181213378906,0.35018181800842285,0.15927273035049438,0.15927273035049438,6.065242767333984,4.508129596710205,62.03889846801758,-12.0,-25.060361862182617,-14.005456924438477,-10.0,0.0,606.8545532226562,109.29090881347656,19.316781997680664,3.478837728500366,0.6957674622535706,20.012544631958008,59.882015228271484,2.156879425048828,0.036647144705057144,208.83636474609375,321.2545471191406,496.8908996582031,384.14544677734375,153.29090881347656,81.41818237304688,233.4242401123047,1.0,0.0007420636247843504,0.033354248851537704,0.8281515836715698,0.348060667514801,0.5354242324829102,0.38904044032096863,1.0
env_steps,34000,56,56,50,33998,0.8901184,0.25636351108551025,0.08552980422973633,0.18404445052146912,0.5218340754508972,1.7515043020248413,1625,1.670507550239563,0.448216050863266,0.0,600.0,0.6236629486083984,2.233273983001709,430.6422424316406,8.081011772155762,246.82289123535156,0.0,0.0,2.233273983001709,2.233273983001709,0.0,0.0,8.081011772155762,7.736934185028076,0.34407737851142883,0.15657737851142883,0.15657737851142883,6.052440166473389,4.476181507110596,62.72908401489258,-12.0,-25.054285049438477,-14.00428581237793,-10.0,0.0,613.7321166992188,109.875,19.535701751708984,3.4974300861358643,0.6994859576225281,20.235187530517578,60.5606689453125,2.1684067249298096,0.036489732563495636,208.7857208251953,320.4285583496094,496.33929443359375,384.0535583496094,153.3392791748047,81.41071319580078,233.40475463867188,1.0,0.0007470267591997981,0.0337253138422966,0.8272320628166199,0.3479762077331543,0.5340476036071777,0.38900795578956604,1.0
env_steps,34512,57,57,51,34510,0.8884629333333334,0.21185988187789917,-0.021958651021122932,0.012499630451202393,0.4725409746170044,1.1766488552093506,1657,1.697072982788086,0.4483543932437897,0.0,600.0,0.6236097812652588,2.2288012504577637,429.4678649902344,8.06798267364502,245.80584716796875,0.0,0.0,2.2288012504577637,2.2288012504577637,0.0,0.0,8.06798267364502,7.729940891265869,0.33804094791412354,0.1538304090499878,0.1538304090499878,6.020292282104492,4.465005874633789,62.74689865112305,-12.0,-25.037893295288086,-14.011929512023926,-10.0,0.0,613.9824829101562,109.52631378173828,19.543668746948242,3.486330986022949,0.697266161441803,20.240936279296875,60.58536911010742,2.161525249481201,0.03633840009570122,208.6491241455078,321.1052551269531,496.4912414550781,384.08770751953125,153.24562072753906,81.63157653808594,233.53216552734375,1.0,0.0007472572615370154,0.033734891563653946,0.8274853229522705,0.3477485477924347,0.5351754426956177,0.38922029733657837,1.0
env_steps,35008,58,58,52,35006,0.8868592,0.4185938239097595,-0.020736686885356903,-0.2555862367153168,0.6946910619735718,1.7327581644058228,1688,2.0601325035095215,0.4507948160171509,0.0,600.0,0.6225830316543579,2.246551752090454,428.2011413574219,8.07637882232666,243.6219024658203,0.0,0.0,2.246551752090454,2.246551752090454,0.0,0.0,8.07637882232666,7.744165897369385,0.3322126567363739,0.15117816627025604,0.15117816627025604,5.99143648147583,4.436598777770996,63.08565139770508,-12.0,-25.009654998779297,-14.015861511230469,-10.0,0.0,617.27587890625,110.22413635253906,19.648500442504883,3.5085432529449463,0.7017086148262024,20.35021209716797,60.91035079956055,2.1752970218658447,0.03633132949471474,208.41378784179688,320.7930908203125,496.17242431640625,384.1206970214844,152.94827270507812,81.86206817626953,233.59768676757812,1.0,0.0007513246964663267,0.03391701728105545,0.8269539475440979,0.3473563492298126,0.5346551537513733,0.3893295228481293,1.0
env_steps,35504,59,59,53,35502,0.8852554666666667,0.17411884665489197,0.11741669476032257,0.11497324705123901,0.4586358666419983,1.5105056762695312,1719,2.296485185623169,0.4522372782230377,0.0,600.0,0.6220141649246216,2.2409322261810303,429.0844421386719,8.089632987976074,243.8526611328125,0.0,0.0,2.2409322261810303,2.2409322261810303,0.0,0.0,8.089632987976074,7.755959510803223,0.33367231488227844,0.15567797422409058,0.15567797422409058,6.011186599731445,4.441529273986816,63.323944091796875,-12.0,-25.006778717041016,-14.02067756652832,-10.0,0.0,619.6948852539062,110.2033920288086,19.725502014160156,3.507882833480835,0.7015765309333801,20.427080154418945,61.14905548095703,2.1748874187469482,0.03618816286325455,208.38983154296875,319.6271057128906,495.6610107421875,384.2372741699219,153.0,81.89830780029297,233.67794799804688,1.0,0.0007537288474850357,0.034045133739709854,0.8261016607284546,0.3473163843154907,0.5327118635177612,0.38946330547332764,1.0
env_steps,36000,60,60,54,36000,0.8836517333333334,0.4160733222961426,0.09677889943122864,0.0979260578751564,0.6730536222457886,1.6626396179199219,1750,2.254848003387451,0.45258501172065735,0.0,600.0,0.6221852898597717,2.2333056926727295,428.52423095703125,8.131083488464355,244.1897430419922,0.0,0.0,2.2333056926727295,2.2333056926727295,0.0,0.0,8.131083488464355,7.785332679748535,0.34574997425079346,0.15922221541404724,0.15922221541404724,6.055139064788818,4.486811637878418,63.314186096191406,-12.0,-25.01599884033203,-14.043333053588867,-10.0,0.0,619.5,110.68333435058594,19.719297409057617,3.523159980773926,0.7046319842338562,20.423931121826172,61.12982177734375,2.184359312057495,0.03631376847624779,208.46665954589844,318.1166687011719,495.25,384.54998779296875,153.0500030517578,82.28333282470703,234.05552673339844,1.0,0.0007543083047494292,0.03403988853096962,0.825416624546051,0.34744444489479065,0.5301944017410278,0.3900925815105438,1.0
env_steps,36512,60,60,54,36510,0.8819962666666666,0.2843608558177948,-0.04946061968803406,0.018644675612449646,0.5363667011260986,1.74498450756073,1782,2.254848003387451,0.45258501172065735,0.0,600.0,0.6221852898597717,2.2333056926727295,428.52423095703125,8.131083488464355,244.1897430419922,0.0,0.0,2.2333056926727295,2.2333056926727295,0.0,0.0,8.131083488464355,7.785332679748535,0.34574997425079346,0.15922221541404724,0.15922221541404724,6.055139064788818,4.486811637878418,63.314186096191406,-12.0,-25.01599884033203,-14.043333053588867,-10.0,0.0,619.5,110.68333435058594,19.719297409057617,3.523159980773926,0.7046319842338562,20.423931121826172,61.12982177734375,2.184359312057495,0.03631376847624779,208.46665954589844,318.1166687011719,495.25,384.54998779296875,153.0500030517578,82.28333282470703,234.05552673339844,1.0,0.0007543083047494292,0.03403988853096962,0.825416624546051,0.34744444489479065,0.5301944017410278,0.3900925815105438,1.0
env_steps,37008,61,61,55,37006,0.8803925333333333,0.29625871777534485,-0.032994143664836884,-0.11405084282159805,0.548342764377594,1.5375374555587769,1813,1.997262716293335,0.4513426423072815,0.0,600.0,0.6230872273445129,2.2159016132354736,428.28857421875,8.120464324951172,246.47317504882812,0.0,0.0,2.2159016132354736,2.2159016132354736,0.0,0.0,8.120464324951172,7.780190944671631,0.3402732014656067,0.15680326521396637,0.15680326521396637,6.075737953186035,4.526053428649902,63.1044807434082,-12.0,-25.048524856567383,-14.058688163757324,-10.0,0.0,617.4262084960938,110.42623138427734,19.65328598022461,3.5149760246276855,0.702995240688324,20.356285095214844,60.92518997192383,2.1792852878570557,0.0363268107175827,208.73770141601562,319.3770446777344,495.68853759765625,384.8360595703125,153.2458953857422,82.42623138427734,234.31146240234375,1.0,0.0007522376836277544,0.03392714262008667,0.8261474967002869,0.34789615869522095,0.5322950482368469,0.3905191123485565,1.0
env_steps,37504,62,62,56,37502,0.8787888,0.22658134996891022,-0.05903228372335434,0.03284011036157608,0.4766479730606079,1.9472798109054565,1844,2.2984442710876465,0.4528871178627014,0.0,600.0,0.6220815181732178,2.2273387908935547,427.0916748046875,8.140645027160645,244.6422576904297,0.0,0.0,2.2273387908935547,2.2273387908935547,0.0,0.0,8.140645027160645,7.805671215057373,0.33497312664985657,0.15440858900547028,0.15440858900547028,6.057849884033203,4.509731292724609,63.372318267822266,-12.0,-25.01419448852539,-14.059676170349121,-10.0,0.0,620.1451416015625,110.40322875976562,19.739831924438477,3.5142438411712646,0.7028487920761108,20.442684173583984,61.1934814453125,2.1788313388824463,0.0361761674284935,208.4516143798828,319.0967712402344,495.5806579589844,384.7257995605469,153.19354248046875,82.53225708007812,234.32794189453125,1.0,0.0007548117428086698,0.03407113999128342,0.8259676694869995,0.3474193513393402,0.5318279266357422,0.390546590089798,1.0
env_steps,38000,63,63,57,37998,0.8771850666666667,0.3467950224876404,0.14539313316345215,0.08206076920032501,0.6447274088859558,1.7610605955123901,1875,2.779620885848999,0.45541906356811523,0.0,600.0,0.6206058859825134,2.2416136264801025,428.2315979003906,8.166031837463379,243.5508575439453,0.0,0.0,2.2416136264801025,2.2416136264801025,0.0,0.0,8.166031837463379,7.835554599761963,0.33047619462013245,0.15264548361301422,0.15264548361301422,6.072037696838379,4.494401454925537,63.842166900634766,-12.0,-25.005714416503906,-14.056824684143066,-10.0,0.0,624.8412475585938,110.73015594482422,19.889314651489258,3.5246503353118896,0.7049301266670227,20.594247817993164,61.65687561035156,2.1852834224700928,0.036043327301740646,208.38095092773438,318.0635070800781,495.0635070800781,384.8254089355469,153.3174591064453,82.34920501708984,234.2803955078125,1.0,0.0007590316818095744,0.03432374447584152,0.8251057863235474,0.34730157256126404,0.5301057696342468,0.3904673457145691,1.0
env_steps,38512,64,64,58,38510,0.8755296,0.27450335025787354,-0.04426514729857445,-0.003858715295791626,0.538621723651886,1.251574993133545,1907,2.419520854949951,0.4536093771457672,0.0,600.0,0.6220361590385437,2.249218702316284,426.2661437988281,8.131380081176758,241.6182861328125,0.0,0.0,2.249218702316284,2.249218702316284,0.0,0.0,8.131380081176758,7.80606746673584,0.3253124952316284,0.15026041865348816,0.15026041865348816,6.040260314941406,4.460176467895508,63.48139953613281,-12.0,-24.999374389648438,-14.0625,-10.0,0.0,621.28125,110.25,19.775997161865234,3.509366512298584,0.7018733024597168,20.477869033813477,61.30558776855469,2.175807237625122,0.036085471510887146,208.328125,319.484375,495.609375,384.90625,153.25,82.484375,234.375,1.0,0.000756015651859343,0.034129783511161804,0.8260155916213989,0.3472135365009308,0.5324739813804626,0.390625,1.0
env_steps,39008,65,65,59,39006,0.8739258666666667,0.5264382362365723,-0.0646330714225769,-0.19283261895179749,0.8041477203369141,1.6397478580474854,1938,2.7569189071655273,0.4554230868816376,0.0,600.0,0.6202994585037231,2.2355384826660156,425.5274963378906,8.113384246826172,242.85479736328125,0.0,0.0,2.2355384826660156,2.2355384826660156,0.0,0.0,8.113384246826172,7.793076515197754,0.3203077018260956,0.1479487270116806,0.1479487270116806,6.045897483825684,4.480942726135254,63.708309173583984,-12.0,-24.910152435302734,-14.041230201721191,-10.0,0.0,623.5076904296875,110.61538696289062,19.846866607666016,3.5209970474243164,0.7041993737220764,20.55106544494629,61.52528381347656,2.183018207550049,0.036050375550985336,207.58460998535156,318.8461608886719,495.3230895996094,384.5384521484375,153.15383911132812,82.18461608886719,234.0205078125,1.0,0.0007590384921059012,0.034251779317855835,0.8255383968353271,0.3459743559360504,0.531410276889801,0.39003419876098633,1.0
env_steps,39504,65,65,59,39502,0.8723221333333333,0.23091018199920654,-0.05822958052158356,-0.11837093532085419,0.4806390404701233,1.4194762706756592,1969,2.7569189071655273,0.4554230868816376,0.0,600.0,0.6202994585037231,2.2355384826660156,425.5274963378906,8.113384246826172,242.85479736328125,0.0,0.0,2.2355384826660156,2.2355384826660156,0.0,0.0,8.113384246826172,7.793076515197754,0.3203077018260956,0.1479487270116806,0.1479487270116806,6.045897483825684,4.480942726135254,63.708309173583984,-12.0,-24.910152435302734,-14.041230201721191,-10.0,0.0,623.5076904296875,110.61538696289062,19.846866607666016,3.5209970474243164,0.7041993737220764,20.55106544494629,61.52528381347656,2.183018207550049,0.036050375550985336,207.58460998535156,318.8461608886719,495.3230895996094,384.5384521484375,153.15383911132812,82.18461608886719,234.0205078125,1.0,0.0007590384921059012,0.034251779317855835,0.8255383968353271,0.3459743559360504,0.531410276889801,0.39003419876098633,1.0
env_steps,40000,66,66,60,39998,0.8707184,0.3549051284790039,-0.027809537947177887,-0.1272839903831482,0.6056439280509949,1.742682933807373,2000,3.0163986682891846,0.45643335580825806,0.0,600.0,0.619144856929779,2.2468180656433105,424.33636474609375,8.094015121459961,241.14573669433594,0.0,0.0,2.2468180656433105,2.2468180656433105,0.0,0.0,8.094015121459961,7.778560638427734,0.31545454263687134,0.14570707082748413,0.14570707082748413,6.021111011505127,4.453590393066406,63.959739685058594,-12.0,-24.8963623046875,-14.046969413757324,-10.0,0.0,626.0,110.89393615722656,19.926198959350586,3.5298638343811035,0.7059727311134338,20.632171630859375,61.771217346191406,2.1885154247283936,0.03598450869321823,207.46969604492188,318.2727355957031,495.0303039550781,384.5,153.1212158203125,82.36363983154297,234.11614990234375,1.0,0.0007607222651131451,0.034386951476335526,0.8250504732131958,0.3457828164100647,0.5304545760154724,0.3901935815811157,1.0
env_steps,40512,67,67,61,40510,0.8690629333333333,0.2740679383277893,0.22481238842010498,0.3083592653274536,0.5364751815795898,1.902342677116394,2032,2.3896899223327637,0.4538910686969757,0.0,600.0,0.6217250227928162,2.2325870990753174,423.8758544921875,8.056492805480957,242.81163024902344,0.0,0.0,2.2325870990753174,2.2325870990753174,0.0,0.0,8.056492805480957,7.745746612548828,0.3107462525367737,0.14353233575820923,0.14353233575820923,6.0099005699157715,4.457919597625732,63.42014694213867,-12.0,-24.963581085205078,-14.066864967346191,-10.0,0.0,620.65673828125,110.2686538696289,19.756118774414062,3.509960412979126,0.7019920349121094,20.45810890197754,61.24396514892578,2.176175355911255,0.036178335547447205,208.02984619140625,320.7611999511719,495.8955078125,384.74627685546875,153.1641845703125,82.71641540527344,234.44775390625,1.0,0.0007564851548522711,0.0340968482196331,0.8264924883842468,0.34671640396118164,0.5346020460128784,0.39074623584747314,1.0
env_steps,41008,68,68,62,41006,0.8674592,0.25822263956069946,0.07032079994678497,0.20460563898086548,0.5067605972290039,1.5610815286636353,2063,2.8744852542877197,0.45652061700820923,0.0,600.0,0.6204365491867065,2.2419605255126953,426.19482421875,8.059118270874023,243.0324249267578,0.0,0.0,2.2419605255126953,2.2419605255126953,0.0,0.0,8.059118270874023,7.752941131591797,0.30617645382881165,0.14142157137393951,0.14142157137393951,5.98909330368042,4.441680908203125,63.895084381103516,-12.0,-24.952939987182617,-14.067646980285645,-10.0,0.0,625.4117431640625,110.55882263183594,19.9074764251709,3.5191967487335205,0.7038393020629883,20.611312866210938,61.71317672729492,2.1819019317626953,0.03604048117995262,207.94117736816406,319.4117736816406,495.2205810546875,384.6617736816406,153.16175842285156,82.77941131591797,234.4607696533203,1.0,0.0007608677260577679,0.03435219079256058,0.8253675699234009,0.34656861424446106,0.5323529839515686,0.3907679319381714,1.0
env_steps,41504,69,69,63,41502,0.8658554666666667,0.37633153796195984,0.004810843616724014,0.02422843873500824,0.6089415550231934,1.808418869972229,2094,2.9839980602264404,0.45685797929763794,0.0,600.0,0.620656430721283,2.240313768386841,427.52886962890625,8.113719940185547,243.1177520751953,0.0,0.0,2.240313768386841,2.240313768386841,0.0,0.0,8.113719940185547,7.777295112609863,0.33642512559890747,0.15285024046897888,0.15285024046897888,6.050772666931152,4.461052417755127,63.97270584106445,-12.0,-24.92173957824707,-14.066956520080566,-10.0,0.0,626.1884155273438,110.60869598388672,19.93219757080078,3.5207841396331787,0.7041568160057068,20.6363525390625,61.78981399536133,2.1828861236572266,0.03598899394273758,207.68115234375,319.1449279785156,495.0434875488281,384.4927673339844,153.2318878173828,82.81159210205078,234.4492645263672,1.0,0.000761430012062192,0.03439392149448395,0.8250724077224731,0.3461352586746216,0.5319082736968994,0.3907487690448761,1.0
env_steps,42000,70,70,64,42000,0.8642517333333333,0.42740902304649353,-0.0030273832380771637,0.1411914825439453,0.7215226292610168,2.398160696029663,2125,3.0613975524902344,0.45685145258903503,0.0,600.0,0.6196339726448059,2.2507617473602295,426.75341796875,8.091381072998047,241.53021240234375,0.0,0.0,2.2507617473602295,2.2507617473602295,0.0,0.0,8.091381072998047,7.759762287139893,0.3316190540790558,0.15066666901111603,0.15066666901111603,6.008785724639893,4.430251598358154,64.03626251220703,-12.0,-24.906856536865234,-14.067999839782715,-10.0,0.0,626.7999877929688,110.77143096923828,19.9516658782959,3.5259640216827393,0.7051928043365479,20.656856536865234,61.85015869140625,2.1860976219177246,0.0359775647521019,207.55714416503906,319.29998779296875,494.8285827636719,384.72857666015625,153.1857147216797,82.74285888671875,234.46665954589844,1.0,0.0007614191272296011,0.03442809730768204,0.8247142434120178,0.3459285795688629,0.5321667194366455,0.39077773690223694,1.0
env_steps,42512,70,70,64,42510,0.8625962666666667,0.299176961183548,0.017301080748438835,0.09332678467035294,0.5758248567581177,1.7652390003204346,2157,3.0613975524902344,0.45685145258903503,0.0,600.0,0.6196339726448059,2.2507617473602295,426.75341796875,8.091381072998047,241.53021240234375,0.0,0.0,2.2507617473602295,2.2507617473602295,0.0,0.0,8.091381072998047,7.759762287139893,0.3316190540790558,0.15066666901111603,0.15066666901111603,6.008785724639893,4.430251598358154,64.03626251220703,-12.0,-24.906856536865234,-14.067999839782715,-10.0,0.0,626.7999877929688,110.77143096923828,19.9516658782959,3.5259640216827393,0.7051928043365479,20.656856536865234,61.85015869140625,2.1860976219177246,0.0359775647521019,207.55714416503906,319.29998779296875,494.8285827636719,384.72857666015625,153.1857147216797,82.74285888671875,234.46665954589844,1.0,0.0007614191272296011,0.03442809730768204,0.8247142434120178,0.3459285795688629,0.5321667194366455,0.39077773690223694,1.0
env_steps,43008,71,71,65,43006,0.8609925333333334,0.3837438225746155,-0.09599244594573975,-0.06250831484794617,0.6422371864318848,1.7732484340667725,2188,3.2929394245147705,0.45803242921829224,0.0,600.0,0.6188746690750122,2.248051404953003,428.7132568359375,8.098357200622559,242.62472534179688,0.0,0.0,2.248051404953003,2.248051404953003,0.0,0.0,8.098357200622559,7.770305633544922,0.3280516266822815,0.149154931306839,0.149154931306839,6.0151872634887695,4.43652868270874,64.2461929321289,-12.0,-24.8873233795166,-14.06591510772705,-10.0,0.0,628.8027954101562,111.39436340332031,20.015417098999023,3.545792818069458,0.7091584801673889,20.72457504272461,62.04779052734375,2.1983914375305176,0.036016613245010376,207.3943634033203,318.774658203125,494.4788818359375,384.6337890625,153.02816772460938,82.81690216064453,234.43191528320312,1.0,0.0007633873610757291,0.03454095870256424,0.8241313695907593,0.34565725922584534,0.531291127204895,0.39071986079216003,1.0
env_steps,43504,72,72,66,43502,0.8593888000000001,0.2112080454826355,0.1756245344877243,0.2637743353843689,0.45430248975753784,1.8743048906326294,2219,3.331925868988037,0.4585097134113312,0.0,600.0,0.6179746389389038,2.234328508377075,427.6562194824219,8.101898193359375,243.4047088623047,0.0,0.0,2.234328508377075,2.234328508377075,0.0,0.0,8.101898193359375,7.77564811706543,0.32624998688697815,0.14942128956317902,0.14942128956317902,6.043819427490234,4.475317478179932,64.24414825439453,-12.0,-24.85333251953125,-14.05888843536377,-10.0,0.0,628.75,111.55555725097656,20.013734817504883,3.5509235858917236,0.7101847529411316,20.723918914794922,62.04257583618164,2.2015726566314697,0.03604234755039215,207.11111450195312,319.3333435058594,494.6388854980469,384.4305419921875,152.9583282470703,82.77777862548828,234.31483459472656,1.0,0.0007641828851774335,0.03453986346721649,0.8243981599807739,0.34518516063690186,0.5322222113609314,0.390524685382843,1.0
env_steps,44000,73,73,67,43998,0.8577850666666667,0.3573000729084015,0.15147319436073303,0.09776441752910614,0.6225683093070984,2.174593687057495,2250,3.114102840423584,0.45737671852111816,0.0,600.0,0.6182617545127869,2.2400455474853516,426.78924560546875,8.085707664489746,242.1846160888672,0.0,0.0,2.2400455474853516,2.2400455474853516,0.0,0.0,8.085707664489746,7.763926982879639,0.32178083062171936,0.14737442135810852,0.14737442135810852,6.014771938323975,4.451737880706787,63.965606689453125,-12.0,-24.800546646118164,-14.050958633422852,-10.0,0.0,625.986328125,111.2602767944336,19.925762176513672,3.5415244102478027,0.7083048820495605,20.63406753540039,61.769866943359375,2.1957452297210693,0.036102715879678726,206.67123413085938,320.4794616699219,494.97259521484375,384.3013610839844,152.79452514648438,82.72602844238281,234.1826629638672,1.0,0.0007622945122420788,0.03439011424779892,0.8249543309211731,0.34445202350616455,0.5341324210166931,0.39030441641807556,1.0
env_steps,44512,74,74,68,44510,0.8561296,0.348818838596344,0.09828148037195206,0.289892315864563,0.6317504644393921,2.5446600914001465,2282,3.2959158420562744,0.45816487073898315,0.0,600.0,0.6180914044380188,2.2576351165771484,428.1167297363281,8.134797096252441,241.46853637695312,0.0,0.0,2.2576351165771484,2.2576351165771484,0.0,0.0,8.134797096252441,7.815472602844238,0.3193243145942688,0.14617116749286652,0.14617116749286652,6.01779317855835,4.445793151855469,64.1202392578125,-12.0,-24.775135040283203,-14.049189567565918,-10.0,0.0,627.5134887695312,111.45945739746094,19.974374771118164,3.5478646755218506,0.7095729112625122,20.683948516845703,61.920562744140625,2.199676036834717,0.03606045991182327,206.45945739746094,320.5,494.9053955078125,384.3783874511719,152.81080627441406,82.6351318359375,234.15316772460938,1.0,0.000763608084525913,0.034473247826099396,0.8248423337936401,0.3440990746021271,0.5341666340827942,0.39025527238845825,1.0
env_steps,45008,75,75,69,45006,0.8545258666666666,0.4208035469055176,0.25368732213974,0.32246148586273193,0.6990222334861755,2.331977128982544,2313,3.9511327743530273,0.46124935150146484,0.0,600.0,0.6170604228973389,2.2783334255218506,429.7845764160156,8.172443389892578,240.65234375,0.0,0.0,2.2783334255218506,2.2783334255218506,0.0,0.0,8.172443389892578,7.856888771057129,0.31555554270744324,0.14451110363006592,0.14451110363006592,6.032711029052734,4.43335485458374,64.73886108398438,-12.0,-24.74720001220703,-14.040534019470215,-10.0,0.0,633.693359375,111.90666961669922,20.171085357666016,3.5620996952056885,0.7124199271202087,20.883506774902344,62.530364990234375,2.2085018157958984,0.035924892872571945,206.22666931152344,319.6666564941406,494.32000732421875,384.0666809082031,152.65333557128906,82.65333557128906,234.0089111328125,1.0,0.0007687488687224686,0.034805845469236374,0.8238666653633118,0.34371107816696167,0.5327777862548828,0.3900148272514343,1.0
env_steps,45504,75,75,69,45502,0.8529221333333333,0.42111021280288696,0.051792968064546585,0.17519767582416534,0.6812145113945007,1.729782223701477,2344,3.9511327743530273,0.46124935150146484,0.0,600.0,0.6170604228973389,2.2783334255218506,429.7845764160156,8.172443389892578,240.65234375,0.0,0.0,2.2783334255218506,2.2783334255218506,0.0,0.0,8.172443389892578,7.856888771057129,0.31555554270744324,0.14451110363006592,0.14451110363006592,6.032711029052734,4.43335485458374,64.73886108398438,-12.0,-24.74720001220703,-14.040534019470215,-10.0,0.0,633.693359375,111.90666961669922,20.171085357666016,3.5620996952056885,0.7124199271202087,20.883506774902344,62.530364990234375,2.2085018157958984,0.035924892872571945,206.22666931152344,319.6666564941406,494.32000732421875,384.0666809082031,152.65333557128906,82.65333557128906,234.0089111328125,1.0,0.0007687488687224686,0.034805845469236374,0.8238666653633118,0.34371107816696167,0.5327777862548828,0.3900148272514343,1.0
env_steps,46000,76,76,70,45998,0.8513184,0.26652801036834717,0.054198481142520905,0.24818027019500732,0.5140786170959473,3.1720874309539795,2375,4.281630992889404,0.46326974034309387,0.0,600.0,0.6162973046302795,2.2888596057891846,430.9236145019531,8.183880805969238,239.76844787597656,0.0,0.0,2.2888596057891846,2.2888596057891846,0.0,0.0,8.183880805969238,7.8723249435424805,0.31155702471733093,0.142763152718544,0.142763152718544,6.0184431076049805,4.416536331176758,65.05504608154297,-12.0,-24.73263168334961,-14.040790557861328,-10.0,0.0,636.8552856445312,112.11842346191406,20.2717342376709,3.5688400268554688,0.7137680053710938,20.98550033569336,62.842369079589844,2.2126808166503906,0.035826634615659714,206.1052703857422,319.9473571777344,494.09210205078125,384.0789489746094,152.69737243652344,82.63157653808594,234.01318359375,1.0,0.0007721162401139736,0.03497583791613579,0.8234868049621582,0.3435087502002716,0.5332455635070801,0.390021950006485,1.0
env_steps,46512,77,77,71,46510,0.8496629333333333,0.20014150440692902,0.13673707842826843,0.09157045185565948,0.4611819386482239,2.0944244861602783,2407,4.243100643157959,0.4626389443874359,0.0,600.0,0.6166993379592896,2.2815802097320557,433.4930114746094,8.18575668334961,241.53150939941406,0.0,0.0,2.2815802097320557,2.2815802097320557,0.0,0.0,8.18575668334961,7.8781819343566895,0.3075757324695587,0.1409740149974823,0.1409740149974823,6.029480934143066,4.424968719482422,65.02828979492188,-12.0,-24.732467651367188,-14.052727699279785,-10.0,0.0,636.6104125976562,111.98701477050781,20.263938903808594,3.564657211303711,0.7129314541816711,20.976869583129883,62.818206787109375,2.210087299346924,0.035776350647211075,206.10389709472656,321.1558532714844,494.4415588378906,384.24676513671875,152.64935302734375,82.87013244628906,234.212158203125,1.0,0.0007710649515502155,0.03496145084500313,0.8240692615509033,0.34350648522377014,0.5352596640586853,0.39035356044769287,1.0
env_steps,47008,78,78,72,47006,0.8480592,0.5092178583145142,0.29786041378974915,0.11647866666316986,0.8205714225769043,3.120676279067993,2438,4.438464641571045,0.463521808385849,0.0,600.0,0.6166431307792664,2.2794229984283447,433.84674072265625,8.176003456115723,241.49636840820312,0.0,0.0,2.2794229984283447,2.2794229984283447,0.0,0.0,8.176003456115723,7.872265338897705,0.3037393093109131,0.1392734944820404,0.1392734944820404,6.00942325592041,4.418940544128418,65.2251205444336,-12.0,-24.727691650390625,-14.058975219726562,-10.0,0.0,638.6538696289062,111.74359130859375,20.328983306884766,3.5569090843200684,0.7113817930221558,21.04036521911621,63.01985168457031,2.2052834033966064,0.035610415041446686,206.06410217285156,321.025634765625,494.3846130371094,384.21795654296875,153.0128173828125,82.85897064208984,234.3162841796875,1.0,0.0007725363248027861,0.035067278891801834,0.8239743113517761,0.34344014525413513,0.5350427031517029,0.3905270993709564,1.0
env_steps,47504,79,79,73,47502,0.8464554666666666,0.167974591255188,0.05964896082878113,-0.025560442358255386,0.4297528862953186,2.3235788345336914,2469,4.543219566345215,0.46425318717956543,0.0,600.0,0.6167356967926025,2.264599084854126,435.7842102050781,8.201159477233887,245.38815307617188,0.0,0.0,2.264599084854126,2.264599084854126,0.0,0.0,8.201159477233887,7.873902797698975,0.327257364988327,0.14898733794689178,0.14898733794689178,6.060633182525635,4.483479022979736,65.34852600097656,-12.0,-24.73670768737793,-14.068608283996582,-10.0,0.0,639.8987426757812,111.77214813232422,20.368610382080078,3.5578181743621826,0.7115635871887207,21.08017349243164,63.1426887512207,2.2058470249176025,0.035539496690034866,206.1392364501953,321.0759582519531,494.4050598144531,384.39239501953125,153.06329345703125,82.98734283447266,234.47683715820312,1.0,0.000773755309637636,0.03513362258672714,0.8240084052085876,0.3435653746128082,0.5351265668869019,0.39079469442367554,1.0
env_steps,48000,80,80,74,48000,0.8448517333333334,0.1912170797586441,0.025613032281398773,0.0964968204498291,0.4330654740333557,2.0006234645843506,2500,4.4251813888549805,0.4640837609767914,0.0,600.0,0.6168469190597534,2.2568747997283936,433.4759826660156,8.168645858764648,244.3928680419922,0.0,0.0,2.2568747997283936,2.2568747997283936,0.0,0.0,8.168645858764648,7.8454790115356445,0.3231666684150696,0.1471250057220459,0.1471250057220459,6.045750141143799,4.475241184234619,65.22093200683594,-12.0,-24.735000610351562,-14.060750961303711,-10.0,0.0,638.5499877929688,112.05000305175781,20.3256778717041,3.566662311553955,0.71333247423172,21.039011001586914,63.00960159301758,2.2113308906555176,0.03569474816322327,206.125,322.1499938964844,494.6625061035156,384.20001220703125,153.03750610351562,82.9000015258789,234.3458251953125,1.0,0.0007734728860668838,0.03506501391530037,0.8244374990463257,0.34354168176651,0.5369166135787964,0.39057639241218567,1.0
env_steps,48512,80,80,74,48510,0.8431962666666667,0.24770525097846985,0.12340477108955383,0.1718970090150833,0.5344773530960083,1.9961777925491333,2532,4.4251813888549805,0.4640837609767914,0.0,600.0,0.6168469190597534,2.2568747997283936,433.4759826660156,8.168645858764648,244.3928680419922,0.0,0.0,2.2568747997283936,2.2568747997283936,0.0,0.0,8.168645858764648,7.8454790115356445,0.3231666684150696,0.1471250057220459,0.1471250057220459,6.045750141143799,4.475241184234619,65.22093200683594,-12.0,-24.735000610351562,-14.060750961303711,-10.0,0.0,638.5499877929688,112.05000305175781,20.3256778717041,3.566662311553955,0.71333247423172,21.039011001586914,63.00960159301758,2.2113308906555176,0.03569474816322327,206.125,322.1499938964844,494.6625061035156,384.20001220703125,153.03750610351562,82.9000015258789,234.3458251953125,1.0,0.0007734728860668838,0.03506501391530037,0.8244374990463257,0.34354168176651,0.5369166135787964,0.39057639241218567,1.0
env_steps,49008,81,81,75,49006,0.8415925333333334,0.332901269197464,0.0019383179023861885,0.14235317707061768,0.583825945854187,1.4635881185531616,2563,4.250627040863037,0.46295928955078125,0.0,600.0,0.6172428131103516,2.2606582641601562,433.1148376464844,8.170968055725098,243.62266540527344,0.0,0.0,2.2606582641601562,2.2606582641601562,0.0,0.0,8.170968055725098,7.850390911102295,0.32057610154151917,0.14670783281326294,0.14670783281326294,6.035740375518799,4.466094017028809,65.05408477783203,-12.0,-24.739259719848633,-14.06419849395752,-10.0,0.0,636.8641967773438,112.02468872070312,20.272016525268555,3.565856456756592,0.7131713628768921,20.98518943786621,62.8432502746582,2.2108311653137207,0.035772401839494705,206.16049194335938,322.0246887207031,494.6666564941406,384.3333435058594,153.07408142089844,82.90123748779297,234.40328979492188,1.0,0.000771598715800792,0.034975312650203705,0.8244444131851196,0.3436008393764496,0.5367078185081482,0.39067214727401733,1.0
env_steps,49504,82,82,76,49502,0.8399888,0.2474166750907898,-0.029831944033503532,0.04004254192113876,0.513321042060852,2.294654607772827,2594,4.120577335357666,0.4623878300189972,0.0,600.0,0.6175073981285095,2.264816999435425,431.82513427734375,8.210041046142578,242.5199432373047,0.0,0.0,2.264816999435425,2.264816999435425,0.0,0.0,8.210041046142578,7.88160514831543,0.32843494415283203,0.14963415265083313,0.14963415265083313,6.06941032409668,4.473154544830322,64.9637451171875,-12.0,-24.77121925354004,-14.071951866149902,-10.0,0.0,635.9024658203125,112.25609588623047,20.241403579711914,3.5732223987579346,0.7146445512771606,20.9560489654541,62.74834442138672,2.215398073196411,0.03588307648897171,206.4268341064453,322.6585388183594,494.9024353027344,384.51220703125,153.06097412109375,83.01219177246094,234.5325164794922,1.0,0.0007706462638452649,0.03492674231529236,0.8248373866081238,0.3440447151660919,0.5377641916275024,0.3908875286579132,1.0
env_steps,50000,83,83,77,49998,0.8383850666666667,0.4238220155239105,0.1790248304605484,0.28981584310531616,0.7037843465805054,2.6260058879852295,2625,3.8651976585388184,0.4608987867832184,0.0,600.0,0.6186676621437073,2.2674295902252197,432.7247619628906,8.217028617858887,242.44091796875,0.0,0.0,2.2674295902252197,2.2674295902252197,0.0,0.0,8.217028617858887,7.892208099365234,0.32481926679611206,0.14817270636558533,0.14817270636558533,6.059698581695557,4.467597484588623,64.69821166992188,-12.0,-24.76337432861328,-14.069639205932617,-10.0,0.0,633.313232421875,111.74698638916016,20.158987045288086,3.5570170879364014,0.7114034295082092,20.870389938354492,62.49285125732422,2.205350875854492,0.03583851084113121,206.3614501953125,323.1686706542969,495.2530212402344,384.4337463378906,152.80723571777344,83.1204833984375,234.4939727783203,1.0,0.0007681645802222192,0.0347839817404747,0.8254216909408569,0.3439357280731201,0.5386144518852234,0.39082327485084534,1.0
env_steps,50512,84,84,78,50510,0.8367296,0.31610310077667236,0.011645115911960602,0.07143734395503998,0.5903778672218323,2.1859657764434814,2657,4.153095245361328,0.4625464379787445,0.0,600.0,0.6182552576065063,2.2699007987976074,432.0336608886719,8.20127010345459,241.44290161132812,0.0,0.0,2.2699007987976074,2.2699007987976074,0.0,0.0,8.20127010345459,7.880316734313965,0.3209523558616638,0.14640873670578003,0.14640873670578003,6.028849124908447,4.448886394500732,65.00286102294922,-12.0,-24.7742862701416,-14.075477600097656,-10.0,0.0,636.3333129882812,112.08333587646484,20.25511932373047,3.567723274230957,0.7135446667671204,20.968664169311523,62.790863037109375,2.2119884490966797,0.035776156932115555,206.45237731933594,322.6428527832031,494.98809814453125,384.5714416503906,152.89285278320312,83.1547622680664,234.5912628173828,1.0,0.000770910584833473,0.034947771579027176,0.8249801397323608,0.34408727288246155,0.5377380847930908,0.3909854292869568,1.0
env_steps,51008,85,85,79,51006,0.8351258666666667,0.19573847949504852,-0.16540850698947906,-0.015002715401351452,0.4267081916332245,1.8991835117340088,2688,4.344506740570068,0.46373412013053894,0.0,600.0,0.6176372170448303,2.278686046600342,431.8590087890625,8.206490516662598,240.40829467773438,0.0,0.0,2.278686046600342,2.278686046600342,0.0,0.0,8.206490516662598,7.889313220977783,0.3171764612197876,0.1446862816810608,0.1446862816810608,6.030431270599365,4.430840015411377,65.1823959350586,-12.0,-24.763763427734375,-14.074118614196777,-10.0,0.0,638.11767578125,112.25882720947266,20.31191635131836,3.5733094215393066,0.7146618366241455,21.026578903198242,62.96693420410156,2.215451955795288,0.03572263568639755,206.3647003173828,323.04705810546875,494.9294128417969,384.5058898925781,153.05882263183594,83.07058715820312,234.56861877441406,1.0,0.0007728901109658182,0.035044290125370026,0.8248823285102844,0.3439411520957947,0.5384117364883423,0.39094772934913635,1.0
env_steps,51504,85,85,79,51502,0.8335221333333334,0.25690481066703796,0.0035687489435076714,-0.03904513642191887,0.5134391188621521,1.3037981986999512,2719,4.344506740570068,0.46373412013053894,0.0,600.0,0.6176372170448303,2.278686046600342,431.8590087890625,8.206490516662598,240.40829467773438,0.0,0.0,2.278686046600342,2.278686046600342,0.0,0.0,8.206490516662598,7.889313220977783,0.3171764612197876,0.1446862816810608,0.1446862816810608,6.030431270599365,4.430840015411377,65.1823959350586,-12.0,-24.763763427734375,-14.074118614196777,-10.0,0.0,638.11767578125,112.25882720947266,20.31191635131836,3.5733094215393066,0.7146618366241455,21.026578903198242,62.96693420410156,2.215451955795288,0.03572263568639755,206.3647003173828,323.04705810546875,494.9294128417969,384.5058898925781,153.05882263183594,83.07058715820312,234.56861877441406,1.0,0.0007728901109658182,0.035044290125370026,0.8248823285102844,0.3439411520957947,0.5384117364883423,0.39094772934913635,1.0
env_steps,52000,86,86,80,51998,0.8319184,0.3761169910430908,0.08239492028951645,0.12297388166189194,0.6532362103462219,2.0917551517486572,2750,4.341378688812256,0.464048832654953,0.0,600.0,0.6179042458534241,2.2801742553710938,432.19305419921875,8.200348854064941,239.86941528320312,0.0,0.0,2.2801742553710938,2.2801742553710938,0.0,0.0,8.200348854064941,7.886510848999023,0.3138372004032135,0.1433333456516266,0.1433333456516266,6.013216972351074,4.416876792907715,65.20835876464844,-12.0,-24.789766311645508,-14.07720947265625,-10.0,0.0,638.31396484375,112.59302520751953,20.31816291809082,3.58394718170166,0.7167894244194031,21.034954071044922,62.986305236816406,2.2220475673675537,0.03578721731901169,206.58139038085938,322.9883728027344,494.8604736328125,384.593017578125,153.03488159179688,83.11627960205078,234.62013244628906,1.0,0.0007734146201983094,0.03505825251340866,0.8247674703598022,0.34430229663848877,0.5383139252662659,0.3910336196422577,1.0
env_steps,52512,87,87,81,52510,0.8302629333333333,0.20648041367530823,0.08309219777584076,0.19632630050182343,0.4594959616661072,1.9145337343215942,2782,4.146063327789307,0.4635322093963623,0.0,600.0,0.617916464805603,2.270421266555786,431.8185119628906,8.201130867004395,240.80812072753906,0.0,0.0,2.270421266555786,2.270421266555786,0.0,0.0,8.201130867004395,7.886340141296387,0.3147892653942108,0.14624522626399994,0.14624522626399994,6.031992435455322,4.440543174743652,65.05089569091797,-12.0,-24.820688247680664,-14.084138870239258,-10.0,0.0,636.7471313476562,112.44827270507812,20.26828956604004,3.5793397426605225,0.7158679366111755,20.984159469604492,62.831695556640625,2.219190835952759,0.0358162596821785,206.83908081054688,323.9884948730469,495.1609191894531,384.6436767578125,152.94253540039062,83.31034851074219,234.73561096191406,1.0,0.0007725535542704165,0.034973595291376114,0.8252682089805603,0.34473177790641785,0.5399808287620544,0.39122605323791504,1.0
env_steps,53008,88,88,82,53006,0.8286592,0.3568178415298462,0.17359060049057007,-0.007222812622785568,0.6308560967445374,2.964951753616333,2813,4.018490314483643,0.4629829525947571,0.0,600.0,0.6177393198013306,2.2721590995788574,430.7401428222656,8.174412727355957,239.60838317871094,0.0,0.0,2.2721590995788574,2.2721590995788574,0.0,0.0,8.174412727355957,7.863200664520264,0.31121212244033813,0.1445833295583725,0.1445833295583725,6.007272720336914,4.417799472808838,64.938720703125,-12.0,-24.833179473876953,-14.087044715881348,-10.0,0.0,635.5681762695312,112.65908813476562,20.230762481689453,3.586050271987915,0.717210054397583,20.947973251342773,62.71536636352539,2.223351240158081,0.035941675305366516,206.94317626953125,324.0227355957031,495.1136474609375,384.7272644042969,152.85227966308594,83.38636016845703,234.78408813476562,1.0,0.0007716381805948913,0.03491329029202461,0.8251894116401672,0.344905287027359,0.5400378704071045,0.39130687713623047,1.0
env_steps,53504,89,89,83,53502,0.8270554666666667,0.2385527789592743,0.06910842657089233,-0.11691708862781525,0.4983353912830353,1.9553072452545166,2844,3.9280033111572266,0.4628797769546509,0.0,600.0,0.6186879277229309,2.277209758758545,431.110107421875,8.180599212646484,238.87493896484375,0.0,0.0,2.277209758758545,2.277209758758545,0.0,0.0,8.180599212646484,7.8728837966918945,0.30771535634994507,0.14295880496501923,0.14295880496501923,6.0183329582214355,4.405989170074463,64.87474822998047,-12.0,-24.85213279724121,-14.094605445861816,-10.0,0.0,634.9775390625,112.37078857421875,20.21196174621582,3.5768730640411377,0.7153746485710144,20.927335739135742,62.65708541870117,2.2176613807678223,0.03586346283555031,207.1011199951172,324.9775390625,495.40447998046875,384.8426818847656,152.8988800048828,83.494384765625,234.9101104736328,1.0,0.000771466176956892,0.03487889841198921,0.8256741762161255,0.3451685309410095,0.5416292548179626,0.39151692390441895,1.0
env_steps,54000,90,90,84,54000,0.8254517333333333,0.4253019094467163,0.14510825276374817,0.010867457836866379,0.7063819169998169,2.396587371826172,2875,3.861762046813965,0.46243223547935486,0.0,600.0,0.6185616254806519,2.269796133041382,429.72100830078125,8.18205451965332,238.7939453125,0.0,0.0,2.269796133041382,2.269796133041382,0.0,0.0,8.18205451965332,7.877740383148193,0.30431482195854187,0.1413888931274414,0.1413888931274414,6.035536766052246,4.421835899353027,64.82776641845703,-12.0,-24.86933135986328,-14.09666633605957,-10.0,0.0,634.4888916015625,112.43333435058594,20.196409225463867,3.5788638591766357,0.7157728672027588,20.912181854248047,62.608863830566406,2.21889591217041,0.03589163348078728,207.24444580078125,325.5111083984375,495.5555419921875,384.9888916015625,152.88888549804688,83.47777557373047,234.94444274902344,1.0,0.0007707202457822859,0.03485363721847534,0.8259259462356567,0.3454073965549469,0.5425185561180115,0.3915741443634033,1.0
env_steps,54512,90,90,84,54510,0.8237962666666667,0.3298392593860626,-0.027724578976631165,-0.17334572970867157,0.5879939794540405,2.4166758060455322,2907,3.861762046813965,0.46243223547935486,0.0,600.0,0.6185616254806519,2.269796133041382,429.72100830078125,8.18205451965332,238.7939453125,0.0,0.0,2.269796133041382,2.269796133041382,0.0,0.0,8.18205451965332,7.877740383148193,0.30431482195854187,0.1413888931274414,0.1413888931274414,6.035536766052246,4.421835899353027,64.82776641845703,-12.0,-24.86933135986328,-14.09666633605957,-10.0,0.0,634.4888916015625,112.43333435058594,20.196409225463867,3.5788638591766357,0.7157728672027588,20.912181854248047,62.608863830566406,2.21889591217041,0.03589163348078728,207.24444580078125,325.5111083984375,495.5555419921875,384.9888916015625,152.88888549804688,83.47777557373047,234.94444274902344,1.0,0.0007707202457822859,0.03485363721847534,0.8259259462356567,0.3454073965549469,0.5425185561180115,0.3915741443634033,1.0
env_steps,55008,91,91,85,55006,0.8221925333333333,0.23658066987991333,0.03938666731119156,-0.049364183098077774,0.49068188667297363,1.6212363243103027,2938,4.030409812927246,0.46340879797935486,0.0,600.0,0.6180358529090881,2.2785897254943848,430.49627685546875,8.202692031860352,238.05763244628906,0.0,0.0,2.2785897254943848,2.2785897254943848,0.0,0.0,8.202692031860352,7.901721477508545,0.3009707033634186,0.1398351639509201,0.1398351639509201,6.025989055633545,4.4121174812316895,64.99282836914062,-12.0,-24.874282836914062,-14.088130950927734,-10.0,0.0,636.076904296875,112.85713958740234,20.246957778930664,3.5923542976379395,0.7184708714485168,20.965429306030273,62.765567779541016,2.227259635925293,0.03590733930468559,207.2857208251953,325.5494384765625,495.4285583496094,384.8241882324219,152.7912139892578,83.3956069946289,234.8022003173828,1.0,0.0007723479066044092,0.0349423848092556,0.8257142901420593,0.3454761803150177,0.5425823926925659,0.3913370370864868,1.0
env_steps,55504,92,92,86,55502,0.8205888,0.25448668003082275,-0.0032955780625343323,0.16404995322227478,0.50309157371521,2.259530544281006,2969,3.7814507484436035,0.46185651421546936,0.0,600.0,0.6191311478614807,2.2652716636657715,428.81268310546875,8.201810836791992,238.36907958984375,0.0,0.0,2.2652716636657715,2.2652716636657715,0.0,0.0,8.201810836791992,7.902481555938721,0.2993297278881073,0.13994565606117249,0.13994565606117249,6.04818868637085,4.449558258056641,64.7188491821289,-12.0,-24.84521484375,-14.092172622680664,-10.0,0.0,633.3912963867188,112.40217590332031,20.161470413208008,3.5778722763061523,0.7155745029449463,20.877046585083008,62.50055694580078,2.218280792236328,0.035899847745895386,207.04347229003906,326.90216064453125,495.84783935546875,384.8369445800781,152.8586883544922,83.4565200805664,234.86956787109375,1.0,0.0007697608089074492,0.03479507938027382,0.8264130353927612,0.3450724482536316,0.5448369383811951,0.39144936203956604,1.0
