dk0113-Y/DRL-path-finding/experiment_records/full_method_main/A_full_method/train_steps.csv
budget_mode,env_steps,episode_idx,train_episode_idx,completed_train_episodes,replay_size,epsilon,loss,q_mean,target_q_mean,td_abs_mean,grad_norm,learner_steps,recent_mean_reward,recent_mean_coverage,recent_success_rate,recent_mean_episode_length,recent_mean_repeat_visit_ratio,recent_accessible_block_count,recent_total_accessible_unknown_area,recent_total_frontier_cluster_count,recent_mean_block_area,recent_local_frontier_coverage,recent_local_frontier_block_area_mean,recent_value_total_block_count_before_cap,recent_value_packed_block_count,recent_value_truncated_block_count,recent_value_block_cap_hit_flag,recent_value_total_entry_count_before_cap,recent_value_packed_entry_count,recent_value_truncated_entry_count,recent_value_entry_cap_hit_block_count,recent_value_entry_cap_hit_flag,recent_value_max_frontier_clusters_per_block,recent_value_mean_frontier_clusters_per_block,recent_info_reward_sum,recent_step_penalty_sum,recent_recent_revisit_penalty_sum,recent_turn_penalty_sum,recent_timeout_penalty_sum,recent_terminal_bonus_sum,recent_delta_empty_sum,recent_delta_obstacle_sum,recent_empty_info_gain_sum,recent_obstacle_info_gain_sum,recent_weighted_obstacle_info_gain_sum,recent_weighted_info_gain_sum,recent_empty_info_reward_sum,recent_obstacle_info_reward_sum,recent_obstacle_info_contribution_ratio,recent_recent_revisit_trigger_count,recent_stall_trigger_count,recent_zero_info_step_count,recent_turn_ge_90_count,recent_turn_135_count,recent_turn_180_count,recent_turn_penalty_weight_sum,recent_timeout_flag,recent_coverage_gain_per_step,recent_weighted_info_gain_per_step,recent_zero_info_rate,recent_recent_revisit_rate,recent_stall_rate,recent_turn_burden_rate,recent_timeout_rate
env_steps,4512,7,7,1,4510,0.9854629333333333,nan,nan,nan,nan,nan,0,4.2396159172058105,0.4578857123851776,0.0,600.0,0.6256240010261536,2.251666784286499,422.25567626953125,8.57880973815918,240.77197265625,0.0,0.0,2.251666784286499,2.251666784286499,0.0,0.0,8.57880973815918,8.25190544128418,0.3269047737121582,0.18333332240581512,0.18333332240581512,6.148333549499512,4.747210502624512,64.76532745361328,-12.0,-24.531429290771484,-13.994285583496094,-10.0,0.0,634.7142944335938,108.14286041259766,20.203582763671875,3.442293882369995,0.6884588003158569,20.892044067382812,62.631103515625,2.1342222690582275,0.033234018832445145,204.42857360839844,307.71429443359375,491.71429443359375,384.5714416503906,155.7142791748047,79.71428680419922,233.2381134033203,1.0,0.0007631428306922317,0.0348200686275959,0.819523811340332,0.3407142758369446,0.5128571391105652,0.38873013854026794,1.0
env_steps,5008,8,8,2,5006,0.9838592,nan,nan,nan,nan,nan,0,-3.1178276538848877,0.42249998450279236,0.0,600.0,0.6537021398544312,2.222083330154419,402.1370849609375,8.3125,226.92947387695312,0.0,0.0,2.222083330154419,2.222083330154419,0.0,0.0,8.3125,8.026458740234375,0.2860416769981384,0.16041666269302368,0.16041666269302368,5.892292022705078,4.554416656494141,58.15967559814453,-12.0,-25.095001220703125,-14.182499885559082,-10.0,0.0,569.0,102.0,18.111831665039062,3.246760845184326,0.6493521928787231,18.761184692382812,56.14668273925781,2.0129916667938232,0.041290029883384705,209.125,330.75,500.75,389.125,158.5,80.75,236.375,1.0,0.0007041666540317237,0.0312686413526535,0.8345832824707031,0.3485416769981384,0.5512499809265137,0.39395833015441895,1.0
env_steps,5504,9,9,3,5502,0.9822554666666666,nan,nan,nan,nan,nan,0,-3.429028272628784,0.4210222065448761,0.0,600.0,0.6491033434867859,2.0868518352508545,414.89166259765625,7.875741004943848,259.1180419921875,0.0,0.0,2.0868518352508545,2.0868518352508545,0.0,0.0,7.875741004943848,7.6209259033203125,0.25481483340263367,0.14314813911914825,0.14314813911914825,5.723889350891113,4.534450531005859,57.64875030517578,-12.0,-24.97333526611328,-14.10444450378418,-10.0,0.0,564.3333129882812,99.44444274902344,17.963287353515625,3.165415048599243,0.6330830454826355,18.596370697021484,55.686195373535156,1.962557315826416,0.039936505258083344,208.11111450195312,333.3333435058594,501.3333435058594,388.0,159.6666717529297,78.77777862548828,235.07408142089844,1.0,0.0007017037132754922,0.030993951484560966,0.8355554938316345,0.3468518555164337,0.5555555820465088,0.39179012179374695,1.0
env_steps,6000,10,10,4,6000,0.9806517333333333,nan,nan,nan,nan,nan,0,-4.047141075134277,0.41547998785972595,0.0,600.0,0.6505823731422424,1.9981666803359985,430.67230224609375,7.933667182922363,284.51885986328125,0.0,0.0,1.9981666803359985,1.9981666803359985,0.0,0.0,7.933667182922363,7.6514997482299805,0.28216665983200073,0.17800000309944153,0.17800000309944153,5.976500511169434,4.842700004577637,57.176856994628906,-12.0,-25.06800079345703,-14.156000137329102,-10.0,0.0,559.7000122070312,98.69999694824219,17.81580352783203,3.141718626022339,0.6283437013626099,18.444149017333984,55.22899627685547,1.9478654861450195,0.03937313333153725,208.89999389648438,331.3999938964844,501.6000061035156,388.79998779296875,160.0,79.5,235.933349609375,1.0,0.0006924666231498122,0.030740246176719666,0.8359999656677246,0.34816664457321167,0.5523333549499512,0.39322224259376526,1.0
env_steps,6512,10,10,4,6510,0.9789962666666666,nan,nan,nan,nan,nan,0,-4.047141075134277,0.41547998785972595,0.0,600.0,0.6505823731422424,1.9981666803359985,430.67230224609375,7.933667182922363,284.51885986328125,0.0,0.0,1.9981666803359985,1.9981666803359985,0.0,0.0,7.933667182922363,7.6514997482299805,0.28216665983200073,0.17800000309944153,0.17800000309944153,5.976500511169434,4.842700004577637,57.176856994628906,-12.0,-25.06800079345703,-14.156000137329102,-10.0,0.0,559.7000122070312,98.69999694824219,17.81580352783203,3.141718626022339,0.6283437013626099,18.444149017333984,55.22899627685547,1.9478654861450195,0.03937313333153725,208.89999389648438,331.3999938964844,501.6000061035156,388.79998779296875,160.0,79.5,235.933349609375,1.0,0.0006924666231498122,0.030740246176719666,0.8359999656677246,0.34816664457321167,0.5523333549499512,0.39322224259376526,1.0
env_steps,7008,11,11,5,7006,0.9773925333333333,nan,nan,nan,nan,nan,0,-5.4111528396606445,0.4106999635696411,0.0,600.0,0.6531538367271423,1.9950000047683716,430.18817138671875,7.7598490715026855,278.6434326171875,0.0,0.0,1.9950000047683716,1.9950000047683716,0.0,0.0,7.7598490715026855,7.503333568572998,0.25651514530181885,0.16181817650794983,0.16181817650794983,5.781970024108887,4.686368465423584,55.985206604003906,-12.0,-25.221818923950195,-14.174545288085938,-10.0,0.0,548.1818237304688,95.90908813476562,17.449169158935547,3.0528814792633057,0.6105762124061584,18.05974578857422,54.092430114746094,1.8927863836288452,0.03856214880943298,210.18182373046875,338.6363525390625,503.81817626953125,388.3636474609375,159.63636779785156,80.36363983154297,236.242431640625,1.0,0.0006844999734312296,0.030099576339125633,0.8396969437599182,0.3503030240535736,0.564393937587738,0.39373740553855896,1.0
env_steps,7504,12,12,6,7502,0.9757888,nan,nan,nan,nan,nan,0,-5.87480354309082,0.4078749716281891,0.0,600.0,0.6522462964057922,1.9529166221618652,440.3363952636719,7.817083835601807,288.291748046875,0.0,0.0,1.9529166221618652,1.9529166221618652,0.0,0.0,7.817083835601807,7.5283331871032715,0.288750022649765,0.19611109793186188,0.19611109793186188,5.962778091430664,4.794657230377197,55.26352310180664,-12.0,-25.05000114440918,-14.088333129882812,-10.0,0.0,541.5,92.75,17.236478805541992,2.952324628829956,0.5904648303985596,17.82694435119629,53.4330940246582,1.8304409980773926,0.03736420348286629,208.75,341.9166564941406,505.1666564941406,387.0,158.75,79.33333587646484,234.80555725097656,1.0,0.000679791672155261,0.02971157617866993,0.8419444561004639,0.3479166328907013,0.569861114025116,0.3913426399230957,1.0
env_steps,8000,13,13,7,7998,0.9741850666666667,nan,nan,nan,nan,nan,0,-5.921056270599365,0.4066615104675293,0.0,600.0,0.6527582406997681,1.948076844215393,427.90179443359375,7.768077373504639,279.8653869628906,0.0,0.0,1.948076844215393,1.948076844215393,0.0,0.0,7.768077373504639,7.500256061553955,0.2678205370903015,0.18230769038200378,0.18230769038200378,5.939486980438232,4.768102169036865,55.46201705932617,-12.0,-25.25538444519043,-14.127692222595215,-10.0,0.0,543.4615478515625,93.0,17.298917770385742,2.960282325744629,0.592056393623352,17.890974044799805,53.626651763916016,1.8353748321533203,0.03700952231884003,210.46153259277344,336.69232177734375,504.0,387.4615478515625,158.15383911132812,80.38461303710938,235.46153259277344,1.0,0.0006777691887691617,0.02981829270720482,0.8400000333786011,0.35076919198036194,0.5611538290977478,0.3924359679222107,1.0
env_steps,8512,14,14,8,8510,0.9725296,0.21212509274482727,-0.16493132710456848,0.024281632155179977,0.428688108921051,0.8452926278114319,32,-7.428923606872559,0.3978285491466522,0.0,600.0,0.6561683416366577,1.9479761123657227,426.46820068359375,7.906310081481934,275.1338195800781,0.0,0.0,1.9479761123657227,1.9479761123657227,0.0,0.0,7.906310081481934,7.653809070587158,0.2524999976158142,0.17119047045707703,0.17119047045707703,6.050118923187256,4.789963722229004,53.90250015258789,-12.0,-25.165714263916016,-14.165715217590332,-10.0,0.0,527.7142944335938,92.71428680419922,16.797666549682617,2.9511876106262207,0.5902374982833862,17.38790512084961,52.072776794433594,1.8297361135482788,0.038096699863672256,209.7142791748047,338.8571472167969,505.28570556640625,388.78570556640625,159.64285278320312,79.92857360839844,236.09523010253906,1.0,0.0006630475982092321,0.028979841619729996,0.8421428799629211,0.34952378273010254,0.5647619366645813,0.3934921324253082,1.0
env_steps,9008,15,15,9,9006,0.9709258666666667,0.17640559375286102,-0.07230744510889053,-0.06184220686554909,0.428472638130188,0.8713201284408569,63,-7.5066237449646,0.39697328209877014,0.0,600.0,0.65324467420578,2.0142221450805664,425.3967590332031,8.19022274017334,268.46868896484375,0.0,0.0,2.0142221450805664,2.0142221450805664,0.0,0.0,8.19022274017334,7.93222188949585,0.2580000162124634,0.17899999022483826,0.17899999022483826,6.1695556640625,4.806136608123779,53.46137237548828,-12.0,-24.880001068115234,-14.088000297546387,-10.0,0.0,523.2000122070312,92.93333435058594,16.653972625732422,2.958160161972046,0.5916319489479065,17.24560546875,51.627323150634766,1.8340591192245483,0.03822803869843483,207.3333282470703,337.0,504.6666564941406,387.6000061035156,159.60000610351562,78.5999984741211,234.8000030517578,1.0,0.0006616221508011222,0.028742674738168716,0.8411111235618591,0.34555551409721375,0.5616666674613953,0.3913334012031555,1.0
env_steps,9504,15,15,9,9502,0.9693221333333333,0.16458266973495483,-0.2085612267255783,-0.055326126515865326,0.3991965651512146,0.964809238910675,94,-7.5066237449646,0.39697328209877014,0.0,600.0,0.65324467420578,2.0142221450805664,425.3967590332031,8.19022274017334,268.46868896484375,0.0,0.0,2.0142221450805664,2.0142221450805664,0.0,0.0,8.19022274017334,7.93222188949585,0.2580000162124634,0.17899999022483826,0.17899999022483826,6.1695556640625,4.806136608123779,53.46137237548828,-12.0,-24.880001068115234,-14.088000297546387,-10.0,0.0,523.2000122070312,92.93333435058594,16.653972625732422,2.958160161972046,0.5916319489479065,17.24560546875,51.627323150634766,1.8340591192245483,0.03822803869843483,207.3333282470703,337.0,504.6666564941406,387.6000061035156,159.60000610351562,78.5999984741211,234.8000030517578,1.0,0.0006616221508011222,0.028742674738168716,0.8411111235618591,0.34555551409721375,0.5616666674613953,0.3913334012031555,1.0
env_steps,10000,16,16,10,9998,0.9677184,0.18472442030906677,-0.11892431229352951,-0.10840611904859543,0.43551182746887207,0.9951369166374207,125,-4.738021373748779,0.4094812572002411,0.0,600.0,0.6459026336669922,1.990208387374878,429.0142517089844,8.122396469116211,273.25506591796875,0.0,0.0,1.990208387374878,1.990208387374878,0.0,0.0,8.122396469116211,7.879374980926514,0.24302083253860474,0.16843749582767487,0.16843749582767487,6.158749580383301,4.82356595993042,56.12447738647461,-12.0,-24.8174991607666,-14.045000076293945,-10.0,0.0,549.625,95.75,17.495105743408203,3.0478172302246094,0.609563410282135,18.104671478271484,54.234832763671875,1.8896465301513672,0.03761056438088417,206.8125,326.6875,500.6875,386.375,158.875,78.5,234.08334350585938,1.0,0.0006824687588959932,0.03017445094883442,0.8344791531562805,0.34468749165534973,0.5444791913032532,0.3901388645172119,1.0
env_steps,10512,17,17,11,10510,0.9660629333333334,0.18516717851161957,-0.20126751065254211,-0.03894864767789841,0.3949985206127167,0.9730197787284851,157,-4.358771800994873,0.4116882383823395,0.0,600.0,0.6443182229995728,2.0345096588134766,428.78753662109375,8.135001182556152,266.91973876953125,0.0,0.0,2.0345096588134766,2.0345096588134766,0.0,0.0,8.135001182556152,7.906274318695068,0.22872549295425415,0.1585294008255005,0.1585294008255005,6.081274032592773,4.728233814239502,56.3776969909668,-12.0,-24.748233795166016,-13.988235473632812,-10.0,0.0,551.88232421875,97.29412078857422,17.566959381103516,3.096967935562134,0.6193935871124268,18.186355590820312,54.45758056640625,1.9201200008392334,0.037741899490356445,206.23529052734375,323.941162109375,500.3529357910156,384.8235168457031,159.05882263183594,77.76470947265625,233.13726806640625,1.0,0.000686147075612098,0.03031059168279171,0.8339215517044067,0.3437254726886749,0.5399019718170166,0.38856205344200134,1.0
env_steps,11008,18,18,12,11006,0.9644592,0.13152512907981873,-0.32928532361984253,-0.2104167342185974,0.3518887460231781,1.2014691829681396,188,-4.526564121246338,0.40951111912727356,0.0,600.0,0.6431872844696045,1.9822221994400024,428.7418212890625,8.265277862548828,274.9666442871094,0.0,0.0,1.9822221994400024,1.9822221994400024,0.0,0.0,8.265277862548828,7.907869815826416,0.35740742087364197,0.19768518209457397,0.19768518209457397,6.31749963760376,5.024936676025391,56.140098571777344,-12.0,-24.69333267211914,-13.973333358764648,-10.0,0.0,549.388916015625,97.72222137451172,17.48758888244629,3.1105949878692627,0.6221189498901367,18.109710693359375,54.21153259277344,1.928568720817566,0.03785472363233566,205.77777099609375,324.4444580078125,500.9444580078125,384.27777099609375,159.05555725097656,77.66666412353516,232.88888549804688,1.0,0.0006825185846537352,0.03018285147845745,0.8349073529243469,0.34296295046806335,0.5407407283782959,0.38814812898635864,1.0
env_steps,11504,19,19,13,11502,0.9628554666666667,0.23945240676403046,-0.1237945631146431,0.04361382871866226,0.5020087957382202,1.637972354888916,219,-2.286121129989624,0.4188052713871002,0.0,600.0,0.6338558197021484,2.061929702758789,440.24322509765625,8.454386711120605,272.130126953125,0.0,0.0,2.061929702758789,2.061929702758789,0.0,0.0,8.454386711120605,8.114297866821289,0.3400877118110657,0.18868421018123627,0.18868421018123627,6.328508377075195,4.9651594161987305,58.042293548583984,-12.0,-24.416841506958008,-13.911579132080078,-10.0,0.0,567.9473876953125,101.31578826904297,18.078323364257812,3.2249817848205566,0.6449962854385376,18.72332191467285,56.042816162109375,1.9994885921478271,0.03773081302642822,203.4736785888672,320.631591796875,497.84210205078125,383.52630615234375,158.05262756347656,77.0,231.8596649169922,1.0,0.0006980088073760271,0.031205538660287857,0.8297368288040161,0.33912280201911926,0.5343859791755676,0.3864327371120453,1.0
env_steps,12000,20,20,14,12000,0.9612517333333334,0.12226580828428268,-0.06330617517232895,-0.10354293882846832,0.353640615940094,1.6423389911651611,250,-2.4384281635284424,0.4198950231075287,0.0,600.0,0.635024905204773,2.0196666717529297,439.2373046875,8.414834022521973,277.3527526855469,0.0,0.0,2.0196666717529297,2.0196666717529297,0.0,0.0,8.414834022521973,8.06725025177002,0.3475833535194397,0.19425000250339508,0.19425000250339508,6.354083061218262,5.051928997039795,57.943565368652344,-12.0,-24.44999885559082,-13.932001113891602,-10.0,0.0,567.1500244140625,100.30000305175781,18.05294418334961,3.192648410797119,0.6385295987129211,18.69147491455078,55.964134216308594,1.9794418811798096,0.03726982697844505,203.75,317.6000061035156,497.79998779296875,383.79998779296875,158.5,77.1500015258789,232.1999969482422,1.0,0.0006998250028118491,0.031152456998825073,0.8296666145324707,0.3395833373069763,0.5293333530426025,0.3869999647140503,1.0
env_steps,12512,20,20,14,12510,0.9595962666666666,0.2916181683540344,-0.08726204186677933,-0.14736807346343994,0.5263662338256836,1.740214228630066,282,-2.4384281635284424,0.4198950231075287,0.0,600.0,0.635024905204773,2.0196666717529297,439.2373046875,8.414834022521973,277.3527526855469,0.0,0.0,2.0196666717529297,2.0196666717529297,0.0,0.0,8.414834022521973,8.06725025177002,0.3475833535194397,0.19425000250339508,0.19425000250339508,6.354083061218262,5.051928997039795,57.943565368652344,-12.0,-24.44999885559082,-13.932001113891602,-10.0,0.0,567.1500244140625,100.30000305175781,18.05294418334961,3.192648410797119,0.6385295987129211,18.69147491455078,55.964134216308594,1.9794418811798096,0.03726982697844505,203.75,317.6000061035156,497.79998779296875,383.79998779296875,158.5,77.1500015258789,232.1999969482422,1.0,0.0006998250028118491,0.031152456998825073,0.8296666145324707,0.3395833373069763,0.5293333530426025,0.3869999647140503,1.0
env_steps,13008,21,21,15,13006,0.9579925333333333,0.1104273647069931,-0.17086997628211975,-0.24299269914627075,0.3406175374984741,1.3471243381500244,313,-1.829817771911621,0.4213523864746094,0.0,600.0,0.6350526809692383,2.101428508758545,434.22552490234375,8.41960334777832,270.5045166015625,0.0,0.0,2.101428508758545,2.101428508758545,0.0,0.0,8.41960334777832,8.088571548461914,0.3310317397117615,0.1850000023841858,0.1850000023841858,6.289285659790039,4.953707695007324,58.51207733154297,-12.0,-24.43428611755371,-13.907620429992676,-10.0,0.0,572.7142944335938,101.28571319580078,18.230060577392578,3.224024534225464,0.644804835319519,18.874866485595703,56.5131950378418,1.9988951683044434,0.037122271955013275,203.61904907226562,317.4285583496094,497.6190490722656,383.1428527832031,157.95237731933594,77.14286041259766,231.79364013671875,1.0,0.0007022540085017681,0.031458109617233276,0.829365074634552,0.33936506509780884,0.5290476679801941,0.3863227069377899,1.0
env_steps,13504,22,22,16,13502,0.9563888,0.13233748078346252,-0.06383718550205231,-0.024837518110871315,0.36561650037765503,1.6845167875289917,344,-0.49801862239837646,0.42927730083465576,0.0,600.0,0.6315231919288635,2.097954750061035,435.0237121582031,8.400227546691895,271.86627197265625,0.0,0.0,2.097954750061035,2.097954750061035,0.0,0.0,8.400227546691895,8.083333015441895,0.31689393520355225,0.17749999463558197,0.17749999463558197,6.304620742797852,4.973029136657715,59.749244689941406,-12.0,-24.321819305419922,-13.925455093383789,-10.0,0.0,585.0,102.54545593261719,18.621126174926758,3.2641234397888184,0.6528245806694031,19.27395248413086,57.725502014160156,2.023756265640259,0.03678471967577934,202.68182373046875,315.5454406738281,496.18182373046875,382.9090881347656,157.4545440673828,77.95454406738281,232.09091186523438,1.0,0.0007154621416702867,0.032123252749443054,0.8269696831703186,0.3378030061721802,0.5259091258049011,0.38681814074516296,1.0
env_steps,14000,23,23,17,13998,0.9547850666666666,0.18159721791744232,-0.12272833287715912,-0.1606658399105072,0.39454784989356995,1.648287057876587,375,-0.012738185934722424,0.43203914165496826,0.0,600.0,0.6294581294059753,2.1198551654815674,427.94586181640625,8.438695907592773,265.33184814453125,0.0,0.0,2.1198551654815674,2.1198551654815674,0.0,0.0,8.438695907592773,8.125144958496094,0.3135507106781006,0.17376811802387238,0.17376811802387238,6.328333377838135,4.93156623840332,60.056819915771484,-12.0,-24.17217445373535,-13.897392272949219,-10.0,0.0,588.2174072265625,102.0434799194336,18.723539352416992,3.24814510345459,0.6496288776397705,19.3731689453125,58.0429801940918,2.0138497352600098,0.03635387867689133,201.43478393554688,317.9130554199219,496.39129638671875,382.34783935546875,157.56521606445312,77.47826385498047,231.62319946289062,1.0,0.0007200652617029846,0.03228861466050148,0.8273187875747681,0.3357246220111847,0.5298551321029663,0.386038601398468,1.0
env_steps,14512,24,24,18,14510,0.9531296,0.08429178595542908,-0.19549061357975006,-0.12301985174417496,0.27932071685791016,1.6749621629714966,407,-0.12576992809772491,0.43152499198913574,0.0,600.0,0.628258466720581,2.134305715560913,426.5955505371094,8.510069847106934,261.7043762207031,0.0,0.0,2.134305715560913,2.134305715560913,0.0,0.0,8.510069847106934,8.181180000305176,0.3288888931274414,0.19340278208255768,0.19340278208255768,6.400069713592529,4.911067008972168,59.931732177734375,-12.0,-24.184999465942383,-13.8725004196167,-10.0,0.0,586.8333129882812,102.625,18.679487228393555,3.266655206680298,0.6533311009407043,19.33281707763672,57.906402587890625,2.0253262519836426,0.03651098534464836,201.5416717529297,319.875,496.8333435058594,381.875,157.25,77.25,231.2083282470703,1.0,0.0007192083285190165,0.03222136199474335,0.8280555605888367,0.33590278029441833,0.5331249833106995,0.3853472173213959,1.0
env_steps,15008,25,25,19,15006,0.9515258666666666,0.16277259588241577,-0.12564717233181,-0.03013470023870468,0.38143888115882874,2.2154147624969482,438,0.3735826909542084,0.4345359802246094,0.0,600.0,0.6270216107368469,2.1792001724243164,428.81292724609375,8.471000671386719,257.2564392089844,0.0,0.0,2.1792001724243164,2.1792001724243164,0.0,0.0,8.471000671386719,8.155266761779785,0.3157333433628082,0.18566668033599854,0.18566668033599854,6.3538665771484375,4.810413360595703,60.52158737182617,-12.0,-24.268800735473633,-13.879199981689453,-10.0,0.0,592.52001953125,104.08000183105469,18.860498428344727,3.312969446182251,0.6625939011573792,19.52309226989746,58.4675407409668,2.0540409088134766,0.036519888788461685,202.24000549316406,319.0400085449219,496.3999938964844,381.6400146484375,156.72000122070312,77.80000305175781,231.32000732421875,1.0,0.0007242267020046711,0.03253848850727081,0.8273332715034485,0.337066650390625,0.5317333340644836,0.38553333282470703,1.0
env_steps,15504,25,25,19,15502,0.9499221333333333,0.21333056688308716,0.026316866278648376,-0.08588282763957977,0.4504896402359009,2.3976004123687744,469,0.3735826909542084,0.4345359802246094,0.0,600.0,0.6270216107368469,2.1792001724243164,428.81292724609375,8.471000671386719,257.2564392089844,0.0,0.0,2.1792001724243164,2.1792001724243164,0.0,0.0,8.471000671386719,8.155266761779785,0.3157333433628082,0.18566668033599854,0.18566668033599854,6.3538665771484375,4.810413360595703,60.52158737182617,-12.0,-24.268800735473633,-13.879199981689453,-10.0,0.0,592.52001953125,104.08000183105469,18.860498428344727,3.312969446182251,0.6625939011573792,19.52309226989746,58.4675407409668,2.0540409088134766,0.036519888788461685,202.24000549316406,319.0400085449219,496.3999938964844,381.6400146484375,156.72000122070312,77.80000305175781,231.32000732421875,1.0,0.0007242267020046711,0.03253848850727081,0.8273332715034485,0.337066650390625,0.5317333340644836,0.38553333282470703,1.0
env_steps,16000,26,26,20,15998,0.9483184,0.07151937484741211,-0.07440625876188278,-0.11673575639724731,0.2745542526245117,1.447304368019104,500,-0.19659852981567383,0.43287691473960876,0.0,600.0,0.6292077302932739,2.2716667652130127,428.0427551269531,8.43621826171875,250.90875244140625,0.0,0.0,2.2716667652130127,2.2716667652130127,0.0,0.0,8.43621826171875,8.132628440856934,0.30358976125717163,0.1785256564617157,0.1785256564617157,6.229615211486816,4.691549301147461,59.94571304321289,-12.0,-24.24923324584961,-13.89307689666748,-10.0,0.0,586.7692260742188,103.65384674072266,18.677446365356445,3.2994043827056885,0.6598809361457825,19.337326049804688,57.90007781982422,2.045630931854248,0.03666507452726364,202.07691955566406,323.3461608886719,498.0,381.9230651855469,156.65383911132812,78.03845977783203,231.55128479003906,1.0,0.0007214615470729768,0.03222887963056564,0.8299999833106995,0.3367948532104492,0.5389102697372437,0.3859187960624695,1.0
env_steps,16512,27,27,21,16510,0.9466629333333333,0.19212083518505096,-0.0654124766588211,-0.11553937196731567,0.4103052020072937,2.1993982791900635,532,0.5926529169082642,0.43744444847106934,0.0,600.0,0.6259937286376953,2.245432138442993,438.03863525390625,8.419321060180664,261.7577209472656,0.0,0.0,2.245432138442993,2.245432138442993,0.0,0.0,8.419321060180664,8.119135856628418,0.3001852035522461,0.17648150026798248,0.17648150026798248,6.265061378479004,4.735745906829834,60.78080368041992,-12.0,-24.302223205566406,-13.885926246643066,-10.0,0.0,595.0370483398438,104.62963104248047,18.94062042236328,3.3304646015167236,0.6660929918289185,19.60671043395996,58.715911865234375,2.0648882389068604,0.036458976566791534,202.51852416992188,321.7037048339844,497.03704833984375,381.5555419921875,156.1481475830078,78.29629516601562,231.43211364746094,1.0,0.0007290740613825619,0.03267785161733627,0.8283950686454773,0.33753085136413574,0.5361728072166443,0.3857201337814331,1.0
env_steps,17008,28,28,22,17006,0.9450592,0.23738877475261688,-0.08151654899120331,-0.29100292921066284,0.4604179263114929,1.8776733875274658,563,-0.2448209971189499,0.4333285689353943,0.0,600.0,0.6284169554710388,2.278749942779541,432.584228515625,8.569762229919434,256.7760314941406,0.0,0.0,2.278749942779541,2.278749942779541,0.0,0.0,8.569762229919434,8.26494026184082,0.3048214614391327,0.18351192772388458,0.18351192772388458,6.318630695343018,4.735354423522949,59.878753662109375,-12.0,-24.252857208251953,-13.87071418762207,-10.0,0.0,585.8928833007812,104.64286041259766,18.649551391601562,3.330885648727417,0.6661772131919861,19.315725326538086,57.8135986328125,2.0651490688323975,0.037240203469991684,202.10714721679688,323.46429443359375,498.1785583496094,381.5,155.67857360839844,78.17857360839844,231.1785888671875,1.0,0.0007222142885439098,0.03219287842512131,0.830297589302063,0.3368452191352844,0.5391071438789368,0.38529759645462036,1.0
env_steps,17504,29,29,23,17502,0.9434554666666667,0.2659262716770172,-0.14472198486328125,-0.21062824130058289,0.47605761885643005,2.007021188735962,594,-0.5721761584281921,0.4314482808113098,0.0,600.0,0.6309599280357361,2.243678092956543,433.336669921875,8.532586097717285,262.1255187988281,0.0,0.0,2.243678092956543,2.243678092956543,0.0,0.0,8.532586097717285,8.22839069366455,0.30419543385505676,0.18706898391246796,0.18706898391246796,6.3477582931518555,4.801079750061035,59.556793212890625,-12.0,-24.27310562133789,-13.855862617492676,-10.0,0.0,582.8275756835938,103.6551742553711,18.55198097229004,3.2994468212127686,0.6598894000053406,19.211868286132812,57.511131286621094,2.045657157897949,0.03697936609387398,202.27586364746094,324.03448486328125,498.5517272949219,381.2758483886719,156.20689392089844,77.6551742553711,230.93104553222656,1.0,0.0007190804462879896,0.032019779086112976,0.8309195041656494,0.3371264338493347,0.5400574207305908,0.3848850429058075,1.0
env_steps,18000,30,30,24,18000,0.9418517333333334,0.13013751804828644,-0.11504587531089783,-0.04356608912348747,0.36521434783935547,2.2015864849090576,625,-0.6475694179534912,0.43162333965301514,0.0,600.0,0.6296728253364563,2.280222177505493,428.29400634765625,8.544889450073242,256.4394836425781,0.0,0.0,2.280222177505493,2.280222177505493,0.0,0.0,8.544889450073242,8.250499725341797,0.29438892006874084,0.18116669356822968,0.18116669356822968,6.275444030761719,4.735948085784912,59.49443435668945,-12.0,-24.30000114440918,-13.842000007629395,-10.0,0.0,582.2666625976562,103.30000305175781,18.53412628173828,3.2881414890289307,0.6576282978057861,19.19175148010254,57.45578384399414,2.0386476516723633,0.03680727630853653,202.5,326.76666259765625,499.4333190917969,380.9333190917969,155.43333435058594,77.86666870117188,230.70001220703125,1.0,0.0007193722412921488,0.03198625147342682,0.8323888778686523,0.3375000059604645,0.5446110963821411,0.3844999670982361,1.0
env_steps,18512,30,30,24,18510,0.9401962666666667,0.08882274478673935,-0.12128584831953049,-0.0777990072965622,0.29823774099349976,2.1709036827087402,657,-0.6475694179534912,0.43162333965301514,0.0,600.0,0.6296728253364563,2.280222177505493,428.29400634765625,8.544889450073242,256.4394836425781,0.0,0.0,2.280222177505493,2.280222177505493,0.0,0.0,8.544889450073242,8.250499725341797,0.29438892006874084,0.18116669356822968,0.18116669356822968,6.275444030761719,4.735948085784912,59.49443435668945,-12.0,-24.30000114440918,-13.842000007629395,-10.0,0.0,582.2666625976562,103.30000305175781,18.53412628173828,3.2881414890289307,0.6576282978057861,19.19175148010254,57.45578384399414,2.0386476516723633,0.03680727630853653,202.5,326.76666259765625,499.4333190917969,380.9333190917969,155.43333435058594,77.86666870117188,230.70001220703125,1.0,0.0007193722412921488,0.03198625147342682,0.8323888778686523,0.3375000059604645,0.5446110963821411,0.3844999670982361,1.0
env_steps,19008,31,31,25,19006,0.9385925333333334,0.07720887660980225,0.006411243230104446,0.009413279592990875,0.29308027029037476,1.5396682024002075,688,-1.6049741506576538,0.42608386278152466,0.0,600.0,0.6312060952186584,2.295053482055664,423.5736999511719,8.438011169433594,252.23081970214844,0.0,0.0,2.295053482055664,2.295053482055664,0.0,0.0,8.438011169433594,8.153118133544922,0.2848924994468689,0.17532260715961456,0.17532260715961456,6.1687092781066895,4.655971527099609,58.50599670410156,-12.0,-24.282583236694336,-13.828388214111328,-10.0,0.0,572.3548583984375,102.7741928100586,18.218624114990234,3.271404504776001,0.654280960559845,18.872901916503906,56.477718353271484,2.028270959854126,0.037539537996053696,202.35484313964844,326.9677429199219,500.2257995605469,380.9032287597656,155.4193572998047,77.54838562011719,230.47312927246094,1.0,0.0007101398077793419,0.03145483508706093,0.8337096571922302,0.33725807070732117,0.5449462532997131,0.384121835231781,1.0
env_steps,19504,32,32,26,19502,0.9369888,0.1139790415763855,-0.031102467328310013,-0.07131823897361755,0.33629971742630005,2.6149678230285645,719,-1.8640025854110718,0.4252374768257141,0.0,600.0,0.6321235299110413,2.255052089691162,422.4203186035156,8.413646697998047,256.3438720703125,0.0,0.0,2.255052089691162,2.255052089691162,0.0,0.0,8.413646697998047,8.137656211853027,0.2759895920753479,0.16984376311302185,0.16984376311302185,6.214687347412109,4.747841835021973,58.24724578857422,-12.0,-24.28874969482422,-13.822500228881836,-10.0,0.0,569.90625,101.90625,18.14067840576172,3.243776798248291,0.6487553119659424,18.78943634033203,56.236106872558594,2.011141538619995,0.037287354469299316,202.40625,328.25,500.78125,380.875,155.75,77.25,230.375,1.0,0.000708729145117104,0.031315725296735764,0.8346353769302368,0.3373437523841858,0.5470833778381348,0.3839583396911621,1.0
env_steps,20000,33,33,27,19998,0.9353850666666667,0.11998212337493896,0.1432952880859375,0.18235576152801514,0.34261733293533325,2.365292549133301,750,-0.9533668756484985,0.42933329939842224,0.0,600.0,0.6273887157440186,2.279040575027466,422.07415771484375,8.416464805603027,252.67855834960938,0.0,0.0,2.279040575027466,2.279040575027466,0.0,0.0,8.416464805603027,8.130959510803223,0.2855050563812256,0.17585860192775726,0.17585860192775726,6.196211814880371,4.688235759735107,59.04117965698242,-12.0,-24.189090728759766,-13.805455207824707,-10.0,0.0,577.3333129882812,105.0,18.377090454101562,3.3422539234161377,0.6684507131576538,19.045543670654297,56.9689826965332,2.072197437286377,0.037602122873067856,201.5757598876953,325.7272644042969,499.1212158203125,380.51513671875,154.84848022460938,77.45454406738281,230.09091186523438,1.0,0.0007155555067583919,0.03174256905913353,0.8318686485290527,0.33595961332321167,0.5428788065910339,0.3834848701953888,1.0
env_steps,20512,34,34,28,20510,0.9337295999999999,0.14176778495311737,-0.14907419681549072,-0.11036363244056702,0.3734709918498993,2.337110996246338,782,-1.1285510063171387,0.4282293915748596,0.0,600.0,0.6286091804504395,2.3502941131591797,418.2302551269531,8.448480606079102,247.31471252441406,0.0,0.0,2.3502941131591797,2.3502941131591797,0.0,0.0,8.448480606079102,8.171372413635254,0.2771078646183014,0.1706862896680832,0.1706862896680832,6.171813488006592,4.615704536437988,58.86027145385742,-12.0,-24.176469802856445,-13.81235408782959,-10.0,0.0,575.5294189453125,104.85294342041016,18.319669723510742,3.3375728130340576,0.6675145030021667,18.987186431884766,56.79098129272461,2.0692951679229736,0.03759363293647766,201.4705810546875,326.058837890625,499.558837890625,380.441162109375,154.8235321044922,77.67646789550781,230.2058868408203,1.0,0.000713715679012239,0.031645309180021286,0.8325980305671692,0.33578431606292725,0.5434314012527466,0.3836764991283417,1.0
env_steps,21008,35,35,29,21006,0.9321258666666666,0.1284497231245041,-0.16890530288219452,-0.19474850594997406,0.32075604796409607,1.3964871168136597,813,-1.5560799837112427,0.4245571196079254,0.0,600.0,0.6280484795570374,2.332523822784424,413.53802490234375,8.410285949707031,245.21995544433594,0.0,0.0,2.332523822784424,2.332523822784424,0.0,0.0,8.410285949707031,8.141095161437988,0.2691904902458191,0.1658095419406891,0.1658095419406891,6.17376184463501,4.6174821853637695,58.43935012817383,-12.0,-24.171428680419922,-13.824000358581543,-10.0,0.0,571.2285766601562,105.02857208251953,18.182769775390625,3.34316349029541,0.6686326265335083,18.851404190063477,56.36659240722656,2.072761058807373,0.03793787583708763,201.42857360839844,326.5428466796875,499.8285827636719,380.74285888671875,154.8000030517578,77.82857513427734,230.39999389648438,1.0,0.0007075952016748488,0.03141900524497032,0.8330475687980652,0.33571428060531616,0.5442380905151367,0.3840000331401825,1.0
env_steps,21504,35,35,29,21502,0.9305221333333333,0.2114918828010559,-0.09183261543512344,-0.15758316218852997,0.4337639808654785,1.788401484489441,844,-1.5560799837112427,0.4245571196079254,0.0,600.0,0.6280484795570374,2.332523822784424,413.53802490234375,8.410285949707031,245.21995544433594,0.0,0.0,2.332523822784424,2.332523822784424,0.0,0.0,8.410285949707031,8.141095161437988,0.2691904902458191,0.1658095419406891,0.1658095419406891,6.17376184463501,4.6174821853637695,58.43935012817383,-12.0,-24.171428680419922,-13.824000358581543,-10.0,0.0,571.2285766601562,105.02857208251953,18.182769775390625,3.34316349029541,0.6686326265335083,18.851404190063477,56.36659240722656,2.072761058807373,0.03793787583708763,201.42857360839844,326.5428466796875,499.8285827636719,380.74285888671875,154.8000030517578,77.82857513427734,230.39999389648438,1.0,0.0007075952016748488,0.03141900524497032,0.8330475687980652,0.33571428060531616,0.5442380905151367,0.3840000331401825,1.0
env_steps,22000,36,36,30,21998,0.9289184,0.09505169093608856,-0.09585050493478775,-0.06694573909044266,0.3069836497306824,1.4990971088409424,875,-1.7737927436828613,0.4232499599456787,0.0,600.0,0.6289517879486084,2.3624539375305176,409.0174560546875,8.340324401855469,240.56857299804688,0.0,0.0,2.3624539375305176,2.3624539375305176,0.0,0.0,8.340324401855469,8.07861042022705,0.2617129683494568,0.16120371222496033,0.16120371222496033,6.081157207489014,4.538963317871094,58.2523193359375,-12.0,-24.190000534057617,-13.836112022399902,-10.0,0.0,569.4166870117188,104.61111450195312,18.125097274780273,3.3298752307891846,0.6659749746322632,18.79107093811035,56.18779754638672,2.0645225048065186,0.03783824294805527,201.5833282470703,327.3611145019531,500.1944580078125,380.52777099609375,154.38888549804688,78.44444274902344,230.60186767578125,1.0,0.0007054166053421795,0.03131844848394394,0.8336573839187622,0.33597221970558167,0.5456019043922424,0.3843364715576172,1.0
env_steps,22512,37,37,31,22510,0.9272629333333333,0.10440737009048462,-0.076451376080513,-0.035700440406799316,0.30174094438552856,1.1853492259979248,907,-0.9613066911697388,0.42761075496673584,0.0,600.0,0.6280073523521423,2.3517117500305176,417.84576416015625,8.42081069946289,244.2134246826172,0.0,0.0,2.3517117500305176,2.3517117500305176,0.0,0.0,8.42081069946289,8.0890531539917,0.3317567706108093,0.17882885038852692,0.17882885038852692,6.195810794830322,4.572658538818359,59.07869338989258,-12.0,-24.19135093688965,-13.848649024963379,-10.0,0.0,577.729736328125,104.9189224243164,18.38970947265625,3.3396732807159424,0.6679345965385437,19.05764389038086,57.008094787597656,2.0705971717834473,0.03751213103532791,201.59458923339844,325.0540466308594,499.16217041015625,380.97296142578125,154.8648681640625,78.29729461669922,230.81080627441406,1.0,0.0007126846467144787,0.0317627377808094,0.8319368958473206,0.3359909951686859,0.541756808757782,0.3846847414970398,1.0
env_steps,23008,38,38,32,23006,0.9256592,0.16204833984375,-0.03957971930503845,-0.11586637794971466,0.4014110565185547,2.0201416015625,938,0.25871145725250244,0.4326183795928955,0.0,600.0,0.6231719255447388,2.343991279602051,419.9682312011719,8.390876770019531,244.94081115722656,0.0,0.0,2.343991279602051,2.343991279602051,0.0,0.0,8.390876770019531,8.067850112915039,0.3230263292789459,0.17412282526493073,0.17412282526493073,6.1570611000061035,4.561718463897705,60.15345001220703,-12.0,-24.0726318359375,-13.82210636138916,-10.0,0.0,588.2894897460938,106.57894897460938,18.7258358001709,3.3925135135650635,0.67850261926651,19.404338836669922,58.050086975097656,2.103358030319214,0.03739817813038826,200.6052703857422,322.7105407714844,498.02630615234375,380.6052551269531,154.76315307617188,77.86842346191406,230.36842346191406,1.0,0.0007210306939668953,0.03234056383371353,0.8300438523292542,0.3343421220779419,0.5378509163856506,0.3839474320411682,1.0
env_steps,23504,39,39,33,23502,0.9240554666666667,0.18652188777923584,-0.17926008999347687,-0.24477432668209076,0.40053853392601013,2.146756410598755,969,-0.32603126764297485,0.4307871460914612,0.0,600.0,0.6244293451309204,2.343846321105957,420.7264099121094,8.388632774353027,244.41989135742188,0.0,0.0,2.343846321105957,2.343846321105957,0.0,0.0,8.388632774353027,8.073888778686523,0.31474360823631287,0.1696581393480301,0.1696581393480301,6.164957046508789,4.549267292022705,59.654998779296875,-12.0,-24.132308959960938,-13.848718643188477,-10.0,0.0,583.4615478515625,105.46154022216797,18.572158813476562,3.356945276260376,0.6713889837265015,19.243547439575195,57.57368850708008,2.081305742263794,0.037222277373075485,201.10256958007812,324.28204345703125,498.76922607421875,381.0769348144531,154.89743041992188,78.23076629638672,230.81198120117188,1.0,0.0007179785752668977,0.03207257762551308,0.8312820196151733,0.3351709544658661,0.5404701232910156,0.384686678647995,1.0
env_steps,24000,40,40,34,24000,0.9224517333333333,0.21813130378723145,-0.0961637869477272,-0.052345119416713715,0.4328513741493225,2.184539556503296,1000,0.0797792449593544,0.43305501341819763,0.0,600.0,0.624001681804657,2.331791639328003,421.6686096191406,8.436999320983887,246.144775390625,0.0,0.0,2.331791639328003,2.331791639328003,0.0,0.0,8.436999320983887,8.089958190917969,0.34704166650772095,0.17620833218097687,0.17620833218097687,6.225625038146973,4.60226583480835,60.052276611328125,-12.0,-24.135000228881836,-13.837499618530273,-10.0,0.0,587.3499755859375,106.1500015258789,18.69593048095703,3.378859758377075,0.6757718920707703,19.3717041015625,57.9573860168457,2.094892978668213,0.03716031834483147,201.125,323.32501220703125,498.2749938964844,381.3500061035156,154.97500610351562,77.7750015258789,230.625,1.0,0.0007217583479359746,0.03228617459535599,0.8304582834243774,0.33520835638046265,0.5388749837875366,0.3843750059604645,1.0
env_steps,24512,40,40,34,24510,0.9207962666666667,0.4252117872238159,0.41163092851638794,0.29125815629959106,0.724827229976654,3.7658166885375977,1032,0.0797792449593544,0.43305501341819763,0.0,600.0,0.624001681804657,2.331791639328003,421.6686096191406,8.436999320983887,246.144775390625,0.0,0.0,2.331791639328003,2.331791639328003,0.0,0.0,8.436999320983887,8.089958190917969,0.34704166650772095,0.17620833218097687,0.17620833218097687,6.225625038146973,4.60226583480835,60.052276611328125,-12.0,-24.135000228881836,-13.837499618530273,-10.0,0.0,587.3499755859375,106.1500015258789,18.69593048095703,3.378859758377075,0.6757718920707703,19.3717041015625,57.9573860168457,2.094892978668213,0.03716031834483147,201.125,323.32501220703125,498.2749938964844,381.3500061035156,154.97500610351562,77.7750015258789,230.625,1.0,0.0007217583479359746,0.03228617459535599,0.8304582834243774,0.33520835638046265,0.5388749837875366,0.3843750059604645,1.0
env_steps,25008,41,41,35,25006,0.9191925333333333,0.3037862777709961,0.13635224103927612,-0.050100162625312805,0.5746579170227051,3.055222511291504,1063,-0.15495562553405762,0.4326951503753662,0.0,600.0,0.6250152587890625,2.306138277053833,417.2527770996094,8.356219291687012,245.17616271972656,0.0,0.0,2.306138277053833,2.306138277053833,0.0,0.0,8.356219291687012,8.0176420211792,0.3385772109031677,0.17191056907176971,0.17191056907176971,6.191585063934326,4.597305774688721,59.795284271240234,-12.0,-24.122928619384766,-13.827316284179688,-10.0,0.0,584.780517578125,105.9756088256836,18.614139556884766,3.3733084201812744,0.6746616959571838,19.288803100585938,57.703834533691406,2.091451406478882,0.03721635788679123,201.02438354492188,325.2195129394531,498.4634094238281,380.92681884765625,154.53659057617188,77.95121765136719,230.45529174804688,1.0,0.0007211585179902613,0.032148007303476334,0.8307722806930542,0.3350406587123871,0.5420325398445129,0.38409215211868286,1.0
env_steps,25504,42,42,36,25502,0.9175888,0.2363101840019226,0.1680273711681366,0.06520894914865494,0.49500298500061035,2.892224073410034,1094,-0.2244127094745636,0.43175479769706726,0.0,600.0,0.6228508353233337,2.3026983737945557,416.0079040527344,8.347935676574707,243.67173767089844,0.0,0.0,2.3026983737945557,2.3026983737945557,0.0,0.0,8.347935676574707,8.017420768737793,0.33051586151123047,0.16781745851039886,0.16781745851039886,6.206428050994873,4.581570148468018,59.59987258911133,-12.0,-24.020000457763672,-13.804285049438477,-10.0,0.0,582.8333129882812,105.80952453613281,18.552160263061523,3.3680217266082764,0.6736043095588684,19.225765228271484,57.511695861816406,2.0881736278533936,0.037231992930173874,200.1666717529297,327.1666564941406,498.9285583496094,380.6190490722656,154.2142791748047,77.69047546386719,230.07142639160156,1.0,0.0007195912185125053,0.03204294294118881,0.8315476179122925,0.3336111009120941,0.5452777743339539,0.3834523558616638,1.0
env_steps,26000,43,43,37,25998,0.9159850666666667,0.3142698407173157,0.0071728043258190155,0.20721027255058289,0.5807942152023315,2.908372402191162,1125,-0.4516868591308594,0.42962563037872314,0.0,600.0,0.624037504196167,2.276317834854126,418.232421875,8.289844512939453,248.981201171875,0.0,0.0,2.276317834854126,2.276317834854126,0.0,0.0,8.289844512939453,7.967015266418457,0.3228294551372528,0.1639147251844406,0.1639147251844406,6.194147109985352,4.597883701324463,59.35296630859375,-12.0,-23.997209548950195,-13.807440757751465,-10.0,0.0,580.3488159179688,105.72093200683594,18.47307586669922,3.365201711654663,0.6730403304100037,19.1461181640625,57.26653289794922,2.086425304412842,0.037321850657463074,199.97674560546875,329.3721008300781,499.3721008300781,380.5581359863281,154.13954162597656,77.83721160888672,230.1240234375,1.0,0.0007160425884649158,0.03191019594669342,0.8322868347167969,0.3332945704460144,0.5489534735679626,0.3835400342941284,1.0
env_steps,26512,44,44,38,26510,0.9143296,0.2747073173522949,0.1231795996427536,0.07413975149393082,0.542489767074585,2.537409782409668,1157,-0.2860395610332489,0.4303659498691559,0.0,600.0,0.6238466501235962,2.27681827545166,419.83856201171875,8.337916374206543,248.41624450683594,0.0,0.0,2.27681827545166,2.27681827545166,0.0,0.0,8.337916374206543,8.018750190734863,0.3191666603088379,0.16287878155708313,0.16287878155708313,6.203446865081787,4.602786540985107,59.46623229980469,-12.0,-23.945453643798828,-13.806818008422852,-10.0,0.0,581.4091186523438,106.15908813476562,18.506824493408203,3.3791487216949463,0.6758297681808472,19.182655334472656,57.37115478515625,2.0950725078582764,0.03734507039189339,199.5454559326172,329.81817626953125,499.2954406738281,380.7045593261719,154.0,77.81818389892578,230.11363220214844,1.0,0.0007172764744609594,0.03197109326720238,0.8321591019630432,0.3325757384300232,0.5496969819068909,0.38352271914482117,1.0
env_steps,27008,45,45,39,27006,0.9127258666666667,0.28025227785110474,0.17371869087219238,0.05005250126123428,0.5433259010314941,2.848422050476074,1188,0.39913931488990784,0.4332444965839386,0.0,600.0,0.6224440932273865,2.2844815254211426,428.5184020996094,8.374666213989258,250.62400817871094,0.0,0.0,2.2844815254211426,2.2844815254211426,0.0,0.0,8.374666213989258,8.044000625610352,0.3306666612625122,0.17237037420272827,0.17237037420272827,6.249444484710693,4.604247570037842,60.153804779052734,-12.0,-23.95199966430664,-13.802666664123535,-10.0,0.0,588.3110961914062,106.4888916015625,18.72652244567871,3.389646291732788,0.6779292821884155,19.40445327758789,58.05221939086914,2.10158109664917,0.037102144211530685,199.60000610351562,328.20001220703125,498.71112060546875,380.1555480957031,154.022216796875,77.97777557373047,230.04444885253906,1.0,0.0007220740080811083,0.03234075754880905,0.8311852216720581,0.33266666531562805,0.546999990940094,0.3834074139595032,1.0
env_steps,27504,45,45,39,27502,0.9111221333333334,0.16235411167144775,0.039280205965042114,0.1269449144601822,0.4034545123577118,2.70111346244812,1219,0.39913931488990784,0.4332444965839386,0.0,600.0,0.6224440932273865,2.2844815254211426,428.5184020996094,8.374666213989258,250.62400817871094,0.0,0.0,2.2844815254211426,2.2844815254211426,0.0,0.0,8.374666213989258,8.044000625610352,0.3306666612625122,0.17237037420272827,0.17237037420272827,6.249444484710693,4.604247570037842,60.153804779052734,-12.0,-23.95199966430664,-13.802666664123535,-10.0,0.0,588.3110961914062,106.4888916015625,18.72652244567871,3.389646291732788,0.6779292821884155,19.40445327758789,58.05221939086914,2.10158109664917,0.037102144211530685,199.60000610351562,328.20001220703125,498.71112060546875,380.1555480957031,154.022216796875,77.97777557373047,230.04444885253906,1.0,0.0007220740080811083,0.03234075754880905,0.8311852216720581,0.33266666531562805,0.546999990940094,0.3834074139595032,1.0
env_steps,28000,46,46,40,27998,0.9095184000000001,0.2930895984172821,0.016897236928343773,0.2545364797115326,0.5456079244613647,3.18776798248291,1250,0.6665958762168884,0.4345608949661255,0.0,600.0,0.6210302114486694,2.277029037475586,426.4227600097656,8.308260917663574,249.2366485595703,0.0,0.0,2.277029037475586,2.277029037475586,0.0,0.0,8.308260917663574,7.984673976898193,0.32358697056770325,0.16873188316822052,0.16873188316822052,6.208369255065918,4.572485446929932,60.430503845214844,-12.0,-23.94521713256836,-13.818695068359375,-10.0,0.0,590.9130249023438,107.5,18.809345245361328,3.4218311309814453,0.6843662261962891,19.49371337890625,58.308963775634766,2.121535539627075,0.03719622269272804,199.54347229003906,327.86956787109375,498.021728515625,380.3043518066406,154.1521759033203,78.23912811279297,230.31158447265625,1.0,0.0007242680294439197,0.03248952329158783,0.8300362229347229,0.33257243037223816,0.5464493036270142,0.38385266065597534,1.0
env_steps,28512,47,47,41,28510,0.9078629333333333,0.2528548240661621,-0.0058785006403923035,0.009099569171667099,0.5076576471328735,2.6713647842407227,1282,1.0007776021957397,0.4359489679336548,0.0,600.0,0.6209508776664734,2.2810282707214355,426.2270202636719,8.26673698425293,248.36619567871094,0.0,0.0,2.2810282707214355,2.2810282707214355,0.0,0.0,8.26673698425293,7.949787616729736,0.31695035099983215,0.16539007425308228,0.16539007425308228,6.17631196975708,4.539673328399658,60.709712982177734,-12.0,-23.897871017456055,-13.811063766479492,-10.0,0.0,593.6383056640625,108.02127838134766,18.89609146118164,3.4384238719940186,0.6876848340034485,19.583778381347656,58.577880859375,2.1318230628967285,0.03715837374329567,199.14894104003906,327.53192138671875,497.7021179199219,379.9787292480469,153.93617248535156,78.31914520263672,230.18438720703125,1.0,0.0007265814929269254,0.03263963386416435,0.82950359582901,0.33191487193107605,0.5458865761756897,0.3836406469345093,1.0
env_steps,29008,48,48,42,29006,0.9062592,0.22550633549690247,-0.005936991423368454,-0.07688368856906891,0.4710339903831482,1.9247682094573975,1313,1.52787446975708,0.43836042284965515,0.0,600.0,0.6182404160499573,2.261805534362793,427.0587463378906,8.284756660461426,251.0909423828125,0.0,0.0,2.261805534362793,2.261805534362793,0.0,0.0,8.284756660461426,7.950902462005615,0.33385416865348816,0.1756250113248825,0.1756250113248825,6.229896545410156,4.596578121185303,61.21287155151367,-12.0,-23.8700008392334,-13.8149995803833,-10.0,0.0,598.5416870117188,109.0,19.05217170715332,3.4695777893066406,0.6939155459403992,19.7460880279541,59.061737060546875,2.1511383056640625,0.03713520988821983,198.9166717529297,326.875,496.8958435058594,380.0,153.7083282470703,78.52083587646484,230.25,1.0,0.0007306006737053394,0.03291014954447746,0.8281596302986145,0.33152779936790466,0.5447916388511658,0.38374999165534973,1.0
env_steps,29504,49,49,43,29502,0.9046554666666666,0.2847878932952881,0.19458045065402985,0.03556245565414429,0.5613001585006714,3.7532715797424316,1344,2.1040046215057373,0.44187140464782715,0.0,600.0,0.6156745553016663,2.2445578575134277,430.3719177246094,8.326428413391113,256.0147705078125,0.0,0.0,2.2445578575134277,2.2445578575134277,0.0,0.0,8.326428413391113,7.955441951751709,0.3709864020347595,0.19010205566883087,0.19010205566883087,6.304660797119141,4.676339149475098,61.761146545410156,-12.0,-23.848163604736328,-13.808979988098145,-10.0,0.0,603.8775634765625,110.10204315185547,19.22201919555664,3.5046567916870117,0.7009313106536865,19.922950744628906,59.588260650634766,2.1728873252868652,0.0371227040886879,198.7346954345703,325.9183654785156,496.2244873046875,379.6326599121094,153.30612182617188,78.7551040649414,230.149658203125,1.0,0.0007364523480646312,0.03320491686463356,0.8270407915115356,0.3312245309352875,0.5431972742080688,0.3835827708244324,1.0
env_steps,30000,50,50,44,30000,0.9030517333333333,0.3199472725391388,0.16885092854499817,0.30548572540283203,0.5929820537567139,3.122936725616455,1375,2.8263437747955322,0.44659796357154846,0.0,600.0,0.6135108470916748,2.25766658782959,431.67742919921875,8.306532859802246,254.28936767578125,0.0,0.0,2.25766658782959,2.25766658782959,0.0,0.0,8.306532859802246,7.942733287811279,0.3638000190258026,0.18653333187103271,0.18653333187103271,6.274534225463867,4.63255500793457,62.462345123291016,-12.0,-23.832002639770508,-13.803999900817871,-10.0,0.0,610.7999877929688,111.0199966430664,19.442367553710938,3.533876419067383,0.7067751884460449,20.14914321899414,60.271339416503906,2.1910033226013184,0.03701620548963547,198.60000610351562,325.0199890136719,495.55999755859375,379.6000061035156,153.0399932861328,78.77999877929688,230.06666564941406,1.0,0.0007443299982696772,0.03358190506696701,0.8259332776069641,0.33100003004074097,0.541700005531311,0.3834444284439087,1.0
env_steps,30512,50,50,44,30510,0.9013962666666666,0.2871614694595337,-0.07933629304170609,0.0590546540915966,0.5275285840034485,2.906183958053589,1407,2.8263437747955322,0.44659796357154846,0.0,600.0,0.6135108470916748,2.25766658782959,431.67742919921875,8.306532859802246,254.28936767578125,0.0,0.0,2.25766658782959,2.25766658782959,0.0,0.0,8.306532859802246,7.942733287811279,0.3638000190258026,0.18653333187103271,0.18653333187103271,6.274534225463867,4.63255500793457,62.462345123291016,-12.0,-23.832002639770508,-13.803999900817871,-10.0,0.0,610.7999877929688,111.0199966430664,19.442367553710938,3.533876419067383,0.7067751884460449,20.14914321899414,60.271339416503906,2.1910033226013184,0.03701620548963547,198.60000610351562,325.0199890136719,495.55999755859375,379.6000061035156,153.0399932861328,78.77999877929688,230.06666564941406,1.0,0.0007443299982696772,0.03358190506696701,0.8259332776069641,0.33100003004074097,0.541700005531311,0.3834444284439087,1.0
env_steps,31008,51,51,45,31006,0.8997925333333333,0.25887331366539,0.00738129485398531,-0.010792627930641174,0.5110640525817871,2.4873931407928467,1438,2.715297222137451,0.44655489921569824,0.0,600.0,0.614302933216095,2.3023202419281006,432.9538879394531,8.31781005859375,251.53213500976562,0.0,0.0,2.3023202419281006,2.3023202419281006,0.0,0.0,8.31781005859375,7.961143493652344,0.3566666841506958,0.1828758269548416,0.1828758269548416,6.232223033905029,4.582982540130615,62.34392166137695,-12.0,-23.81882667541504,-13.80980396270752,-10.0,0.0,609.6078491210938,110.98039245605469,19.4044189453125,3.5326154232025146,0.706523060798645,20.110942840576172,60.1536979675293,2.1902217864990234,0.03703795373439789,198.4901885986328,325.39215087890625,495.6470642089844,379.7254943847656,153.11764526367188,78.82353210449219,230.16339111328125,1.0,0.0007442581700161099,0.033518239855766296,0.8260783553123474,0.33081701397895813,0.5423203110694885,0.3836056590080261,1.0
env_steps,31504,52,52,46,31502,0.8981888,0.3195387125015259,0.315479040145874,0.2935149073600769,0.5865508317947388,3.5238282680511475,1469,3.0329818725585938,0.44849035143852234,0.0,600.0,0.6121208071708679,2.289006471633911,434.8030090332031,8.300736427307129,254.037841796875,0.0,0.0,2.289006471633911,2.289006471633911,0.0,0.0,8.300736427307129,7.950928688049316,0.3498077094554901,0.17935897409915924,0.17935897409915924,6.237148761749268,4.595035076141357,62.64297866821289,-12.0,-23.806156158447266,-13.80384635925293,-10.0,0.0,612.4423217773438,111.96154022216797,19.49464225769043,3.5638463497161865,0.7127692103385925,20.207414627075195,60.43339157104492,2.209584951400757,0.03711498901247978,198.38461303710938,323.8653869628906,494.8653869628906,379.4230651855469,153.11538696289062,78.82691955566406,230.06410217285156,1.0,0.0007474839221686125,0.03367902338504791,0.8247756361961365,0.3306410610675812,0.5397756695747375,0.38344016671180725,1.0
env_steps,32000,53,53,47,31998,0.8965850666666667,0.22698447108268738,0.14162921905517578,0.262439489364624,0.48976731300354004,3.5631299018859863,1500,3.163672685623169,0.44913017749786377,0.0,600.0,0.6108372807502747,2.280660390853882,432.8329772949219,8.296666145324707,253.3192596435547,0.0,0.0,2.280660390853882,2.280660390853882,0.0,0.0,8.296666145324707,7.953301429748535,0.34336477518081665,0.17613208293914795,0.17613208293914795,6.243366241455078,4.604772090911865,62.755367279052734,-12.0,-23.79623031616211,-13.79547119140625,-10.0,0.0,613.4528198242188,112.60377502441406,19.526809692382812,3.584289312362671,0.7168578505516052,20.243667602539062,60.53310775756836,2.222259521484375,0.03720720484852791,198.3018798828125,323.98114013671875,494.5660400390625,379.4717102050781,153.4339599609375,78.4339599609375,229.92453002929688,1.0,0.0007485502865165472,0.033739443868398666,0.8242766857147217,0.3305031657218933,0.5399685502052307,0.3832075297832489,1.0
env_steps,32512,54,54,48,32510,0.8949296,0.21790547668933868,0.0710441917181015,0.19725054502487183,0.47225087881088257,2.7556707859039307,1532,3.0180602073669434,0.4482147991657257,0.0,600.0,0.6104023456573486,2.2622838020324707,433.1417541503906,8.266449928283691,255.80332946777344,0.0,0.0,2.2622838020324707,2.2622838020324707,0.0,0.0,8.266449928283691,7.928981304168701,0.3374691307544708,0.1733333319425583,0.1733333319425583,6.243550777435303,4.623722076416016,62.641387939453125,-12.0,-23.811113357543945,-13.81222152709961,-10.0,0.0,612.2222290039062,112.98148345947266,19.48763656616211,3.5963120460510254,0.7192623615264893,20.20690155029297,60.41167449951172,2.2297136783599854,0.03737695515155792,198.42591857910156,325.4814758300781,495.0,380.0185241699219,153.51852416992188,78.53704071044922,230.20370483398438,1.0,0.0007470246637240052,0.033678166568279266,0.824999988079071,0.33070990443229675,0.5424691438674927,0.383672833442688,1.0
env_steps,33008,55,55,49,33006,0.8933258666666667,0.30867475271224976,0.16168788075447083,0.2738511860370636,0.5688737630844116,4.155267715454102,1563,3.0590198040008545,0.44964542984962463,0.0,600.0,0.6099227666854858,2.285121202468872,433.3807678222656,8.273818016052246,253.5647735595703,0.0,0.0,2.285121202468872,2.285121202468872,0.0,0.0,8.273818016052246,7.942484378814697,0.33133333921432495,0.17018181085586548,0.17018181085586548,6.210455894470215,4.586648941040039,62.70737838745117,-12.0,-23.836366653442383,-13.811999320983887,-10.0,0.0,612.963623046875,112.61817932128906,19.5112361907959,3.584747791290283,0.7169495224952698,20.22818946838379,60.48483657836914,2.222543954849243,0.0372009202837944,198.63636779785156,326.0909118652344,495.2727355957031,380.0727233886719,153.69090270996094,78.41818237304688,230.1999969482422,1.0,0.0007494090823456645,0.03371364623308182,0.8254545331001282,0.33106064796447754,0.5434848666191101,0.38366663455963135,1.0
env_steps,33504,55,55,49,33502,0.8917221333333334,0.3869393467903137,0.11371497809886932,-0.08827133476734161,0.6315960884094238,2.8772265911102295,1594,3.0590198040008545,0.44964542984962463,0.0,600.0,0.6099227666854858,2.285121202468872,433.3807678222656,8.273818016052246,253.5647735595703,0.0,0.0,2.285121202468872,2.285121202468872,0.0,0.0,8.273818016052246,7.942484378814697,0.33133333921432495,0.17018181085586548,0.17018181085586548,6.210455894470215,4.586648941040039,62.70737838745117,-12.0,-23.836366653442383,-13.811999320983887,-10.0,0.0,612.963623046875,112.61817932128906,19.5112361907959,3.584747791290283,0.7169495224952698,20.22818946838379,60.48483657836914,2.222543954849243,0.0372009202837944,198.63636779785156,326.0909118652344,495.2727355957031,380.0727233886719,153.69090270996094,78.41818237304688,230.1999969482422,1.0,0.0007494090823456645,0.03371364623308182,0.8254545331001282,0.33106064796447754,0.5434848666191101,0.38366663455963135,1.0
env_steps,34000,56,56,50,33998,0.8901184,0.29512253403663635,0.11624963581562042,0.2866704761981964,0.5730986595153809,3.2678182125091553,1625,3.436155319213867,0.4508553445339203,0.0,600.0,0.6088364720344543,2.312678575515747,433.5790710449219,8.341755867004395,251.171142578125,0.0,0.0,2.312678575515747,2.312678575515747,0.0,0.0,8.341755867004395,8.013362884521484,0.3283928334712982,0.16883929073810577,0.16883929073810577,6.197440147399902,4.564058780670166,63.02686309814453,-12.0,-23.785715103149414,-13.804999351501465,-10.0,0.0,616.1071166992188,113.08928680419922,19.611297607421875,3.5997440814971924,0.7199487686157227,20.331249237060547,60.79502487182617,2.2318410873413086,0.03714439272880554,198.2142791748047,325.66070556640625,495.0535583496094,379.8928527832031,153.5,78.42857360839844,230.08334350585938,1.0,0.0007514255703426898,0.0338854119181633,0.8250892758369446,0.3303571343421936,0.5427678823471069,0.3834722340106964,1.0
env_steps,34512,57,57,51,34510,0.8884629333333334,0.23899532854557037,-0.0887836217880249,0.16724368929862976,0.46810266375541687,2.564960479736328,1657,4.047609329223633,0.4542122781276703,0.0,600.0,0.6062702536582947,2.302690029144287,435.6875,8.350614547729492,253.06944274902344,0.0,0.0,2.302690029144287,2.302690029144287,0.0,0.0,8.350614547729492,8.024532318115234,0.32608187198638916,0.16915203630924225,0.16915203630924225,6.213244915008545,4.58888053894043,63.63532257080078,-12.0,-23.772632598876953,-13.81508731842041,-10.0,0.0,622.0877075195312,114.01754760742188,19.801666259765625,3.629291534423828,0.7258582711219788,20.527524948120117,61.385169982910156,2.2501604557037354,0.03708095848560333,198.1052703857422,324.1929931640625,494.1754455566406,380.0526428222656,153.6491241455078,78.52631378173828,230.25148010253906,1.0,0.0007570204325020313,0.034212540835142136,0.8236256837844849,0.3301754295825958,0.5403216481208801,0.3837524652481079,1.0
env_steps,35008,58,58,52,35006,0.8868592,0.39818379282951355,0.16418904066085815,-0.08275489509105682,0.6575965881347656,3.5676259994506836,1688,4.495383262634277,0.45680689811706543,0.0,600.0,0.6037925481796265,2.292212724685669,438.5776672363281,8.334080696105957,254.96865844726562,0.0,0.0,2.292212724685669,2.292212724685669,0.0,0.0,8.334080696105957,8.013620376586914,0.3204597532749176,0.16623562574386597,0.16623562574386597,6.197614669799805,4.590911388397217,64.00503540039062,-12.0,-23.704139709472656,-13.805517196655273,-10.0,0.0,625.6896362304688,114.74137878417969,19.916318893432617,3.652331829071045,0.7304663062095642,20.646787643432617,61.74059295654297,2.2644453048706055,0.0370655357837677,197.53448486328125,322.7758483886719,493.2241516113281,380.0,153.3103485107422,78.48275756835938,230.0919647216797,1.0,0.0007613447960466146,0.03441130742430687,0.8220401406288147,0.3292241394519806,0.5379598140716553,0.38348662853240967,1.0
env_steps,35504,59,59,53,35502,0.8852554666666667,0.3032424747943878,0.10003216564655304,0.3272121548652649,0.5667502880096436,3.0823681354522705,1719,5.050789833068848,0.45972543954849243,0.0,600.0,0.6015397906303406,2.293869972229004,438.4739685058594,8.342401504516602,254.00364685058594,0.0,0.0,2.293869972229004,2.293869972229004,0.0,0.0,8.342401504516602,8.020818710327148,0.3215819299221039,0.1698869913816452,0.1698869913816452,6.205564498901367,4.579518795013428,64.50637817382812,-12.0,-23.660341262817383,-13.79525375366211,-10.0,0.0,630.64404296875,115.37287902832031,20.07402229309082,3.6724331378936768,0.7344865798950195,20.80851173400879,62.22947692871094,2.2769081592559814,0.03698059171438217,197.16949462890625,321.5932312011719,492.3559265136719,379.93218994140625,153.08474731445312,78.37287902832031,229.92091369628906,1.0,0.0007662089774385095,0.03468084707856178,0.8205931782722473,0.32861581444740295,0.5359887480735779,0.383201539516449,1.0
env_steps,36000,60,60,54,36000,0.8836517333333334,0.346677303314209,0.22871673107147217,0.2552679181098938,0.6094500422477722,3.3640499114990234,1750,5.421514987945557,0.46235501766204834,0.0,600.0,0.5998613238334656,2.2938053607940674,439.9264831542969,8.374083518981934,254.68824768066406,0.0,0.0,2.2938053607940674,2.2938053607940674,0.0,0.0,8.374083518981934,8.045110702514648,0.3289722204208374,0.17408332228660583,0.17408332228660583,6.237721920013428,4.598106861114502,64.90418243408203,-12.0,-23.670001983642578,-13.812666893005371,-10.0,0.0,634.3499755859375,117.0,20.191986083984375,3.7242257595062256,0.7448451519012451,20.936832427978516,62.59516143798828,2.3090198040008545,0.03715701401233673,197.25,319.75,491.6333312988281,380.25,153.25,78.56666564941406,230.21112060546875,1.0,0.0007705916068516672,0.03489471599459648,0.8193888068199158,0.32874998450279236,0.5329167246818542,0.3836852014064789,1.0
env_steps,36512,60,60,54,36510,0.8819962666666666,0.30237212777137756,-0.03197000175714493,0.05050244927406311,0.57975172996521,3.137516736984253,1782,5.421514987945557,0.46235501766204834,0.0,600.0,0.5998613238334656,2.2938053607940674,439.9264831542969,8.374083518981934,254.68824768066406,0.0,0.0,2.2938053607940674,2.2938053607940674,0.0,0.0,8.374083518981934,8.045110702514648,0.3289722204208374,0.17408332228660583,0.17408332228660583,6.237721920013428,4.598106861114502,64.90418243408203,-12.0,-23.670001983642578,-13.812666893005371,-10.0,0.0,634.3499755859375,117.0,20.191986083984375,3.7242257595062256,0.7448451519012451,20.936832427978516,62.59516143798828,2.3090198040008545,0.03715701401233673,197.25,319.75,491.6333312988281,380.25,153.25,78.56666564941406,230.21112060546875,1.0,0.0007705916068516672,0.03489471599459648,0.8193888068199158,0.32874998450279236,0.5329167246818542,0.3836852014064789,1.0
env_steps,37008,61,61,55,37006,0.8803925333333333,0.40168246626853943,0.06941917538642883,0.04691792279481888,0.658340334892273,3.1651694774627686,1813,5.33839750289917,0.4617655575275421,0.0,600.0,0.5996835827827454,2.2957921028137207,435.9105224609375,8.309317588806152,251.90452575683594,0.0,0.0,2.2957921028137207,2.2957921028137207,0.0,0.0,8.309317588806152,7.985737323760986,0.32357922196388245,0.1712294965982437,0.1712294965982437,6.181256294250488,4.553447246551514,64.82823181152344,-12.0,-23.679346084594727,-13.810491561889648,-10.0,0.0,633.6229248046875,116.7868881225586,20.168842315673828,3.717442274093628,0.7434883713722229,20.912334442138672,62.52342224121094,2.304813861846924,0.037106141448020935,197.32786560058594,320.7868957519531,491.75408935546875,380.1639404296875,153.34426879882812,78.50819396972656,230.17486572265625,1.0,0.0007696092361584306,0.03485388308763504,0.8195900917053223,0.3288797438144684,0.5346448421478271,0.383624792098999,1.0
env_steps,37504,62,62,56,37502,0.8787888,0.2295283079147339,0.13892725110054016,0.2647944986820221,0.49899375438690186,3.3215134143829346,1844,5.849397659301758,0.46452099084854126,0.0,600.0,0.5968815684318542,2.2798922061920166,438.0263977050781,8.31930160522461,255.29946899414062,0.0,0.0,2.2798922061920166,2.2798922061920166,0.0,0.0,8.31930160522461,7.988090991973877,0.3312096893787384,0.17728494107723236,0.17728494107723236,6.220134258270264,4.601548194885254,65.29681396484375,-12.0,-23.649677276611328,-13.797741889953613,-10.0,0.0,638.225830078125,117.51612854003906,20.315357208251953,3.740654706954956,0.7481308579444885,21.06348991394043,62.97761535644531,2.3192055225372314,0.03705693036317825,197.0806427001953,319.69354248046875,491.0161437988281,379.7742004394531,153.0483856201172,78.53225708007812,229.96237182617188,1.0,0.0007742015295661986,0.035105813294649124,0.8183600902557373,0.3284676969051361,0.5328225493431091,0.38327062129974365,1.0
env_steps,38000,63,63,57,37998,0.8771850666666667,0.34876880049705505,0.1662522554397583,0.2753343880176544,0.6240020394325256,3.357313632965088,1875,6.605755805969238,0.46822699904441833,0.0,600.0,0.594221293926239,2.2859256267547607,438.31719970703125,8.397699356079102,254.39588928222656,0.0,0.0,2.2859256267547607,2.2859256267547607,0.0,0.0,8.397699356079102,8.024364471435547,0.3733333349227905,0.18981480598449707,0.18981480598449707,6.295581817626953,4.619483470916748,65.98765563964844,-12.0,-23.603809356689453,-13.778095245361328,-10.0,0.0,645.09521484375,118.17460632324219,20.53401756286621,3.7616145610809326,0.7523228526115417,21.286344528198242,63.65546417236328,2.332200527191162,0.03692643716931343,196.6984100341797,318.8730163574219,490.28570556640625,379.5396728515625,152.88888549804688,78.23809814453125,229.63491821289062,1.0,0.0007803782355040312,0.035477232187986374,0.8171427249908447,0.3278306722640991,0.5314550399780273,0.3827248811721802,1.0
env_steps,38512,64,64,58,38510,0.8755296,0.23254776000976562,0.17803175747394562,0.07969927042722702,0.49871760606765747,3.590193271636963,1907,6.654568195343018,0.46817654371261597,0.0,600.0,0.5919821262359619,2.271432399749756,434.99969482421875,8.369245529174805,253.26409912109375,0.0,0.0,2.271432399749756,2.271432399749756,0.0,0.0,8.369245529174805,8.001510620117188,0.3677343726158142,0.18708333373069763,0.18708333373069763,6.294375419616699,4.630960464477539,65.9467544555664,-12.0,-23.525625228881836,-13.766561508178711,-10.0,0.0,644.609375,118.53125,20.518552780151367,3.7729668617248535,0.7545933723449707,21.273147583007812,63.60751724243164,2.3392393589019775,0.03703557699918747,196.046875,317.96875,489.890625,379.265625,152.59375,78.234375,229.44271850585938,1.0,0.000780294241849333,0.03545524552464485,0.8164843320846558,0.32674479484558105,0.5299478769302368,0.38240450620651245,1.0
env_steps,39008,65,65,59,39006,0.8739258666666667,0.561428427696228,0.06769061088562012,-0.1696767508983612,0.8450639843940735,2.987074613571167,1938,6.672966003417969,0.46822768449783325,0.0,600.0,0.5914245843887329,2.261615514755249,433.8764343261719,8.328230857849121,252.9252471923828,0.0,0.0,2.261615514755249,2.261615514755249,0.0,0.0,8.328230857849121,7.966153621673584,0.36207690834999084,0.18420512974262238,0.18420512974262238,6.275538921356201,4.618129253387451,65.88343048095703,-12.0,-23.457229614257812,-13.753230094909668,-10.0,0.0,644.076904296875,117.984619140625,20.501604080200195,3.7555668354034424,0.7511133551597595,21.25271987915039,63.55498123168945,2.32845139503479,0.03687337040901184,195.4769287109375,318.9076843261719,490.29229736328125,379.0769348144531,152.64614868164062,77.96923065185547,229.22052001953125,1.0,0.0007803794578649104,0.03542120009660721,0.817153811454773,0.32579487562179565,0.5315127968788147,0.38203418254852295,1.0
env_steps,39504,65,65,59,39502,0.8723221333333333,0.19831638038158417,0.10214550793170929,-0.047075532376766205,0.4370720386505127,3.065488338470459,1969,6.672966003417969,0.46822768449783325,0.0,600.0,0.5914245843887329,2.261615514755249,433.8764343261719,8.328230857849121,252.9252471923828,0.0,0.0,2.261615514755249,2.261615514755249,0.0,0.0,8.328230857849121,7.966153621673584,0.36207690834999084,0.18420512974262238,0.18420512974262238,6.275538921356201,4.618129253387451,65.88343048095703,-12.0,-23.457229614257812,-13.753230094909668,-10.0,0.0,644.076904296875,117.984619140625,20.501604080200195,3.7555668354034424,0.7511133551597595,21.25271987915039,63.55498123168945,2.32845139503479,0.03687337040901184,195.4769287109375,318.9076843261719,490.29229736328125,379.0769348144531,152.64614868164062,77.96923065185547,229.22052001953125,1.0,0.0007803794578649104,0.03542120009660721,0.817153811454773,0.32579487562179565,0.5315127968788147,0.38203418254852295,1.0
env_steps,40000,66,66,60,39998,0.8707184,0.31169939041137695,0.0686023011803627,0.09960154443979263,0.5649051070213318,2.860511064529419,2000,6.6244025230407715,0.46779847145080566,0.0,600.0,0.5909595489501953,2.25944447517395,432.4295959472656,8.263762474060059,251.81838989257812,0.0,0.0,2.25944447517395,2.25944447517395,0.0,0.0,8.263762474060059,7.907171249389648,0.3565908968448639,0.1814141422510147,0.1814141422510147,6.223737716674805,4.5799126625061035,65.82501220703125,-12.0,-23.441816329956055,-13.758787155151367,-10.0,0.0,643.4393920898438,118.21212005615234,20.48130989074707,3.7628085613250732,0.7525616884231567,21.23387336730957,63.492069244384766,2.3329412937164307,0.03695583716034889,195.34848022460938,319.1212158203125,490.31817626953125,378.9545593261719,152.56060791015625,78.21212005615234,229.31314086914062,1.0,0.0007796641439199448,0.035389792174100876,0.8171969056129456,0.32558080554008484,0.5318686962127686,0.3821885287761688,1.0
env_steps,40512,67,67,61,40510,0.8690629333333333,0.3354305624961853,0.5139980912208557,0.7575758695602417,0.6201456785202026,3.9122719764709473,2032,6.663933753967285,0.4680880308151245,0.0,600.0,0.5902600884437561,2.2472636699676514,431.52435302734375,8.292462348937988,252.14292907714844,0.0,0.0,2.2472636699676514,2.2472636699676514,0.0,0.0,8.292462348937988,7.926044464111328,0.36641788482666016,0.19097015261650085,0.19097015261650085,6.264104843139648,4.624797821044922,65.873779296875,-12.0,-23.44835662841797,-13.761491775512695,-10.0,0.0,644.0,117.88059997558594,20.499155044555664,3.75225567817688,0.7504511475563049,21.249608993530273,63.547386169433594,2.3263983726501465,0.03681352362036705,195.40298461914062,318.08953857421875,490.1194152832031,379.0149230957031,152.55224609375,78.25373077392578,229.35821533203125,1.0,0.0007801468018442392,0.03541601449251175,0.8168656229972839,0.32567164301872253,0.5301492810249329,0.3822636604309082,1.0
env_steps,41008,68,68,62,41006,0.8674592,0.20834799110889435,0.5039833784103394,0.5873481631278992,0.48844587802886963,4.1766839027404785,2063,6.463799953460693,0.46699556708335876,0.0,600.0,0.5904620289802551,2.2305147647857666,431.3009948730469,8.245882034301758,254.224609375,0.0,0.0,2.2305147647857666,2.2305147647857666,0.0,0.0,8.245882034301758,7.884852886199951,0.36102938652038574,0.18816176056861877,0.18816176056861877,6.24509859085083,4.626855373382568,65.63409423828125,-12.0,-23.410587310791016,-13.759705543518066,-10.0,0.0,641.7058715820312,117.20587921142578,20.426132202148438,3.730778932571411,0.7461557984352112,21.17228889465332,63.32101058959961,2.313082695007324,0.03669365495443344,195.08824157714844,319.23529052734375,490.5882263183594,379.0882263183594,152.5441131591797,78.17646789550781,229.32843017578125,1.0,0.0007783260080032051,0.035287149250507355,0.8176469802856445,0.3251470625400543,0.532058835029602,0.3822140395641327,1.0
env_steps,41504,69,69,63,41502,0.8658554666666667,0.35127758979797363,0.4303615093231201,0.219096377491951,0.6472461223602295,3.5732362270355225,2094,6.7110114097595215,0.46824634075164795,0.0,600.0,0.5899105668067932,2.2700726985931396,431.5244445800781,8.33415412902832,252.4259796142578,0.0,0.0,2.2700726985931396,2.2700726985931396,0.0,0.0,8.33415412902832,7.9767632484436035,0.3573912978172302,0.18702897429466248,0.18702897429466248,6.267319202423096,4.6145172119140625,65.86956024169922,-12.0,-23.399999618530273,-13.758550643920898,-10.0,0.0,643.9855346679688,117.73912811279297,20.498693466186523,3.7477526664733887,0.7495505809783936,21.248247146606445,63.545955657958984,2.3236067295074463,0.036699794232845306,195.0,318.840576171875,490.2463684082031,378.9855041503906,152.7391357421875,78.10144805908203,229.30917358398438,1.0,0.00078041065717116,0.035413745790719986,0.8170772194862366,0.32500001788139343,0.5314009785652161,0.38218194246292114,1.0
env_steps,42000,70,70,64,42000,0.8642517333333333,0.4262508749961853,0.3609503209590912,0.49075013399124146,0.7160437107086182,4.091689109802246,2125,7.266120910644531,0.47089141607284546,0.0,600.0,0.5891371965408325,2.259000062942505,435.20965576171875,8.341713905334473,256.3367614746094,0.0,0.0,2.259000062942505,2.259000062942505,0.0,0.0,8.341713905334473,7.981428623199463,0.3602856993675232,0.18866665661334991,0.18866665661334991,6.286833763122559,4.644710540771484,66.43125915527344,-12.0,-23.405141830444336,-13.75999927520752,-10.0,0.0,649.471435546875,118.77143096923828,20.673316955566406,3.780611753463745,0.756122350692749,21.429441452026367,64.0872802734375,2.3439793586730957,0.03668476268649101,195.04286193847656,317.3285827636719,489.4142761230469,379.028564453125,152.94285583496094,78.0142822265625,229.3333282470703,1.0,0.0007848190143704414,0.0357157364487648,0.8156903982162476,0.32507145404815674,0.5288809537887573,0.3822222054004669,1.0
env_steps,42512,70,70,64,42510,0.8625962666666667,0.3985748887062073,0.40043920278549194,0.4397701025009155,0.70750892162323,4.175180435180664,2157,7.266120910644531,0.47089141607284546,0.0,600.0,0.5891371965408325,2.259000062942505,435.20965576171875,8.341713905334473,256.3367614746094,0.0,0.0,2.259000062942505,2.259000062942505,0.0,0.0,8.341713905334473,7.981428623199463,0.3602856993675232,0.18866665661334991,0.18866665661334991,6.286833763122559,4.644710540771484,66.43125915527344,-12.0,-23.405141830444336,-13.75999927520752,-10.0,0.0,649.471435546875,118.77143096923828,20.673316955566406,3.780611753463745,0.756122350692749,21.429441452026367,64.0872802734375,2.3439793586730957,0.03668476268649101,195.04286193847656,317.3285827636719,489.4142761230469,379.028564453125,152.94285583496094,78.0142822265625,229.3333282470703,1.0,0.0007848190143704414,0.0357157364487648,0.8156903982162476,0.32507145404815674,0.5288809537887573,0.3822222054004669,1.0
env_steps,43008,71,71,65,43006,0.8609925333333334,0.4271053075790405,0.270010381937027,0.29071900248527527,0.7093410491943359,3.7646775245666504,2188,7.518918991088867,0.47186756134033203,0.0,600.0,0.5883622169494629,2.25746488571167,434.70269775390625,8.34328556060791,255.3751678466797,0.0,0.0,2.25746488571167,2.25746488571167,0.0,0.0,8.34328556060791,7.986807823181152,0.35647886991500854,0.18727698922157288,0.18727698922157288,6.296502590179443,4.637100696563721,66.61383819580078,-12.0,-23.345914840698242,-13.74901294708252,-10.0,0.0,651.2394409179688,119.18309783935547,20.729595184326172,3.793715715408325,0.7587431073188782,21.488340377807617,64.26174926757812,2.3521037101745605,0.03668622300028801,194.54930114746094,317.16900634765625,489.2535095214844,378.774658203125,152.78872680664062,77.94366455078125,229.1502227783203,1.0,0.0007864459767006338,0.03581389784812927,0.8154224157333374,0.3242488503456116,0.5286149978637695,0.3819170296192169,1.0
env_steps,43504,72,72,66,43502,0.8593888000000001,0.3455685079097748,0.46107032895088196,0.6726275682449341,0.6441371440887451,3.3311879634857178,2219,7.831670761108398,0.47361528873443604,0.0,600.0,0.586430013179779,2.2529165744781494,434.88275146484375,8.358471870422363,255.40484619140625,0.0,0.0,2.2529165744781494,2.2529165744781494,0.0,0.0,8.358471870422363,8.00400447845459,0.35446760058403015,0.18662036955356598,0.18662036955356598,6.299375057220459,4.648457050323486,66.85111236572266,-12.0,-23.28333282470703,-13.73611068725586,-10.0,0.0,653.5277709960938,119.76388549804688,20.80243682861328,3.8122034072875977,0.76244056224823,21.564876556396484,64.487548828125,2.3635659217834473,0.03670394420623779,194.02777099609375,316.27777099609375,488.77777099609375,378.6388854980469,152.6666717529297,77.75,228.93519592285156,1.0,0.0007893588044680655,0.035941459238529205,0.8146295547485352,0.32337963581085205,0.527129590511322,0.3815586268901825,1.0
env_steps,44000,73,73,67,43998,0.8577850666666667,0.3505716621875763,0.37599503993988037,0.3991405665874481,0.6218389272689819,4.8097710609436035,2250,8.356799125671387,0.4760986268520355,0.0,600.0,0.5850294828414917,2.2543835639953613,435.4501647949219,8.358196258544922,255.18548583984375,0.0,0.0,2.2543835639953613,2.2543835639953613,0.0,0.0,8.358196258544922,8.008036613464355,0.3501598536968231,0.18454337120056152,0.18454337120056152,6.289794445037842,4.63874626159668,67.2973403930664,-12.0,-23.225751876831055,-13.714794158935547,-10.0,0.0,657.9725952148438,120.15068817138672,20.943920135498047,3.8245155811309814,0.7649029493331909,21.70882225036621,64.9261474609375,2.371199369430542,0.036603569984436035,193.54794311523438,316.0821838378906,488.41094970703125,378.28765869140625,152.5205535888672,77.46575164794922,228.5799102783203,1.0,0.0007934977184049785,0.03618136793375015,0.814018189907074,0.32257989048957825,0.5268036127090454,0.38096651434898376,1.0
env_steps,44512,74,74,68,44510,0.8561296,0.2498696744441986,0.44677820801734924,0.49037766456604004,0.5273646116256714,4.044486045837402,2282,8.74732780456543,0.47804322838783264,0.0,600.0,0.5833070874214172,2.2573647499084473,435.4424743652344,8.341666221618652,254.5132293701172,0.0,0.0,2.2573647499084473,2.2573647499084473,0.0,0.0,8.341666221618652,7.996238708496094,0.3454279601573944,0.18204954266548157,0.18204954266548157,6.269819736480713,4.6212358474731445,67.6611099243164,-12.0,-23.205402374267578,-13.708377838134766,-10.0,0.0,661.5134887695312,120.87837982177734,21.056631088256836,3.8476788997650146,0.7695356607437134,21.8261661529541,65.27555084228516,2.3855605125427246,0.036601461470127106,193.3783721923828,314.52703857421875,487.9189147949219,378.1756896972656,152.43243408203125,77.40540313720703,228.4729766845703,1.0,0.0007967387209646404,0.036376941949129105,0.8131981492042542,0.32229727506637573,0.5242117047309875,0.38078826665878296,1.0
env_steps,45008,75,75,69,45006,0.8545258666666666,0.4212658703327179,0.3241116404533386,0.5159502625465393,0.6915175914764404,4.015939235687256,2313,9.307345390319824,0.4805026352405548,0.0,600.0,0.583028256893158,2.263622283935547,436.8294677734375,8.392088890075684,254.52708435058594,0.0,0.0,2.263622283935547,2.263622283935547,0.0,0.0,8.392088890075684,8.028756141662598,0.3633333444595337,0.19039998948574066,0.19039998948574066,6.312955856323242,4.639294624328613,68.16146850585938,-12.0,-23.158397674560547,-13.695732116699219,-10.0,0.0,666.5333251953125,121.13333129882812,21.216415405273438,3.8557941913604736,0.7711586952209473,21.98757553100586,65.77088165283203,2.390592098236084,0.036463662981987,192.98666381835938,314.3466796875,487.4266662597656,378.0666809082031,152.26666259765625,77.22666931152344,228.26220703125,1.0,0.0008008377044461668,0.036645956337451935,0.8123777508735657,0.3216444253921509,0.5239110589027405,0.3804370164871216,1.0
env_steps,45504,75,75,69,45502,0.8529221333333333,0.3509696125984192,0.3934931457042694,0.34919872879981995,0.6044296026229858,3.0534873008728027,2344,9.307345390319824,0.4805026352405548,0.0,600.0,0.583028256893158,2.263622283935547,436.8294677734375,8.392088890075684,254.52708435058594,0.0,0.0,2.263622283935547,2.263622283935547,0.0,0.0,8.392088890075684,8.028756141662598,0.3633333444595337,0.19039998948574066,0.19039998948574066,6.312955856323242,4.639294624328613,68.16146850585938,-12.0,-23.158397674560547,-13.695732116699219,-10.0,0.0,666.5333251953125,121.13333129882812,21.216415405273438,3.8557941913604736,0.7711586952209473,21.98757553100586,65.77088165283203,2.390592098236084,0.036463662981987,192.98666381835938,314.3466796875,487.4266662597656,378.0666809082031,152.26666259765625,77.22666931152344,228.26220703125,1.0,0.0008008377044461668,0.036645956337451935,0.8123777508735657,0.3216444253921509,0.5239110589027405,0.3804370164871216,1.0
env_steps,46000,76,76,70,45998,0.8513184,0.3659982681274414,0.3886142075061798,0.6646701097488403,0.6579370498657227,3.9269206523895264,2375,9.020902633666992,0.4794144332408905,0.0,600.0,0.5828224420547485,2.273750066757202,436.19854736328125,8.395483016967773,252.9203338623047,0.0,0.0,2.273750066757202,2.273750066757202,0.0,0.0,8.395483016967773,8.036930084228516,0.3585526645183563,0.18789473176002502,0.18789473176002502,6.281644821166992,4.617117881774902,67.87484741210938,-12.0,-23.156841278076172,-13.697105407714844,-10.0,0.0,663.7236938476562,120.65789794921875,21.126981735229492,3.840660572052002,0.7681319713592529,21.89511489868164,65.49363708496094,2.381209135055542,0.036459799855947495,192.9736785888672,315.1710510253906,487.90789794921875,378.118408203125,152.2894744873047,77.22368621826172,228.2850799560547,1.0,0.0007990240701474249,0.03649185597896576,0.8131797909736633,0.321622759103775,0.5252850651741028,0.38047513365745544,1.0
env_steps,46512,77,77,71,46510,0.8496629333333333,0.25815141201019287,0.4231586456298828,0.5780940651893616,0.5414182543754578,3.423898696899414,2407,9.127110481262207,0.479748010635376,0.0,600.0,0.5823194980621338,2.268766403198242,436.2663879394531,8.376255989074707,253.23419189453125,0.0,0.0,2.268766403198242,2.268766403198242,0.0,0.0,8.376255989074707,8.02145004272461,0.35480520129203796,0.1858874410390854,0.1858874410390854,6.2776408195495605,4.611758708953857,68.00112915039062,-12.0,-23.175582885742188,-13.698441505432129,-10.0,0.0,664.8961181640625,121.19480895996094,21.164302825927734,3.85775089263916,0.7715499997138977,21.93585205078125,65.60932922363281,2.3918051719665527,0.036521367728710175,193.12986755371094,314.4545593261719,487.7012939453125,378.0259704589844,152.03895568847656,77.42857360839844,228.30735778808594,1.0,0.0007995800697244704,0.036559753119945526,0.8128354549407959,0.32188308238983154,0.5240908861160278,0.3805122375488281,1.0
env_steps,47008,78,78,72,47006,0.8480592,0.4361238479614258,0.3277779817581177,0.27632930874824524,0.7310594916343689,2.685441732406616,2438,9.14992618560791,0.4796691834926605,0.0,600.0,0.5825973153114319,2.254423141479492,438.5301513671875,8.334465980529785,257.3868103027344,0.0,0.0,2.254423141479492,2.254423141479492,0.0,0.0,8.334465980529785,7.984209060668945,0.35025644302368164,0.18350426852703094,0.18350426852703094,6.260191917419434,4.612818717956543,68.00196838378906,-12.0,-23.153844833374023,-13.698205947875977,-10.0,0.0,664.974365234375,120.84615325927734,21.166793823242188,3.8466529846191406,0.7693304419517517,21.93612289428711,65.61705017089844,2.3849241733551025,0.03640255704522133,192.94871520996094,315.1282043457031,487.71795654296875,378.05126953125,152.11538696289062,77.37179565429688,228.30340576171875,1.0,0.0007994486950337887,0.03656020388007164,0.8128631711006165,0.3215811848640442,0.5252136588096619,0.38050565123558044,1.0
env_steps,47504,79,79,73,47502,0.8464554666666666,0.21168550848960876,0.3559146523475647,0.378845751285553,0.45652660727500916,3.069854736328125,2469,9.546808242797852,0.4819037616252899,0.0,600.0,0.5812253355979919,2.26816463470459,438.68756103515625,8.341455459594727,255.89581298828125,0.0,0.0,2.26816463470459,2.26816463470459,0.0,0.0,8.341455459594727,7.995527267456055,0.34592828154563904,0.18128691613674164,0.18128691613674164,6.251835346221924,4.591872692108154,68.40199279785156,-12.0,-23.1508846282959,-13.704305648803711,-10.0,0.0,668.911376953125,121.43038177490234,21.292112350463867,3.8652493953704834,0.7730497717857361,22.065162658691406,66.00553894042969,2.396454095840454,0.036360614001750946,192.92405700683594,313.89874267578125,487.0506286621094,378.22784423828125,152.05062866210938,77.46835327148438,228.40505981445312,1.0,0.0008031729375943542,0.036775268614292145,0.8117509484291077,0.32154005765914917,0.5231645703315735,0.3806750476360321,1.0
env_steps,48000,80,80,74,48000,0.8448517333333334,0.21633940935134888,0.4713316857814789,0.4755784869194031,0.5121974349021912,3.0438930988311768,2500,9.767416000366211,0.4831937253475189,0.0,600.0,0.579430103302002,2.262979030609131,438.7694396972656,8.352020263671875,256.72698974609375,0.0,0.0,2.262979030609131,2.262979030609131,0.0,0.0,8.352020263671875,8.007291793823242,0.34472915530204773,0.1821458488702774,0.1821458488702774,6.259208679199219,4.613111972808838,68.55741882324219,-12.0,-23.101499557495117,-13.688499450683594,-10.0,0.0,670.375,121.98750305175781,21.338699340820312,3.8829827308654785,0.7765965461730957,22.11529541015625,66.14997100830078,2.407449245452881,0.03641270101070404,192.5124969482422,313.5874938964844,486.73748779296875,377.9125061035156,151.8874969482422,77.3125,228.1416778564453,1.0,0.0008053228375501931,0.036858826875686646,0.8112291097640991,0.32085418701171875,0.5226458311080933,0.38023608922958374,1.0
env_steps,48512,80,80,74,48510,0.8431962666666667,0.2326985001564026,0.34029701352119446,0.4657299816608429,0.49702316522598267,3.532428026199341,2532,9.767416000366211,0.4831937253475189,0.0,600.0,0.579430103302002,2.262979030609131,438.7694396972656,8.352020263671875,256.72698974609375,0.0,0.0,2.262979030609131,2.262979030609131,0.0,0.0,8.352020263671875,8.007291793823242,0.34472915530204773,0.1821458488702774,0.1821458488702774,6.259208679199219,4.613111972808838,68.55741882324219,-12.0,-23.101499557495117,-13.688499450683594,-10.0,0.0,670.375,121.98750305175781,21.338699340820312,3.8829827308654785,0.7765965461730957,22.11529541015625,66.14997100830078,2.407449245452881,0.03641270101070404,192.5124969482422,313.5874938964844,486.73748779296875,377.9125061035156,151.8874969482422,77.3125,228.1416778564453,1.0,0.0008053228375501931,0.036858826875686646,0.8112291097640991,0.32085418701171875,0.5226458311080933,0.38023608922958374,1.0
env_steps,49008,81,81,75,49006,0.8415925333333334,0.33630263805389404,0.2667751610279083,0.286172091960907,0.6056495308876038,3.3369202613830566,2563,9.908685684204102,0.4834604561328888,0.0,600.0,0.5787883996963501,2.261378526687622,440.1392822265625,8.373620986938477,256.8685607910156,0.0,0.0,2.261378526687622,2.261378526687622,0.0,0.0,8.373620986938477,8.016955375671387,0.3566666543483734,0.1886008381843567,0.1886008381843567,6.291193962097168,4.617197513580322,68.65856170654297,-12.0,-23.068147659301758,-13.68172836303711,-10.0,0.0,671.3209838867188,122.3827133178711,21.368810653686523,3.8955628871917725,0.7791125774383545,22.147924423217773,66.24331665039062,2.4152488708496094,0.0364520363509655,192.2345733642578,313.1604919433594,486.59259033203125,377.8518371582031,151.86419677734375,77.18518829345703,228.02880859375,1.0,0.0008057674276642501,0.036913204938173294,0.8109875917434692,0.3203909695148468,0.5219341516494751,0.380048006772995,1.0
env_steps,49504,82,82,76,49502,0.8399888,0.1626558154821396,0.2620126008987427,0.2826958894729614,0.405376136302948,2.8821821212768555,2594,10.048921585083008,0.4839438796043396,0.0,600.0,0.5777971744537354,2.2586991786956787,440.513916015625,8.431971549987793,257.2986755371094,0.0,0.0,2.2586991786956787,2.2586991786956787,0.0,0.0,8.431971549987793,8.030813217163086,0.40115854144096375,0.19788618385791779,0.19788618385791779,6.359960079193115,4.655475616455078,68.7774658203125,-12.0,-23.050243377685547,-13.678292274475098,-10.0,0.0,672.4268188476562,122.8780517578125,21.404010772705078,3.911329746246338,0.7822660207748413,22.186275482177734,66.35243225097656,2.4250245094299316,0.036507826298475266,192.0853729248047,312.92681884765625,486.4146423339844,377.743896484375,152.0,77.08536529541016,227.9715576171875,1.0,0.0008065730798989534,0.0369771271944046,0.8106909990310669,0.3201422691345215,0.5215446949005127,0.3799525797367096,1.0
env_steps,50000,83,83,77,49998,0.8383850666666667,0.24611403048038483,0.134734645485878,0.18048471212387085,0.5077131986618042,2.5448966026306152,2625,9.886434555053711,0.4829409420490265,0.0,600.0,0.578192949295044,2.269136428833008,440.01165771484375,8.415863037109375,256.19818115234375,0.0,0.0,2.269136428833008,2.269136428833008,0.0,0.0,8.415863037109375,8.019537925720215,0.39632532000541687,0.19550201296806335,0.19550201296806335,6.326707363128662,4.638382434844971,68.55728149414062,-12.0,-23.003854751586914,-13.666987419128418,-10.0,0.0,670.1445922851562,123.13253021240234,21.33136558532715,3.9194300174713135,0.7838860750198364,22.115249633789062,66.12722778320312,2.430046796798706,0.03674595057964325,191.69879150390625,313.8915710449219,486.57830810546875,377.4096374511719,151.79518127441406,77.0722885131836,227.7831573486328,1.0,0.0008049014722928405,0.036858752369880676,0.8109638094902039,0.3194980025291443,0.5231525897979736,0.37963855266571045,1.0
env_steps,50512,84,84,78,50510,0.8367296,0.46697044372558594,0.46292412281036377,0.6676489114761353,0.7695623636245728,4.039455413818359,2657,9.946796417236328,0.483435720205307,0.0,600.0,0.5775691270828247,2.2604763507843018,439.8394775390625,8.388432502746582,257.2957458496094,0.0,0.0,2.2604763507843018,2.2604763507843018,0.0,0.0,8.388432502746582,7.996825218200684,0.3916071355342865,0.19317461550235748,0.19317461550235748,6.308869361877441,4.637082576751709,68.61346435546875,-12.0,-23.002857208251953,-13.663809776306152,-10.0,0.0,670.6428833007812,123.48809814453125,21.347225189208984,3.9307479858398438,0.7861496806144714,22.13337516784668,66.17639923095703,2.4370639324188232,0.036799054592847824,191.6904754638672,313.8690490722656,486.44049072265625,377.4166564941406,151.79762268066406,76.98809814453125,227.73019409179688,1.0,0.0008057261002250016,0.036888957023620605,0.8107340931892395,0.3194841146469116,0.5231150388717651,0.3795502781867981,1.0
env_steps,51008,85,85,79,51006,0.8351258666666667,0.19880884885787964,0.3490496277809143,0.3734362721443176,0.48132696747779846,4.560649871826172,2688,10.271753311157227,0.4849141240119934,0.0,600.0,0.5755897164344788,2.267176628112793,440.83197021484375,8.385979652404785,256.58660888671875,0.0,0.0,2.267176628112793,2.267176628112793,0.0,0.0,8.385979652404785,7.998980522155762,0.3869999945163727,0.1909019649028778,0.1909019649028778,6.290921688079834,4.616997718811035,68.85128784179688,-12.0,-22.928470611572266,-13.651058197021484,-10.0,0.0,673.0117797851562,123.6941146850586,21.422630310058594,3.9373056888580322,0.7874613404273987,22.210092544555664,66.41014862060547,2.441129684448242,0.03673466667532921,191.07058715820312,313.29412841796875,486.1176452636719,377.2823486328125,151.811767578125,76.72940826416016,227.51766967773438,1.0,0.0008081900887191296,0.037016816437244415,0.810196042060852,0.3184509873390198,0.522156834602356,0.37919607758522034,1.0
env_steps,51504,85,85,79,51502,0.8335221333333334,0.31533727049827576,0.3327878713607788,0.4128103256225586,0.5893703699111938,2.907895088195801,2719,10.271753311157227,0.4849141240119934,0.0,600.0,0.5755897164344788,2.267176628112793,440.83197021484375,8.385979652404785,256.58660888671875,0.0,0.0,2.267176628112793,2.267176628112793,0.0,0.0,8.385979652404785,7.998980522155762,0.3869999945163727,0.1909019649028778,0.1909019649028778,6.290921688079834,4.616997718811035,68.85128784179688,-12.0,-22.928470611572266,-13.651058197021484,-10.0,0.0,673.0117797851562,123.6941146850586,21.422630310058594,3.9373056888580322,0.7874613404273987,22.210092544555664,66.41014862060547,2.441129684448242,0.03673466667532921,191.07058715820312,313.29412841796875,486.1176452636719,377.2823486328125,151.811767578125,76.72940826416016,227.51766967773438,1.0,0.0008081900887191296,0.037016816437244415,0.810196042060852,0.3184509873390198,0.522156834602356,0.37919607758522034,1.0
env_steps,52000,86,86,80,51998,0.8319184,0.3094590902328491,0.32016754150390625,0.30048757791519165,0.5847446918487549,2.9236512184143066,2750,10.494782447814941,0.48598024249076843,0.0,600.0,0.5741400122642517,2.2758915424346924,440.4129638671875,8.376860618591309,255.30361938476562,0.0,0.0,2.2758915424346924,2.2758915424346924,0.0,0.0,8.376860618591309,7.993217468261719,0.38364338874816895,0.18928295373916626,0.18928295373916626,6.2696123123168945,4.5945234298706055,69.02804565429688,-12.0,-22.893489837646484,-13.63976764678955,-10.0,0.0,674.6976928710938,124.22093200683594,21.476293563842773,3.9540746212005615,0.7908151149749756,22.267108917236328,66.57650756835938,2.451526641845703,0.036768924444913864,190.77906799316406,313.0116271972656,485.8023376464844,377.11627197265625,151.61627197265625,76.6279067993164,227.32948303222656,1.0,0.0008099669357761741,0.03711184859275818,0.8096704483032227,0.3179651200771332,0.5216860175132751,0.37888243794441223,1.0
env_steps,52512,87,87,81,52510,0.8302629333333333,0.24343430995941162,0.2932291030883789,0.4389123022556305,0.5024278163909912,3.8526508808135986,2782,10.655044555664062,0.48687127232551575,0.0,600.0,0.5724367499351501,2.280881404876709,440.928955078125,8.400267601013184,254.73219299316406,0.0,0.0,2.280881404876709,2.280881404876709,0.0,0.0,8.400267601013184,8.019789695739746,0.3804789185523987,0.18793104588985443,0.18793104588985443,6.267566680908203,4.596519947052002,69.12769317626953,-12.0,-22.844139099121094,-13.628506660461426,-10.0,0.0,675.6206665039062,124.6551742553711,21.505674362182617,3.9678969383239746,0.793579638004303,22.29925537109375,66.66758728027344,2.4600963592529297,0.03681926056742668,190.36781311035156,312.82757568359375,485.563232421875,377.10345458984375,151.4712677001953,76.42528533935547,227.1417999267578,1.0,0.0008114519878290594,0.03716542199254036,0.8092719912528992,0.3172796964645386,0.521379292011261,0.3785696029663086,1.0
env_steps,53008,88,88,82,53006,0.8286592,0.43156152963638306,0.46382007002830505,0.4378666281700134,0.7177174687385559,5.000828266143799,2813,10.931661605834961,0.48802614212036133,0.0,600.0,0.571433961391449,2.2691855430603027,443.7139587402344,8.393258094787598,258.58123779296875,0.0,0.0,2.2691855430603027,2.2691855430603027,0.0,0.0,8.393258094787598,8.016951560974121,0.37630680203437805,0.185946986079216,0.185946986079216,6.2819318771362305,4.621251106262207,69.36074829101562,-12.0,-22.809545516967773,-13.61954402923584,-10.0,0.0,677.8863525390625,125.13636016845703,21.577791213989258,3.9832139015197754,0.7966428399085999,22.37443733215332,66.89115905761719,2.469592809677124,0.03681867569684982,190.0795440673828,312.125,485.2045593261719,376.93182373046875,151.25,76.3977279663086,226.99241638183594,1.0,0.0008133769151754677,0.037290725857019424,0.8086742162704468,0.31679925322532654,0.5202082991600037,0.37832069396972656,1.0
env_steps,53504,89,89,83,53502,0.8270554666666667,0.30878525972366333,0.37302184104919434,0.35811540484428406,0.5958515405654907,4.137443542480469,2844,10.771167755126953,0.4873696565628052,0.0,600.0,0.5704911351203918,2.2633144855499268,443.7417907714844,8.39380168914795,258.78277587890625,0.0,0.0,2.2633144855499268,2.2633144855499268,0.0,0.0,8.39380168914795,8.02009391784668,0.3737078607082367,0.1854681819677353,0.1854681819677353,6.297303676605225,4.626858234405518,69.17790985107422,-12.0,-22.789213180541992,-13.617526054382324,-10.0,0.0,676.0899047851562,124.85393524169922,21.520606994628906,3.9742238521575928,0.7948448061943054,22.31545639038086,66.7138900756836,2.4640188217163086,0.03682267665863037,189.9101104736328,312.87640380859375,485.494384765625,376.7415771484375,151.21348571777344,76.4606704711914,226.9587860107422,1.0,0.0008122827857732773,0.03719242289662361,0.8091573119163513,0.31651684641838074,0.5214606523513794,0.3782646656036377,1.0
env_steps,54000,90,90,84,54000,0.8254517333333333,0.4271882176399231,0.3377777934074402,0.3867095112800598,0.7120145559310913,3.481981039047241,2875,10.645849227905273,0.4865133464336395,0.0,600.0,0.571140706539154,2.2494444847106934,442.58685302734375,8.393407821655273,259.6632080078125,0.0,0.0,2.2494444847106934,2.2494444847106934,0.0,0.0,8.393407821655273,8.017797470092773,0.3756110668182373,0.18666668236255646,0.18666668236255646,6.320000648498535,4.667731285095215,69.0614013671875,-12.0,-22.793333053588867,-13.622220993041992,-10.0,0.0,674.9444580078125,124.67778015136719,21.484148025512695,3.9686167240142822,0.7937234044075012,22.277873992919922,66.60086059570312,2.4605424404144287,0.03682076558470726,189.94444274902344,313.81109619140625,485.8888854980469,376.78887939453125,151.3000030517578,76.5111083984375,227.03701782226562,1.0,0.0008108556503430009,0.03712978586554527,0.8098148107528687,0.3165740668773651,0.5230185389518738,0.37839505076408386,1.0
env_steps,54512,90,90,84,54510,0.8237962666666667,0.34118151664733887,0.28200259804725647,0.23799428343772888,0.6035879850387573,3.304885149002075,2907,10.645849227905273,0.4865133464336395,0.0,600.0,0.571140706539154,2.2494444847106934,442.58685302734375,8.393407821655273,259.6632080078125,0.0,0.0,2.2494444847106934,2.2494444847106934,0.0,0.0,8.393407821655273,8.017797470092773,0.3756110668182373,0.18666668236255646,0.18666668236255646,6.320000648498535,4.667731285095215,69.0614013671875,-12.0,-22.793333053588867,-13.622220993041992,-10.0,0.0,674.9444580078125,124.67778015136719,21.484148025512695,3.9686167240142822,0.7937234044075012,22.277873992919922,66.60086059570312,2.4605424404144287,0.03682076558470726,189.94444274902344,313.81109619140625,485.8888854980469,376.78887939453125,151.3000030517578,76.5111083984375,227.03701782226562,1.0,0.0008108556503430009,0.03712978586554527,0.8098148107528687,0.3165740668773651,0.5230185389518738,0.37839505076408386,1.0
env_steps,55008,91,91,85,55006,0.8221925333333333,0.3889501094818115,0.39244070649147034,0.5062680840492249,0.6756644248962402,3.9332821369171143,2938,10.844869613647461,0.48740991950035095,0.0,600.0,0.5698561072349548,2.263681173324585,442.3858947753906,8.420183181762695,258.1800842285156,0.0,0.0,2.263681173324585,2.263681173324585,0.0,0.0,8.420183181762695,8.04868221282959,0.3715018033981323,0.18463371694087982,0.18463371694087982,6.307363033294678,4.651368141174316,69.20619201660156,-12.0,-22.756481170654297,-13.60483455657959,-10.0,0.0,676.3186645507812,125.14286041259766,21.527891159057617,3.9834206104278564,0.796684205532074,22.32457733154297,66.73646545410156,2.4697208404541016,0.03685654699802399,189.63735961914062,313.72528076171875,485.75823974609375,376.4065856933594,150.89010620117188,76.47252655029297,226.7472381591797,1.0,0.0008123498992063105,0.037207625806331635,0.8095970749855042,0.3160622715950012,0.5228754281997681,0.37791207432746887,1.0
env_steps,55504,92,92,86,55502,0.8205888,0.1827285885810852,0.44174033403396606,0.44925761222839355,0.46818113327026367,3.5510671138763428,2969,10.898913383483887,0.4875815510749817,0.0,600.0,0.5697931051254272,2.2848007678985596,442.044921875,8.42914867401123,256.5906982421875,0.0,0.0,2.2848007678985596,2.2848007678985596,0.0,0.0,8.42914867401123,8.059094429016113,0.37005433440208435,0.18398551642894745,0.18398551642894745,6.288352012634277,4.630288600921631,69.234130859375,-12.0,-22.72825813293457,-13.606956481933594,-10.0,0.0,676.521728515625,125.5434799194336,21.53435516357422,3.9961726665496826,0.7992346286773682,22.33359146118164,66.75650787353516,2.4776270389556885,0.036940086632966995,189.4021759033203,313.9673767089844,485.75,376.4565124511719,150.93478393554688,76.47826385498047,226.7825927734375,1.0,0.0008126359316520393,0.03722264990210533,0.809583306312561,0.31567031145095825,0.5232790112495422,0.37797102332115173,1.0
