dk0113-Y/DRL-path-finding/experiment_records/final_method/A_new_minimum_closure/Anew_C_local_state_ddqn/logs/train_steps.csv
budget_mode,env_steps,episode_idx,train_episode_idx,completed_train_episodes,replay_size,epsilon,loss,q_mean,target_q_mean,td_abs_mean,grad_norm,learner_steps,recent_mean_reward,recent_mean_coverage,recent_success_rate,recent_mean_episode_length,recent_mean_repeat_visit_ratio,recent_accessible_block_count,recent_total_accessible_unknown_area,recent_total_frontier_cluster_count,recent_mean_block_area,recent_local_frontier_coverage,recent_local_frontier_block_area_mean,recent_value_total_block_count_before_cap,recent_value_packed_block_count,recent_value_truncated_block_count,recent_value_block_cap_hit_flag,recent_value_total_entry_count_before_cap,recent_value_packed_entry_count,recent_value_truncated_entry_count,recent_value_entry_cap_hit_block_count,recent_value_entry_cap_hit_flag,recent_value_max_frontier_clusters_per_block,recent_value_mean_frontier_clusters_per_block,recent_info_reward_sum,recent_step_penalty_sum,recent_recent_revisit_penalty_sum,recent_turn_penalty_sum,recent_timeout_penalty_sum,recent_terminal_bonus_sum,recent_delta_empty_sum,recent_delta_obstacle_sum,recent_empty_info_gain_sum,recent_obstacle_info_gain_sum,recent_weighted_obstacle_info_gain_sum,recent_weighted_info_gain_sum,recent_empty_info_reward_sum,recent_obstacle_info_reward_sum,recent_obstacle_info_contribution_ratio,recent_recent_revisit_trigger_count,recent_stall_trigger_count,recent_zero_info_step_count,recent_turn_ge_90_count,recent_turn_135_count,recent_turn_180_count,recent_turn_penalty_weight_sum,recent_timeout_flag,recent_coverage_gain_per_step,recent_weighted_info_gain_per_step,recent_zero_info_rate,recent_recent_revisit_rate,recent_stall_rate,recent_turn_burden_rate,recent_timeout_rate
env_steps,4512,7,7,1,4510,0.9854629333333333,nan,nan,nan,nan,nan,0,5.017880439758301,0.4635713994503021,0.0,600.0,0.623246967792511,nan,nan,nan,nan,nan,nan,nan,0.0,nan,nan,nan,0.0,nan,nan,nan,nan,nan,65.74645233154297,-12.0,-24.651430130004883,-14.077141761779785,-10.0,0.0,644.0,111.42857360839844,20.499156951904297,3.5468814373016357,0.709376335144043,21.20853614807129,63.54738235473633,2.199066638946533,0.03362147882580757,205.42857360839844,303.0,490.1428527832031,387.4285583496094,158.14285278320312,79.14286041259766,234.61904907226562,1.0,0.0007726190378889441,0.035347554832696915,0.8169047236442566,0.34238097071647644,0.5049999952316284,0.39103174209594727,1.0
env_steps,5008,8,8,2,5006,0.9838592,nan,nan,nan,nan,nan,0,2.099501609802246,0.4489874839782715,0.0,600.0,0.6264559030532837,nan,nan,nan,nan,nan,nan,nan,0.0,nan,nan,nan,0.0,nan,nan,nan,nan,nan,63.017005920410156,-12.0,-24.735000610351562,-14.182499885559082,-10.0,0.0,615.875,113.75,19.60390853881836,3.620774984359741,0.7241549491882324,20.328067779541016,60.772125244140625,2.244880437850952,0.03672216460108757,206.125,304.25,491.625,390.125,159.75,79.625,236.375,1.0,0.0007483125082217157,0.03388010710477829,0.8193749785423279,0.34354168176651,0.5070832967758179,0.39395833015441895,1.0
env_steps,5504,9,9,3,5502,0.9822554666666666,nan,nan,nan,nan,nan,0,2.180434465408325,0.44752222299575806,0.0,600.0,0.6274726986885071,nan,nan,nan,nan,nan,nan,nan,0.0,nan,nan,nan,0.0,nan,nan,nan,nan,nan,62.74043655395508,-12.0,-24.49333381652832,-14.066666603088379,-10.0,0.0,614.2222290039062,108.0,19.551300048828125,3.437747001647949,0.687549352645874,20.238853454589844,60.60903549194336,2.1314029693603516,0.03488805517554283,204.11111450195312,306.22222900390625,492.77777099609375,388.4444580078125,160.22222900390625,77.33333587646484,234.44444274902344,1.0,0.0007458704058080912,0.03373141586780548,0.8212962746620178,0.3401851952075958,0.5103703737258911,0.3907407522201538,1.0
env_steps,6000,10,10,4,6000,0.9806517333333333,nan,nan,nan,nan,nan,0,0.8248704075813293,0.43841999769210815,0.0,600.0,0.6314476132392883,nan,nan,nan,nan,nan,nan,nan,0.0,nan,nan,nan,0.0,nan,nan,nan,nan,nan,61.498870849609375,-12.0,-24.552000045776367,-14.121999740600586,-10.0,0.0,601.7999877929688,107.19999694824219,19.155887603759766,3.4122822284698486,0.682456374168396,19.838348388671875,59.38325881958008,2.115614891052246,0.035320818424224854,204.60000610351562,318.3999938964844,495.8999938964844,389.0,159.5,78.80000305175781,235.36666870117188,1.0,0.0007306999759748578,0.03306390717625618,0.8264999389648438,0.3410000205039978,0.5306666493415833,0.3922777771949768,1.0
env_steps,6512,10,10,4,6510,0.9789962666666666,nan,nan,nan,nan,nan,0,0.8248704075813293,0.43841999769210815,0.0,600.0,0.6314476132392883,nan,nan,nan,nan,nan,nan,nan,0.0,nan,nan,nan,0.0,nan,nan,nan,nan,nan,61.498870849609375,-12.0,-24.552000045776367,-14.121999740600586,-10.0,0.0,601.7999877929688,107.19999694824219,19.155887603759766,3.4122822284698486,0.682456374168396,19.838348388671875,59.38325881958008,2.115614891052246,0.035320818424224854,204.60000610351562,318.3999938964844,495.8999938964844,389.0,159.5,78.80000305175781,235.36666870117188,1.0,0.0007306999759748578,0.03306390717625618,0.8264999389648438,0.3410000205039978,0.5306666493415833,0.3922777771949768,1.0
env_steps,7008,11,11,5,7006,0.9773925333333333,nan,nan,nan,nan,nan,0,-0.31658095121383667,0.43495455384254456,0.0,600.0,0.6310694217681885,nan,nan,nan,nan,nan,nan,nan,0.0,nan,nan,nan,0.0,nan,nan,nan,nan,nan,60.590694427490234,-12.0,-24.70909309387207,-14.198182106018066,-10.0,0.0,593.1818237304688,104.2727279663086,18.881563186645508,3.3191041946411133,0.663820743560791,19.545387268066406,58.5328483581543,2.057844400405884,0.034722164273262024,205.90908813476562,321.0,497.0,389.5454406738281,159.09091186523438,80.63636016845703,236.63636779785156,1.0,0.0007249242044053972,0.032575640827417374,0.8283332586288452,0.3431818187236786,0.5349999666213989,0.3943939208984375,1.0
env_steps,7504,12,12,6,7502,0.9757888,nan,nan,nan,nan,nan,0,0.012369791977107525,0.43843331933021545,0.0,600.0,0.6264559030532837,nan,nan,nan,nan,nan,nan,nan,0.0,nan,nan,nan,0.0,nan,nan,nan,nan,nan,60.815704345703125,-12.0,-24.680002212524414,-14.123333930969238,-10.0,0.0,595.0833129882812,106.16666412353516,18.94209098815918,3.379390001296997,0.6758779883384705,19.617971420288086,58.72047805786133,2.095221757888794,0.035128723829984665,205.6666717529297,326.0833435058594,498.75,388.0833435058594,158.75,79.66666412353516,235.38890075683594,1.0,0.0007307222113013268,0.032696615904569626,0.8312499523162842,0.3427777588367462,0.5434722304344177,0.3923147916793823,1.0
env_steps,8000,13,13,7,7998,0.9741850666666667,nan,nan,nan,nan,nan,0,-0.2703585922718048,0.4355153739452362,0.0,600.0,0.6298476457595825,nan,nan,nan,nan,nan,nan,nan,0.0,nan,nan,nan,0.0,nan,nan,nan,nan,nan,60.741947174072266,-12.0,-24.849233627319336,-14.163077354431152,-10.0,0.0,594.5384521484375,105.15384674072266,18.924745559692383,3.347151041030884,0.669430136680603,19.594179153442383,58.66671371459961,2.0752336978912354,0.034785185009241104,207.07691955566406,323.23077392578125,499.1538391113281,389.0,159.15383911132812,80.0,236.05128479003906,1.0,0.0007258589612320065,0.0326569639146328,0.8319230675697327,0.34512820839881897,0.5387179255485535,0.3934187889099121,1.0
env_steps,8512,14,14,8,8510,0.9725296,0.3336351215839386,-0.11517633497714996,0.05457001179456711,0.5292856097221375,0.26157835125923157,32,-0.05665893107652664,0.43599286675453186,0.0,600.0,0.6333491206169128,nan,nan,nan,nan,nan,nan,nan,0.0,nan,nan,nan,0.0,nan,nan,nan,nan,nan,61.080482482910156,-12.0,-24.934289932250977,-14.202857971191406,-10.0,0.0,597.6428833007812,106.78571319580078,19.023561477661133,3.399095058441162,0.6798189878463745,19.703384399414062,58.973045349121094,2.107438802719116,0.035056062042713165,207.7857208251953,324.5714416503906,499.71429443359375,389.4285583496094,159.2857208251953,80.71428680419922,236.7142791748047,1.0,0.0007266547763720155,0.03283897042274475,0.8328571319580078,0.34630951285362244,0.5409523844718933,0.3945237994194031,1.0
env_steps,9008,15,15,9,9006,0.9709258666666667,0.4093649983406067,-0.1783151775598526,-0.18877631425857544,0.7043409943580627,0.41101396083831787,63,-1.2213151454925537,0.4310000240802765,0.0,600.0,0.6404880285263062,nan,nan,nan,nan,nan,nan,nan,0.0,nan,nan,nan,0.0,nan,nan,nan,nan,nan,59.92268371582031,-12.0,-24.960002899169922,-14.184000968933105,-10.0,0.0,586.3333129882812,104.66666412353516,18.6635684967041,3.331643581390381,0.6663286685943604,19.32990074157715,57.85706329345703,2.0656189918518066,0.034976325929164886,208.0,325.20001220703125,500.20001220703125,389.3333435058594,158.6666717529297,80.5999984741211,236.39999389648438,1.0,0.0007183334091678262,0.032216496765613556,0.8336666822433472,0.3466666638851166,0.5419999957084656,0.39399999380111694,1.0
env_steps,9504,15,15,9,9502,0.9693221333333333,0.37431907653808594,-0.08874011784791946,0.21693408489227295,0.6098403930664062,0.46392375230789185,94,-1.2213151454925537,0.4310000240802765,0.0,600.0,0.6404880285263062,nan,nan,nan,nan,nan,nan,nan,0.0,nan,nan,nan,0.0,nan,nan,nan,nan,nan,59.92268371582031,-12.0,-24.960002899169922,-14.184000968933105,-10.0,0.0,586.3333129882812,104.66666412353516,18.6635684967041,3.331643581390381,0.6663286685943604,19.32990074157715,57.85706329345703,2.0656189918518066,0.034976325929164886,208.0,325.20001220703125,500.20001220703125,389.3333435058594,158.6666717529297,80.5999984741211,236.39999389648438,1.0,0.0007183334091678262,0.032216496765613556,0.8336666822433472,0.3466666638851166,0.5419999957084656,0.39399999380111694,1.0
env_steps,10000,16,16,10,9998,0.9677184,0.23303939402103424,-0.18118371069431305,-0.308491975069046,0.56666499376297,0.44935885071754456,125,-1.8213306665420532,0.42746874690055847,0.0,600.0,0.6408069729804993,nan,nan,nan,nan,nan,nan,nan,0.0,nan,nan,nan,0.0,nan,nan,nan,nan,nan,59.3524169921875,-12.0,-25.020000457763672,-14.153749465942383,-10.0,0.0,580.5625,104.625,18.479877471923828,3.3303170204162598,0.6660634279251099,19.14594268798828,57.287620544433594,2.0647964477539062,0.035315558314323425,208.5,326.875,501.1875,387.9375,157.875,80.9375,235.89584350585938,1.0,0.0007124479161575437,0.03190990164875984,0.83531254529953,0.3475000262260437,0.5447916984558105,0.3931597173213959,1.0
env_steps,10512,17,17,11,10510,0.9660629333333334,0.14171987771987915,-0.2647855877876282,-0.11223118752241135,0.3469175100326538,0.31855452060699463,157,-1.2734694480895996,0.4313470721244812,0.0,600.0,0.638249933719635,nan,nan,nan,nan,nan,nan,nan,0.0,nan,nan,nan,0.0,nan,nan,nan,nan,nan,59.84064865112305,-12.0,-24.981176376342773,-14.132941246032715,-10.0,0.0,584.88232421875,107.76470947265625,18.61738395690918,3.4302570819854736,0.6860514283180237,19.303436279296875,57.713890075683594,2.1267592906951904,0.03594940900802612,208.1764678955078,327.5294189453125,501.1764831542969,387.4117736816406,157.94117736816406,80.64705657958984,235.5490264892578,1.0,0.0007189117604866624,0.03217238932847977,0.8352941870689392,0.34696078300476074,0.5458824038505554,0.3925817012786865,1.0
env_steps,11008,18,18,12,11006,0.9644592,0.22057300806045532,-0.10099314898252487,-0.22482460737228394,0.5380685329437256,0.41091784834861755,188,-2.487675905227661,0.42408889532089233,0.0,600.0,0.6396746039390564,nan,nan,nan,nan,nan,nan,nan,0.0,nan,nan,nan,0.0,nan,nan,nan,nan,nan,58.62454605102539,-12.0,-24.99333381652832,-14.118888854980469,-10.0,0.0,572.7777709960938,106.66666412353516,18.23208236694336,3.3953053951263428,0.6790611147880554,18.911144256591797,56.51945495605469,2.1050891876220703,0.03649454191327095,208.27777099609375,331.3888854980469,502.8333435058594,387.22222900390625,156.8333282470703,80.94444274902344,235.31483459472656,1.0,0.0007068148697726429,0.03151857107877731,0.8380556106567383,0.3471296429634094,0.5523148775100708,0.3921913504600525,1.0
env_steps,11504,19,19,13,11502,0.9628554666666667,0.2508942484855652,-0.32643741369247437,-0.1090899184346199,0.5124084949493408,0.2826271951198578,219,-0.5803708434104919,0.4323526620864868,0.0,600.0,0.6332428455352783,nan,nan,nan,nan,nan,nan,nan,0.0,nan,nan,nan,0.0,nan,nan,nan,nan,nan,60.3596305847168,-12.0,-24.852632522583008,-14.087368965148926,-10.0,0.0,589.7894897460938,109.52631378173828,18.773582458496094,3.486330986022949,0.697266161441803,19.470849990844727,58.19810104370117,2.161525011062622,0.036399610340595245,207.1052703857422,326.7894592285156,499.84210205078125,387.0,156.3157958984375,80.52631378173828,234.7895050048828,1.0,0.0007205877336673439,0.032451413571834564,0.8330702781677246,0.34517544507980347,0.5446491837501526,0.3913157880306244,1.0
env_steps,12000,20,20,14,12000,0.9612517333333334,0.44193369150161743,-0.018966177478432655,-0.09638156741857529,0.6609078645706177,0.2901323437690735,250,0.26964884996414185,0.4367400109767914,0.0,600.0,0.6303660869598389,nan,nan,nan,nan,nan,nan,nan,0.0,nan,nan,nan,0.0,nan,nan,nan,nan,nan,60.99365234375,-12.0,-24.672000885009766,-14.052000045776367,-10.0,0.0,596.5,108.0999984741211,18.987184524536133,3.440929889678955,0.68818598985672,19.675373077392578,58.860267639160156,2.133376359939575,0.03567392751574516,205.60000610351562,324.8500061035156,498.70001220703125,386.1499938964844,156.35000610351562,80.05000305175781,234.2000274658203,1.0,0.0007279000128619373,0.032792285084724426,0.8311667442321777,0.3426666855812073,0.5414167046546936,0.3903333246707916,1.0
env_steps,12512,20,20,14,12510,0.9595962666666666,0.238725483417511,-0.18095386028289795,-0.3359348773956299,0.5199500918388367,0.35173499584198,282,0.26964884996414185,0.4367400109767914,0.0,600.0,0.6303660869598389,nan,nan,nan,nan,nan,nan,nan,0.0,nan,nan,nan,0.0,nan,nan,nan,nan,nan,60.99365234375,-12.0,-24.672000885009766,-14.052000045776367,-10.0,0.0,596.5,108.0999984741211,18.987184524536133,3.440929889678955,0.68818598985672,19.675373077392578,58.860267639160156,2.133376359939575,0.03567392751574516,205.60000610351562,324.8500061035156,498.70001220703125,386.1499938964844,156.35000610351562,80.05000305175781,234.2000274658203,1.0,0.0007279000128619373,0.032792285084724426,0.8311667442321777,0.3426666855812073,0.5414167046546936,0.3903333246707916,1.0
env_steps,13008,21,21,15,13006,0.9579925333333333,0.2809046506881714,-0.2103099226951599,0.055339470505714417,0.5194118022918701,0.2548396587371826,313,1.1616688966751099,0.4406190514564514,0.0,600.0,0.6267332434654236,nan,nan,nan,nan,nan,nan,nan,0.0,nan,nan,nan,0.0,nan,nan,nan,nan,nan,62.056907653808594,-12.0,-24.81142807006836,-14.083809852600098,-10.0,0.0,607.0,109.47618865966797,19.321409225463867,3.4847354888916016,0.6969470977783203,20.01835823059082,59.89636993408203,2.1605358123779297,0.035520363599061966,206.76190185546875,320.23809814453125,497.23809814453125,386.3809509277344,156.6666717529297,80.57142639160156,234.73019409179688,1.0,0.0007343650795519352,0.03336393088102341,0.8287302851676941,0.34460318088531494,0.5337302088737488,0.391216903924942,1.0
env_steps,13504,22,22,16,13502,0.9563888,0.18954409658908844,-0.0494905561208725,0.11202801764011383,0.3921704888343811,0.2405398041009903,344,0.0037542690988630056,0.43755003809928894,0.0,600.0,0.6320526599884033,nan,nan,nan,nan,nan,nan,nan,0.0,nan,nan,nan,0.0,nan,nan,nan,nan,nan,61.311031341552734,-12.0,-25.14545249938965,-14.161818504333496,-10.0,0.0,599.9091186523438,107.13636016845703,19.095699310302734,3.4102563858032227,0.6820513010025024,19.777751922607422,59.1966667175293,2.11435866355896,0.03504560515284538,209.5454559326172,322.5454406738281,498.2727355957031,387.5,157.22727966308594,81.68181610107422,236.03033447265625,1.0,0.0007292500231415033,0.032962918281555176,0.8304546475410461,0.3492424190044403,0.5375757813453674,0.39338380098342896,1.0
env_steps,14000,23,23,17,13998,0.9547850666666666,0.1989789754152298,-0.042429208755493164,0.06296288222074509,0.42722034454345703,0.19740056991577148,375,-0.2916102409362793,0.4372261166572571,0.0,600.0,0.62960284948349,nan,nan,nan,nan,nan,nan,nan,0.0,nan,nan,nan,0.0,nan,nan,nan,nan,nan,60.944915771484375,-12.0,-25.09043312072754,-14.146086692810059,-10.0,0.0,596.2608642578125,106.82608795166016,18.979572296142578,3.4003798961639404,0.680076003074646,19.659648895263672,58.836673736572266,2.1082353591918945,0.03514420613646507,209.0869598388672,323.65216064453125,498.2173767089844,387.7826232910156,157.3478240966797,81.08695983886719,235.76815795898438,1.0,0.0007287102052941918,0.032766081392765045,0.8303623795509338,0.3484782874584198,0.5394203066825867,0.3929468095302582,1.0
env_steps,14512,24,24,18,14510,0.9531296,0.3047686219215393,0.02465854026377201,0.19670122861862183,0.5550167560577393,0.3493422865867615,407,-0.2723316252231598,0.4371749460697174,0.0,600.0,0.627773106098175,nan,nan,nan,nan,nan,nan,nan,0.0,nan,nan,nan,0.0,nan,nan,nan,nan,nan,60.91766357421875,-12.0,-25.05000114440918,-14.139999389648438,-10.0,0.0,595.875,107.375,18.9672908782959,3.4178524017333984,0.6835705637931824,19.650861740112305,58.79859924316406,2.1190683841705322,0.035316526889801025,208.75,322.6666564941406,497.8333435058594,387.75,157.1666717529297,81.04166412353516,235.6666717529297,1.0,0.0007286249310709536,0.03275143727660179,0.8297222256660461,0.34791669249534607,0.5377777218818665,0.39277780055999756,1.0
env_steps,15008,25,25,19,15006,0.9515258666666666,0.1497001349925995,-0.025058414787054062,-0.01489170640707016,0.403745174407959,0.18848364055156708,438,-0.5935848951339722,0.43581998348236084,0.0,600.0,0.6268885135650635,nan,nan,nan,nan,nan,nan,nan,0.0,nan,nan,nan,0.0,nan,nan,nan,nan,nan,60.63840866088867,-12.0,-25.07040023803711,-14.161599159240723,-10.0,0.0,592.9600219726562,107.80000305175781,18.87450408935547,3.4313805103302,0.6862761974334717,19.560779571533203,58.510955810546875,2.127455949783325,0.035630904138088226,208.9199981689453,324.0400085449219,498.3999938964844,388.0400085449219,157.63999938964844,81.19999694824219,236.0266571044922,1.0,0.0007263666484504938,0.03260130062699318,0.8306666612625122,0.3481999933719635,0.540066659450531,0.39337781071662903,1.0
env_steps,15504,25,25,19,15502,0.9499221333333333,0.27789729833602905,-0.11912296712398529,-0.01824960857629776,0.5123612880706787,0.3171520233154297,469,-0.5935848951339722,0.43581998348236084,0.0,600.0,0.6268885135650635,nan,nan,nan,nan,nan,nan,nan,0.0,nan,nan,nan,0.0,nan,nan,nan,nan,nan,60.63840866088867,-12.0,-25.07040023803711,-14.161599159240723,-10.0,0.0,592.9600219726562,107.80000305175781,18.87450408935547,3.4313805103302,0.6862761974334717,19.560779571533203,58.510955810546875,2.127455949783325,0.035630904138088226,208.9199981689453,324.0400085449219,498.3999938964844,388.0400085449219,157.63999938964844,81.19999694824219,236.0266571044922,1.0,0.0007263666484504938,0.03260130062699318,0.8306666612625122,0.3481999933719635,0.540066659450531,0.39337781071662903,1.0
env_steps,16000,26,26,20,15998,0.9483184,0.21184518933296204,0.0059449439868330956,0.09946710616350174,0.4458026587963104,0.22922848165035248,500,-1.6640633344650269,0.43196919560432434,0.0,600.0,0.6288877725601196,nan,nan,nan,nan,nan,nan,nan,0.0,nan,nan,nan,0.0,nan,nan,nan,nan,nan,59.642086029052734,-12.0,-25.121540069580078,-14.184615135192871,-10.0,0.0,583.076904296875,106.73076629638672,18.55991554260254,3.397346019744873,0.6794692277908325,19.239383697509766,57.53573226928711,2.106354236602783,0.03600873798131943,209.34616088867188,328.4230651855469,500.0769348144531,388.4230651855469,157.57691955566406,81.61538696289062,236.41024780273438,1.0,0.0007199486717581749,0.03206564113497734,0.8334615230560303,0.34891027212142944,0.5473718047142029,0.3940171003341675,1.0
env_steps,16512,27,27,21,16510,0.9466629333333333,0.17639288306236267,-0.059813886880874634,-0.0923626571893692,0.3526686429977417,0.1837373971939087,532,-1.2385307550430298,0.43492960929870605,0.0,600.0,0.6265483498573303,nan,nan,nan,nan,nan,nan,nan,0.0,nan,nan,nan,0.0,nan,nan,nan,nan,nan,60.12368392944336,-12.0,-25.186668395996094,-14.175555229187012,-10.0,0.0,587.74072265625,107.81481170654297,18.708370208740234,3.431852340698242,0.6863704919815063,19.394739151000977,57.995941162109375,2.1277482509613037,0.03604346886277199,209.88888549804688,326.2592468261719,499.370361328125,388.2592468261719,156.59259033203125,81.96295928955078,236.25926208496094,1.0,0.000724882644135505,0.032324567437171936,0.8322839140892029,0.3498148024082184,0.5437654256820679,0.3937654495239258,1.0
env_steps,17008,28,28,22,17006,0.9450592,0.15918487310409546,-0.19084769487380981,-0.061847299337387085,0.3984507918357849,0.4310693144798279,563,-1.1931781768798828,0.43524283170700073,0.0,600.0,0.6265153288841248,nan,nan,nan,nan,nan,nan,nan,0.0,nan,nan,nan,0.0,nan,nan,nan,nan,nan,60.12895965576172,-12.0,-25.15714454650879,-14.164999961853027,-10.0,0.0,587.7142944335938,108.21428680419922,18.707529067993164,3.444567918777466,0.6889136433601379,19.396440505981445,57.99332809448242,2.135632038116455,0.0361478216946125,209.64285278320312,324.53570556640625,498.78570556640625,387.9285583496094,156.4642791748047,81.92857360839844,236.08334350585938,1.0,0.0007254047086462379,0.032327402383089066,0.8313094973564148,0.3494047522544861,0.5408928394317627,0.39347222447395325,1.0
env_steps,17504,29,29,23,17502,0.9434554666666667,0.2101825773715973,-0.10111844539642334,0.014974942430853844,0.4763246774673462,0.6166263818740845,594,-0.6200985908508301,0.438027560710907,0.0,600.0,0.6251075863838196,nan,nan,nan,nan,nan,nan,nan,0.0,nan,nan,nan,0.0,nan,nan,nan,nan,nan,60.661277770996094,-12.0,-25.129655838012695,-14.151723861694336,-10.0,0.0,592.9655151367188,108.93103790283203,18.874679565429688,3.4673824310302734,0.6934765577316284,19.56815528869629,58.51150131225586,2.1497771739959717,0.03606307506561279,209.41378784179688,322.96551513671875,497.89654541015625,388.2069091796875,156.89654541015625,81.24137878417969,235.86207580566406,1.0,0.0007300458964891732,0.032613590359687805,0.829827606678009,0.3490229547023773,0.5382758378982544,0.3931034803390503,1.0
env_steps,18000,30,30,24,18000,0.9418517333333334,0.17921850085258484,-0.15791109204292297,0.09628187865018845,0.4136522710323334,0.6954850554466248,625,-0.7706752419471741,0.4387166202068329,0.0,600.0,0.6271215081214905,nan,nan,nan,nan,nan,nan,nan,0.0,nan,nan,nan,0.0,nan,nan,nan,nan,nan,60.669986724853516,-12.0,-25.263999938964844,-14.176666259765625,-10.0,0.0,593.0333251953125,109.03333282470703,18.87683868408203,3.4706387519836426,0.6941278576850891,19.570964813232422,58.518192291259766,2.1517958641052246,0.03607034683227539,210.53334045410156,325.3333435058594,498.4666748046875,388.9333190917969,156.63333129882812,81.63333129882812,236.2777862548828,1.0,0.0007311943918466568,0.03261827304959297,0.8307778239250183,0.35088884830474854,0.5422222018241882,0.39379632472991943,1.0
env_steps,18512,30,30,24,18510,0.9401962666666667,0.2340582013130188,-0.15889857709407806,0.018368512392044067,0.4492323696613312,1.1508033275604248,657,-0.7706752419471741,0.4387166202068329,0.0,600.0,0.6271215081214905,nan,nan,nan,nan,nan,nan,nan,0.0,nan,nan,nan,0.0,nan,nan,nan,nan,nan,60.669986724853516,-12.0,-25.263999938964844,-14.176666259765625,-10.0,0.0,593.0333251953125,109.03333282470703,18.87683868408203,3.4706387519836426,0.6941278576850891,19.570964813232422,58.518192291259766,2.1517958641052246,0.03607034683227539,210.53334045410156,325.3333435058594,498.4666748046875,388.9333190917969,156.63333129882812,81.63333129882812,236.2777862548828,1.0,0.0007311943918466568,0.03261827304959297,0.8307778239250183,0.35088884830474854,0.5422222018241882,0.39379632472991943,1.0
env_steps,19008,31,31,25,19006,0.9385925333333334,0.22195816040039062,-0.1713840663433075,-0.09110184013843536,0.43232467770576477,0.5055832266807556,688,-1.6071839332580566,0.4342935383319855,0.0,600.0,0.628629744052887,nan,nan,nan,nan,nan,nan,nan,0.0,nan,nan,nan,0.0,nan,nan,nan,nan,nan,59.87281036376953,-12.0,-25.33548355102539,-14.144515037536621,-10.0,0.0,584.9354858398438,109.12903594970703,18.619075775146484,3.4736850261688232,0.6947370767593384,19.313810348510742,57.7191276550293,2.153684616088867,0.03688971698284149,211.1290283203125,327.9032287597656,499.6451721191406,388.06451416015625,156.3225860595703,81.41935729980469,235.74192810058594,1.0,0.000723822508007288,0.032189685851335526,0.8327419757843018,0.3518817126750946,0.546505331993103,0.39290323853492737,1.0
env_steps,19504,32,32,26,19502,0.9369888,0.1827743947505951,-0.012399278581142426,-0.11715752631425858,0.4044855237007141,0.6518638730049133,719,-2.030684471130371,0.4323562681674957,0.0,600.0,0.6278078556060791,nan,nan,nan,nan,nan,nan,nan,0.0,nan,nan,nan,0.0,nan,nan,nan,nan,nan,59.397438049316406,-12.0,-25.301250457763672,-14.126874923706055,-10.0,0.0,580.34375,108.0,18.472915649414062,3.437747001647949,0.687549352645874,19.160465240478516,57.26603698730469,2.1314029693603516,0.03674498200416565,210.84375,326.71875,499.4375,388.03125,156.8125,80.75,235.44790649414062,1.0,0.0007205937290564179,0.03193410858511925,0.8323958516120911,0.3514062464237213,0.5445312261581421,0.3924131989479065,1.0
env_steps,20000,33,33,27,19998,0.9353850666666667,0.15961353480815887,-0.21638044714927673,-0.0904865711927414,0.392089307308197,0.4893146753311157,750,-1.9738866090774536,0.4317697286605835,0.0,600.0,0.6282963156700134,nan,nan,nan,nan,nan,nan,nan,0.0,nan,nan,nan,0.0,nan,nan,nan,nan,nan,59.35095977783203,-12.0,-25.210908889770508,-14.11393928527832,-10.0,0.0,579.727294921875,108.7272720336914,18.453292846679688,3.4608967304229736,0.6921793222427368,19.14547348022461,57.205204010009766,2.1457557678222656,0.03699575364589691,210.09091186523438,325.6060485839844,498.9090881347656,387.8787841796875,156.18182373046875,80.81818389892578,235.23231506347656,1.0,0.0007196161313913763,0.031909119337797165,0.8315151929855347,0.35015153884887695,0.5426767468452454,0.39205387234687805,1.0
env_steps,20512,34,34,28,20510,0.9337295999999999,0.20217302441596985,-0.1902930587530136,-0.08000200986862183,0.4268789291381836,0.6068700551986694,782,-2.086336135864258,0.4313499927520752,0.0,600.0,0.6283645033836365,nan,nan,nan,nan,nan,nan,nan,0.0,nan,nan,nan,0.0,nan,nan,nan,nan,nan,59.221309661865234,-12.0,-25.182353973388672,-14.12529468536377,-10.0,0.0,578.2058715820312,109.76470947265625,18.404865264892578,3.4939193725585938,0.698783814907074,19.10365104675293,57.05508041381836,2.1662299633026123,0.03742894530296326,209.85293579101562,324.70587158203125,498.73529052734375,387.9705810546875,156.11764526367188,81.0882339477539,235.4215545654297,1.0,0.0007189166499301791,0.031839411705732346,0.8312255144119263,0.3497549295425415,0.541176438331604,0.39236927032470703,1.0
env_steps,21008,35,35,29,21006,0.9321258666666666,0.1382429003715515,-0.09668891876935959,0.04629439860582352,0.37540194392204285,0.8829004168510437,813,-2.7050697803497314,0.4270542860031128,0.0,600.0,0.6284763813018799,nan,nan,nan,nan,nan,nan,nan,0.0,nan,nan,nan,0.0,nan,nan,nan,nan,nan,58.683502197265625,-12.0,-25.237714767456055,-14.150856971740723,-10.0,0.0,572.7714233398438,109.68571472167969,18.231882095336914,3.4914050102233887,0.698280930519104,18.930164337158203,56.51882553100586,2.1646711826324463,0.037853021174669266,210.3142852783203,325.6856994628906,499.4285583496094,388.3428649902344,156.22857666015625,81.4857177734375,235.84759521484375,1.0,0.0007117571658454835,0.031550269573926926,0.8323809504508972,0.35052382946014404,0.5428094863891602,0.39307934045791626,1.0
env_steps,21504,35,35,29,21502,0.9305221333333333,0.18969698250293732,0.018727954477071762,0.06438830494880676,0.43060266971588135,1.138192892074585,844,-2.7050697803497314,0.4270542860031128,0.0,600.0,0.6284763813018799,nan,nan,nan,nan,nan,nan,nan,0.0,nan,nan,nan,0.0,nan,nan,nan,nan,nan,58.683502197265625,-12.0,-25.237714767456055,-14.150856971740723,-10.0,0.0,572.7714233398438,109.68571472167969,18.231882095336914,3.4914050102233887,0.698280930519104,18.930164337158203,56.51882553100586,2.1646711826324463,0.037853021174669266,210.3142852783203,325.6856994628906,499.4285583496094,388.3428649902344,156.22857666015625,81.4857177734375,235.84759521484375,1.0,0.0007117571658454835,0.031550269573926926,0.8323809504508972,0.35052382946014404,0.5428094863891602,0.39307934045791626,1.0
env_steps,22000,36,36,30,21998,0.9289184,0.17602086067199707,-0.1777712106704712,-0.30757343769073486,0.40849408507347107,0.5856778621673584,875,-2.8410089015960693,0.4264666736125946,0.0,600.0,0.6290904879570007,nan,nan,nan,nan,nan,nan,nan,0.0,nan,nan,nan,0.0,nan,nan,nan,nan,nan,58.62454605102539,-12.0,-25.296667098999023,-14.168888092041016,-10.0,0.0,572.1944580078125,109.58333587646484,18.21351432800293,3.4881460666656494,0.6976291537284851,18.91114616394043,56.46189498901367,2.1626505851745605,0.03782891854643822,210.80555725097656,326.6944580078125,499.9166564941406,388.4166564941406,155.97222900390625,82.02777862548828,236.14813232421875,1.0,0.0007107777637429535,0.03151857107877731,0.8331944346427917,0.3513426184654236,0.5444906949996948,0.39358022809028625,1.0
env_steps,22512,37,37,31,22510,0.9272629333333333,0.19131124019622803,-0.08251146972179413,-0.1161118894815445,0.40718820691108704,0.41877123713493347,907,-2.9140465259552,0.4263675808906555,0.0,600.0,0.629176676273346,nan,nan,nan,nan,nan,nan,nan,0.0,nan,nan,nan,0.0,nan,nan,nan,nan,nan,58.4973030090332,-12.0,-25.25513458251953,-14.15621566772461,-10.0,0.0,570.8378295898438,109.9189224243164,18.170331954956055,3.4988279342651367,0.6997655630111694,18.870100021362305,56.328025817871094,2.169273614883423,0.038013432174921036,210.45945739746094,328.3783874511719,500.1351318359375,388.270263671875,155.91891479492188,81.8108139038086,235.93692016601562,1.0,0.000710612628608942,0.03145016357302666,0.8335584998130798,0.35076579451560974,0.5472972393035889,0.3932282030582428,1.0
env_steps,23008,38,38,32,23006,0.9256592,0.3054092824459076,-0.10548952966928482,-0.18969941139221191,0.5553234219551086,0.736783504486084,938,-1.2144949436187744,0.4345894753932953,0.0,600.0,0.6257116198539734,nan,nan,nan,nan,nan,nan,nan,0.0,nan,nan,nan,0.0,nan,nan,nan,nan,nan,60.15707778930664,-12.0,-25.215789794921875,-14.155789375305176,-10.0,0.0,587.0789184570312,112.81578826904297,18.68730354309082,3.591038465499878,0.718207597732544,19.4055118560791,57.930633544921875,2.2264437675476074,0.037952929735183716,210.13157653808594,324.52630615234375,498.3947448730469,388.0789489746094,155.8157958984375,81.9473648071289,235.9298095703125,1.0,0.0007243158179335296,0.032342515885829926,0.8306578397750854,0.35021933913230896,0.5408771634101868,0.3932163417339325,1.0
env_steps,23504,39,39,33,23502,0.9240554666666667,0.1968487799167633,-0.14228779077529907,-0.19798603653907776,0.43542009592056274,0.7280652523040771,969,-0.5723104476928711,0.43923333287239075,0.0,600.0,0.6234908103942871,nan,nan,nan,nan,nan,nan,nan,0.0,nan,nan,nan,0.0,nan,nan,nan,nan,nan,60.849220275878906,-12.0,-25.24615478515625,-14.175383567810059,-10.0,0.0,593.8974609375,113.79486846923828,18.90434455871582,3.6222033500671387,0.7244406342506409,19.6287841796875,58.60345458984375,2.2457661628723145,0.03785654157400131,210.38461303710938,320.6666564941406,497.1025695800781,388.3846130371094,155.61538696289062,82.38461303710938,236.25640869140625,1.0,0.0007320555741898715,0.032714635133743286,0.828504204750061,0.35064104199409485,0.5344443917274475,0.393760621547699,1.0
env_steps,24000,40,40,34,24000,0.9224517333333333,0.2813723385334015,-0.08305777609348297,-0.133074551820755,0.5155021548271179,0.785534679889679,1000,0.04899930953979492,0.44294747710227966,0.0,600.0,0.6215474009513855,nan,nan,nan,nan,nan,nan,nan,0.0,nan,nan,nan,0.0,nan,nan,nan,nan,nan,61.452003479003906,-12.0,-25.242000579833984,-14.16100025177002,-10.0,0.0,599.5999755859375,115.82499694824219,19.085861206054688,3.686824083328247,0.7373648881912231,19.823225021362305,59.166168212890625,2.2858309745788574,0.03804252669215202,210.35000610351562,319.625,496.57501220703125,387.8999938964844,155.64999389648438,82.25,236.0166473388672,1.0,0.000738245842512697,0.03303870931267738,0.8276250958442688,0.35058334469795227,0.5327083468437195,0.39336109161376953,1.0
env_steps,24512,40,40,34,24510,0.9207962666666667,0.3205406069755554,-0.09986329078674316,-0.04728224128484726,0.5528683662414551,0.5945556163787842,1032,0.04899930953979492,0.44294747710227966,0.0,600.0,0.6215474009513855,nan,nan,nan,nan,nan,nan,nan,0.0,nan,nan,nan,0.0,nan,nan,nan,nan,nan,61.452003479003906,-12.0,-25.242000579833984,-14.16100025177002,-10.0,0.0,599.5999755859375,115.82499694824219,19.085861206054688,3.686824083328247,0.7373648881912231,19.823225021362305,59.166168212890625,2.2858309745788574,0.03804252669215202,210.35000610351562,319.625,496.57501220703125,387.8999938964844,155.64999389648438,82.25,236.0166473388672,1.0,0.000738245842512697,0.03303870931267738,0.8276250958442688,0.35058334469795227,0.5327083468437195,0.39336109161376953,1.0
env_steps,25008,41,41,35,25006,0.9191925333333333,0.3366018533706665,0.07219889760017395,0.02891218662261963,0.5774665474891663,1.2133716344833374,1063,-0.585318922996521,0.4412511885166168,0.0,600.0,0.6233513355255127,nan,nan,nan,nan,nan,nan,nan,0.0,nan,nan,nan,0.0,nan,nan,nan,nan,nan,60.931270599365234,-12.0,-25.337560653686523,-14.179024696350098,-10.0,0.0,594.4146118164062,115.36585235595703,18.920806884765625,3.672208786010742,0.734441876411438,19.65524673461914,58.65449905395508,2.2767696380615234,0.03827895596623421,211.14634704589844,320.43902587890625,497.1219482421875,388.1463317871094,155.8292694091797,82.48780822753906,236.31704711914062,1.0,0.0007354187546297908,0.032758746296167374,0.8285366892814636,0.3519105613231659,0.5340650677680969,0.3938617706298828,1.0
env_steps,25504,42,42,36,25502,0.9175888,0.38004744052886963,0.2737469971179962,0.2957724928855896,0.6445059776306152,1.3967803716659546,1094,-0.8039618730545044,0.43986666202545166,0.0,600.0,0.6232865452766418,nan,nan,nan,nan,nan,nan,nan,0.0,nan,nan,nan,0.0,nan,nan,nan,nan,nan,60.66652297973633,-12.0,-25.308570861816406,-14.161906242370605,-10.0,0.0,591.8333129882812,114.85713958740234,18.838640213012695,3.6560161113739014,0.7312033176422119,19.569843292236328,58.39978790283203,2.2667300701141357,0.038254279643297195,210.90475463867188,322.78570556640625,497.5714416503906,387.9047546386719,156.09524536132812,82.04762268066406,236.03170776367188,1.0,0.0007331111701205373,0.03261640667915344,0.8292858600616455,0.35150793194770813,0.5379762053489685,0.39338621497154236,1.0
env_steps,26000,43,43,37,25998,0.9159850666666667,0.35906028747558594,0.005851099267601967,0.19796481728553772,0.5820059180259705,1.5487226247787476,1125,0.33965328335762024,0.44514185190200806,0.0,600.0,0.6213287711143494,nan,nan,nan,nan,nan,nan,nan,0.0,nan,nan,nan,0.0,nan,nan,nan,nan,nan,61.80105209350586,-12.0,-25.30046272277832,-14.160931587219238,-10.0,0.0,602.8372192382812,117.3255844116211,19.188905715942383,3.734588861465454,0.7469179034233093,19.935821533203125,59.4856071472168,2.3154451847076416,0.03829135373234749,210.8372039794922,319.6278991699219,496.2790832519531,387.7441711425781,155.97674560546875,82.16278839111328,236.01547241210938,1.0,0.000741903146263212,0.0332263708114624,0.8271319270133972,0.3513953387737274,0.5327131748199463,0.39335912466049194,1.0
env_steps,26512,44,44,38,26510,0.9143296,0.23208896815776825,-0.06408949941396713,0.1137787401676178,0.4477498233318329,1.0110816955566406,1157,1.5259490013122559,0.4509931802749634,0.0,600.0,0.6171153783798218,nan,nan,nan,nan,nan,nan,nan,0.0,nan,nan,nan,0.0,nan,nan,nan,nan,nan,62.90913391113281,-12.0,-25.240907669067383,-14.142273902893066,-10.0,0.0,613.727294921875,119.0227279663086,19.535547256469727,3.7886109352111816,0.7577222585678101,20.29326820373535,60.56019592285156,2.3489389419555664,0.03820003941655159,210.34091186523438,317.3636474609375,494.9545593261719,387.43182373046875,155.4545440673828,82.11363983154297,235.70449829101562,1.0,0.0007516553741879761,0.03382211551070213,0.8249244093894958,0.35056817531585693,0.528939425945282,0.3928408622741699,1.0
env_steps,27008,45,45,39,27006,0.9127258666666667,0.26683861017227173,-0.0796288475394249,0.09092476218938828,0.4948575794696808,0.8689873814582825,1188,0.9701778888702393,0.447893351316452,0.0,600.0,0.6194490194320679,nan,nan,nan,nan,nan,nan,nan,0.0,nan,nan,nan,0.0,nan,nan,nan,nan,nan,62.378623962402344,-12.0,-25.261333465576172,-14.147111892700195,-10.0,0.0,608.4666748046875,118.44444274902344,19.36809730529785,3.7702035903930664,0.7540407776832581,20.12213706970215,60.04110336303711,2.337526321411133,0.03839597851037979,210.5111083984375,318.68890380859375,495.5333251953125,387.71112060546875,155.64443969726562,82.0,235.78514099121094,1.0,0.0007464889786206186,0.033536896109580994,0.825888991355896,0.350851833820343,0.5311481952667236,0.3929752707481384,1.0
env_steps,27504,45,45,39,27502,0.9111221333333334,0.19147098064422607,0.23925766348838806,0.016727108508348465,0.45423054695129395,3.793897867202759,1219,0.9701778888702393,0.447893351316452,0.0,600.0,0.6194490194320679,nan,nan,nan,nan,nan,nan,nan,0.0,nan,nan,nan,0.0,nan,nan,nan,nan,nan,62.378623962402344,-12.0,-25.261333465576172,-14.147111892700195,-10.0,0.0,608.4666748046875,118.44444274902344,19.36809730529785,3.7702035903930664,0.7540407776832581,20.12213706970215,60.04110336303711,2.337526321411133,0.03839597851037979,210.5111083984375,318.68890380859375,495.5333251953125,387.71112060546875,155.64443969726562,82.0,235.78514099121094,1.0,0.0007464889786206186,0.033536896109580994,0.825888991355896,0.350851833820343,0.5311481952667236,0.3929752707481384,1.0
env_steps,28000,46,46,40,27998,0.9095184000000001,0.4043101966381073,0.1353691965341568,0.00013926811516284943,0.6661585569381714,1.6767077445983887,1250,1.5987958908081055,0.45046305656433105,0.0,600.0,0.6185704469680786,nan,nan,nan,nan,nan,nan,nan,0.0,nan,nan,nan,0.0,nan,nan,nan,nan,nan,62.9561882019043,-12.0,-25.213045120239258,-14.144349098205566,-10.0,0.0,614.1956787109375,119.06521606445312,19.550457000732422,3.789963483810425,0.7579928040504456,20.308446884155273,60.606414794921875,2.3497774600982666,0.03827032446861267,210.1086883544922,318.6956481933594,494.978271484375,387.60870361328125,156.0,81.8043441772461,235.7390899658203,1.0,0.0007507718401029706,0.03384741395711899,0.8249638676643372,0.3501811623573303,0.5311594605445862,0.3928985297679901,1.0
env_steps,28512,47,47,41,28510,0.9078629333333333,0.2666851878166199,0.04837295785546303,0.016188839450478554,0.5396775603294373,0.9233907461166382,1282,1.5202120542526245,0.44980210065841675,0.0,600.0,0.6184018850326538,nan,nan,nan,nan,nan,nan,nan,0.0,nan,nan,nan,0.0,nan,nan,nan,nan,nan,62.81340408325195,-12.0,-25.166810989379883,-14.126384735107422,-10.0,0.0,612.7021484375,119.2978744506836,19.50291633605957,3.7973692417144775,0.7594739198684692,20.262388229370117,60.45903778076172,2.3543689250946045,0.03842657059431076,209.72340393066406,319.1914978027344,495.1914978027344,387.2978820800781,155.9574432373047,81.53191375732422,235.43968200683594,1.0,0.0007496702601201832,0.03377065062522888,0.825319230556488,0.34953901171684265,0.5319858193397522,0.39239948987960815,1.0
env_steps,29008,48,48,42,29006,0.9062592,0.42750391364097595,-0.09107919037342072,0.08582401275634766,0.652611255645752,2.0189929008483887,1313,1.7485885620117188,0.4507666528224945,0.0,600.0,0.6184137463569641,nan,nan,nan,nan,nan,nan,nan,0.0,nan,nan,nan,0.0,nan,nan,nan,nan,nan,63.05400466918945,-12.0,-25.16750144958496,-14.137916564941406,-10.0,0.0,615.0625,119.6875,19.578046798706055,3.8097715377807617,0.7619543075561523,20.340002059936523,60.69194412231445,2.362058401107788,0.03838902339339256,209.7291717529297,319.9375,495.1458435058594,387.4791564941406,156.0,81.70833587646484,235.6319580078125,1.0,0.0007512777228839695,0.033900003880262375,0.8252431750297546,0.3495486080646515,0.5332291722297668,0.39271989464759827,1.0
env_steps,29504,49,49,43,29502,0.9046554666666666,0.4519897401332855,0.15079858899116516,0.0822799950838089,0.7161211967468262,1.6635839939117432,1344,2.5324366092681885,0.4554775357246399,0.0,600.0,0.615436851978302,nan,nan,nan,nan,nan,nan,nan,0.0,nan,nan,nan,0.0,nan,nan,nan,nan,nan,63.84019088745117,-12.0,-25.17306137084961,-14.134693145751953,-10.0,0.0,622.755126953125,121.06122589111328,19.82291030883789,3.8534984588623047,0.7706997394561768,20.593610763549805,61.45102310180664,2.3891689777374268,0.038347043097019196,209.7755126953125,317.93878173828125,493.9795837402344,387.3061218261719,155.9591827392578,81.73469543457031,235.5782470703125,1.0,0.0007591292378492653,0.03432268276810646,0.8232994079589844,0.349625825881958,0.5298979878425598,0.39263036847114563,1.0
env_steps,30000,50,50,44,30000,0.9030517333333333,0.3050570785999298,0.16774871945381165,0.37696489691734314,0.5353209972381592,1.2672290802001953,1375,3.6945459842681885,0.4622959792613983,0.0,600.0,0.6126456260681152,nan,nan,nan,nan,nan,nan,nan,0.0,nan,nan,nan,0.0,nan,nan,nan,nan,nan,64.92174530029297,-12.0,-25.101598739624023,-14.125598907470703,-10.0,0.0,633.4000244140625,122.63999938964844,20.1617488861084,3.903752326965332,0.7807505130767822,20.9424991607666,62.50141906738281,2.4203264713287354,0.038249555975198746,209.17999267578125,315.9200134277344,492.5799865722656,387.1400146484375,155.86000061035156,81.63999938964844,235.4266815185547,1.0,0.0007704932941123843,0.03490416333079338,0.8209667205810547,0.3486333191394806,0.5265333652496338,0.39237773418426514,1.0
env_steps,30512,50,50,44,30510,0.9013962666666666,0.37351492047309875,0.20050591230392456,0.06888449192047119,0.6331241130828857,2.6788136959075928,1407,3.6945459842681885,0.4622959792613983,0.0,600.0,0.6126456260681152,nan,nan,nan,nan,nan,nan,nan,0.0,nan,nan,nan,0.0,nan,nan,nan,nan,nan,64.92174530029297,-12.0,-25.101598739624023,-14.125598907470703,-10.0,0.0,633.4000244140625,122.63999938964844,20.1617488861084,3.903752326965332,0.7807505130767822,20.9424991607666,62.50141906738281,2.4203264713287354,0.038249555975198746,209.17999267578125,315.9200134277344,492.5799865722656,387.1400146484375,155.86000061035156,81.63999938964844,235.4266815185547,1.0,0.0007704932941123843,0.03490416333079338,0.8209667205810547,0.3486333191394806,0.5265333652496338,0.39237773418426514,1.0
env_steps,31008,51,51,45,31006,0.8997925333333333,0.21838998794555664,-0.08608216047286987,0.004709390923380852,0.4351211488246918,1.0491816997528076,1438,3.774320363998413,0.4630313515663147,0.0,600.0,0.613813579082489,nan,nan,nan,nan,nan,nan,nan,0.0,nan,nan,nan,0.0,nan,nan,nan,nan,nan,64.98883056640625,-12.0,-25.09176254272461,-14.1227445602417,-10.0,0.0,634.1372680664062,122.35294342041016,20.185216903686523,3.8946149349212646,0.7789230346679688,20.964139938354492,62.57416915893555,2.414661407470703,0.03811107203364372,209.09803771972656,316.7254943847656,492.8235168457031,387.058837890625,155.58824157714844,81.7450942993164,235.3791046142578,1.0,0.0007717189146205783,0.03494022786617279,0.8213726282119751,0.3484967052936554,0.5278758406639099,0.39229846000671387,1.0
env_steps,31504,52,52,46,31502,0.8981888,0.23263415694236755,-0.04030989110469818,0.1407133936882019,0.44329172372817993,1.1708046197891235,1469,3.9588775634765625,0.4640788435935974,0.0,600.0,0.6119288206100464,nan,nan,nan,nan,nan,nan,nan,0.0,nan,nan,nan,0.0,nan,nan,nan,nan,nan,65.15618133544922,-12.0,-25.082305908203125,-14.114998817443848,-10.0,0.0,635.7884521484375,122.57691955566406,20.237775802612305,3.9017446041107178,0.7803488969802856,21.018125534057617,62.73710632324219,2.419081687927246,0.038068290799856186,209.01922607421875,316.2884521484375,492.6538391113281,386.75,155.5,81.75,235.25001525878906,1.0,0.0007734647369943559,0.03503020480275154,0.8210898041725159,0.3483653664588928,0.5271474123001099,0.3920833170413971,1.0
env_steps,32000,53,53,47,31998,0.8965850666666667,0.2587575912475586,-0.003438118379563093,0.017217814922332764,0.47752782702445984,0.7260187864303589,1500,4.035607814788818,0.46483397483825684,0.0,600.0,0.611622154712677,nan,nan,nan,nan,nan,nan,nan,0.0,nan,nan,nan,0.0,nan,nan,nan,nan,nan,65.29711151123047,-12.0,-25.127544403076172,-14.133960723876953,-10.0,0.0,637.0943603515625,123.18868255615234,20.279342651367188,3.921217441558838,0.7842434644699097,21.063587188720703,62.865966796875,2.431154727935791,0.03814472630620003,209.39622497558594,316.9433898925781,492.45281982421875,387.1886901855469,155.8867950439453,81.81131744384766,235.56605529785156,1.0,0.0007747233030386269,0.03510597348213196,0.8207547664642334,0.3489936888217926,0.5282389521598816,0.3926100432872772,1.0
env_steps,32512,54,54,48,32510,0.8949296,0.2969275116920471,0.24520647525787354,0.2687743306159973,0.548382043838501,1.78946852684021,1532,3.7533223628997803,0.4625851809978485,0.0,600.0,0.6125593781471252,nan,nan,nan,nan,nan,nan,nan,0.0,nan,nan,nan,0.0,nan,nan,nan,nan,nan,64.95442962646484,-12.0,-25.075551986694336,-14.125554084777832,-10.0,0.0,633.7036743164062,122.77777862548828,20.171415328979492,3.9081380367279053,0.7816275954246521,20.95304298400879,62.53139114379883,2.4230453968048096,0.03822719678282738,208.9629669189453,319.03704833984375,493.09259033203125,387.5185241699219,155.8333282470703,81.46295928955078,235.4259490966797,1.0,0.0007709753699600697,0.034921735525131226,0.8218210935592651,0.34827157855033875,0.5317283868789673,0.39237651228904724,1.0
env_steps,33008,55,55,49,33006,0.8933258666666667,0.2122848480939865,-0.11323583126068115,0.07413850724697113,0.41008809208869934,1.4378172159194946,1563,4.197412014007568,0.46605998277664185,0.0,600.0,0.6103162169456482,nan,nan,nan,nan,nan,nan,nan,0.0,nan,nan,nan,0.0,nan,nan,nan,nan,nan,65.37487030029297,-12.0,-25.060359954833984,-14.117088317871094,-10.0,0.0,637.9091186523438,123.0545425415039,20.305278778076172,3.916947841644287,0.7833895683288574,21.088666915893555,62.94636154174805,2.4285075664520264,0.038094356656074524,208.83636474609375,317.6727294921875,492.5818176269531,387.2727355957031,155.81817626953125,81.38182067871094,235.2848663330078,1.0,0.0007767667411826551,0.035147774964571,0.820969820022583,0.34806057810783386,0.5294545292854309,0.3921413719654083,1.0
env_steps,33504,55,55,49,33502,0.8917221333333334,0.18397338688373566,0.02530902996659279,0.10064412653446198,0.3989800810813904,1.0668621063232422,1594,4.197412014007568,0.46605998277664185,0.0,600.0,0.6103162169456482,nan,nan,nan,nan,nan,nan,nan,0.0,nan,nan,nan,0.0,nan,nan,nan,nan,nan,65.37487030029297,-12.0,-25.060359954833984,-14.117088317871094,-10.0,0.0,637.9091186523438,123.0545425415039,20.305278778076172,3.916947841644287,0.7833895683288574,21.088666915893555,62.94636154174805,2.4285075664520264,0.038094356656074524,208.83636474609375,317.6727294921875,492.5818176269531,387.2727355957031,155.81817626953125,81.38182067871094,235.2848663330078,1.0,0.0007767667411826551,0.035147774964571,0.820969820022583,0.34806057810783386,0.5294545292854309,0.3921413719654083,1.0
env_steps,34000,56,56,50,33998,0.8901184,0.2628045380115509,-0.08574187755584717,-0.05572420358657837,0.4772985875606537,0.8797199726104736,1625,4.5754876136779785,0.46792858839035034,0.0,600.0,0.6086284518241882,nan,nan,nan,nan,nan,nan,nan,0.0,nan,nan,nan,0.0,nan,nan,nan,nan,nan,65.76512908935547,-12.0,-25.06928825378418,-14.120356559753418,-10.0,0.0,641.5892944335938,124.42857360839844,20.422422409057617,3.9606845378875732,0.7921368479728699,21.214557647705078,63.30950927734375,2.4556243419647217,0.038222115486860275,208.9107208251953,316.4285583496094,491.6964416503906,387.25,155.80357360839844,81.48213958740234,235.3392791748047,1.0,0.0007798810256645083,0.03535759821534157,0.8194940686225891,0.3481845259666443,0.5273809432983398,0.39223214983940125,1.0
env_steps,34512,57,57,51,34510,0.8884629333333334,0.29525336623191833,-0.06608074903488159,0.09406125545501709,0.5097527503967285,1.4593894481658936,1657,4.387097358703613,0.4671017527580261,0.0,600.0,0.6091601848602295,nan,nan,nan,nan,nan,nan,nan,0.0,nan,nan,nan,0.0,nan,nan,nan,nan,nan,65.58253479003906,-12.0,-25.069475173950195,-14.125965118408203,-10.0,0.0,639.8245849609375,124.0,20.366249084472656,3.947042942047119,0.7894085049629211,21.155656814575195,63.135372161865234,2.447166681289673,0.0381770059466362,208.9122772216797,317.5087585449219,492.1403503417969,387.4210510253906,155.71929931640625,81.57894897460938,235.43275451660156,1.0,0.0007785030175000429,0.0352594256401062,0.820233941078186,0.348187118768692,0.5291812419891357,0.39238792657852173,1.0
env_steps,35008,58,58,52,35006,0.8868592,0.39466050267219543,-0.09998543560504913,-0.19521506130695343,0.5860887169837952,0.9772897362709045,1688,4.668254852294922,0.4690741300582886,0.0,600.0,0.6084973812103271,nan,nan,nan,nan,nan,nan,nan,0.0,nan,nan,nan,0.0,nan,nan,nan,nan,nan,65.82135772705078,-12.0,-25.028278350830078,-14.12482738494873,-10.0,0.0,642.1034545898438,124.70689392089844,20.43878746032715,3.969543933868408,0.7939087152481079,21.232694625854492,63.36024475097656,2.4611175060272217,0.03822556883096695,208.5689697265625,317.4310302734375,491.96551513671875,387.3103332519531,155.44827270507812,81.74137878417969,235.41378784179688,1.0,0.000781790295150131,0.03538782522082329,0.8199425339698792,0.34761494398117065,0.5290517210960388,0.39235633611679077,1.0
env_steps,35504,59,59,53,35502,0.8852554666666667,0.19998550415039062,-0.09894151240587234,0.05964586138725281,0.3961023688316345,1.1626712083816528,1719,4.992780685424805,0.470928817987442,0.0,600.0,0.6063622832298279,nan,nan,nan,nan,nan,nan,nan,0.0,nan,nan,nan,0.0,nan,nan,nan,nan,nan,66.05074310302734,-12.0,-24.94576644897461,-14.112203598022461,-10.0,0.0,644.1864624023438,125.91525268554688,20.50509262084961,4.008007049560547,0.8016014099121094,21.306692123413086,63.56578826904297,2.484964609146118,0.03840385004878044,207.88136291503906,316.6610107421875,491.38983154296875,386.9660949707031,155.25424194335938,81.69491577148438,235.20338439941406,1.0,0.0007848814711906016,0.03551115095615387,0.8189830183982849,0.3464689552783966,0.5277683734893799,0.39200565218925476,1.0
env_steps,36000,60,60,54,36000,0.8836517333333334,0.36524301767349243,0.1305912733078003,0.299387663602829,0.5977814793586731,1.9558703899383545,1750,5.471610069274902,0.47369498014450073,0.0,600.0,0.6045480370521545,nan,nan,nan,nan,nan,nan,nan,0.0,nan,nan,nan,0.0,nan,nan,nan,nan,nan,66.5119400024414,-12.0,-24.92400360107422,-14.1163330078125,-10.0,0.0,648.6166381835938,127.13333129882812,20.64611053466797,4.046780109405518,0.8093559145927429,21.45546531677246,64.00294494628906,2.5090036392211914,0.03846217691898346,207.6999969482422,315.04998779296875,490.5666809082031,387.0333251953125,155.38333129882812,81.69999694824219,235.272216796875,1.0,0.0007894917507655919,0.035759106278419495,0.8176110982894897,0.3461666703224182,0.5250833034515381,0.3921203911304474,1.0
env_steps,36512,60,60,54,36510,0.8819962666666666,0.21233752369880676,-0.00036386772990226746,0.1453913450241089,0.42982250452041626,0.9411646723747253,1782,5.471610069274902,0.47369498014450073,0.0,600.0,0.6045480370521545,nan,nan,nan,nan,nan,nan,nan,0.0,nan,nan,nan,0.0,nan,nan,nan,nan,nan,66.5119400024414,-12.0,-24.92400360107422,-14.1163330078125,-10.0,0.0,648.6166381835938,127.13333129882812,20.64611053466797,4.046780109405518,0.8093559145927429,21.45546531677246,64.00294494628906,2.5090036392211914,0.03846217691898346,207.6999969482422,315.04998779296875,490.5666809082031,387.0333251953125,155.38333129882812,81.69999694824219,235.272216796875,1.0,0.0007894917507655919,0.035759106278419495,0.8176110982894897,0.3461666703224182,0.5250833034515381,0.3921203911304474,1.0
env_steps,37008,61,61,55,37006,0.8803925333333333,0.18477877974510193,0.21471694111824036,0.0887158140540123,0.4234085977077484,3.092540740966797,1813,5.296089172363281,0.4726278483867645,0.0,600.0,0.6034750938415527,nan,nan,nan,nan,nan,nan,nan,0.0,nan,nan,nan,0.0,nan,nan,nan,nan,nan,66.34428405761719,-12.0,-24.924592971801758,-14.123605728149414,-10.0,0.0,646.9835815429688,126.80327606201172,20.594127655029297,4.036273956298828,0.8072547316551208,21.40138053894043,63.841800689697266,2.5024900436401367,0.03844669088721275,207.70492553710938,315.8360595703125,490.7868957519531,387.327880859375,155.50819396972656,81.67213439941406,235.39344787597656,1.0,0.0007877132156863809,0.03566896542906761,0.8179781436920166,0.34617486596107483,0.526393473148346,0.3923224210739136,1.0
env_steps,37504,62,62,56,37502,0.8787888,0.17838189005851746,0.11116296797990799,0.2127898782491684,0.3832406997680664,1.0514920949935913,1844,4.926064968109131,0.47127094864845276,0.0,600.0,0.603966474533081,nan,nan,nan,nan,nan,nan,nan,0.0,nan,nan,nan,0.0,nan,nan,nan,nan,nan,66.02606201171875,-12.0,-24.958066940307617,-14.141935348510742,-10.0,0.0,643.8548583984375,126.32257843017578,20.494535446166992,4.020972728729248,0.8041945099830627,21.298728942871094,63.53306579589844,2.4930033683776855,0.038488954305648804,207.98387145996094,318.1451721191406,491.43548583984375,387.5806579589844,155.3225860595703,82.09677124023438,235.69891357421875,1.0,0.0007854517316445708,0.03549788147211075,0.8190591335296631,0.3466397821903229,0.5302419066429138,0.39283156394958496,1.0
env_steps,38000,63,63,57,37998,0.8771850666666667,0.2892293930053711,0.06070968136191368,0.31180956959724426,0.5117864012718201,1.9728056192398071,1875,5.542704105377197,0.4743873178958893,0.0,600.0,0.6034122705459595,nan,nan,nan,nan,nan,nan,nan,0.0,nan,nan,nan,0.0,nan,nan,nan,nan,nan,66.61730194091797,-12.0,-24.940954208374023,-14.133650779724121,-10.0,0.0,649.7777709960938,126.66666412353516,20.683069229125977,4.031925201416016,0.8063849806785583,21.48945426940918,64.11751556396484,2.499793767929077,0.038326941430568695,207.8412628173828,316.9364929199219,490.6507873535156,387.3174743652344,155.11111450195312,82.12698364257812,235.5608367919922,1.0,0.0007906456012278795,0.035815753042697906,0.8177513480186462,0.346402108669281,0.5282275080680847,0.3926014304161072,1.0
env_steps,38512,64,64,58,38510,0.8755296,0.35673144459724426,0.1406000405550003,0.0359027236700058,0.5741270780563354,0.9993810057640076,1907,5.331107139587402,0.4737687408924103,0.0,600.0,0.6043573617935181,nan,nan,nan,nan,nan,nan,nan,0.0,nan,nan,nan,0.0,nan,nan,nan,nan,nan,66.48423767089844,-12.0,-25.014375686645508,-14.138750076293945,-10.0,0.0,648.4375,126.625,20.64040756225586,4.030599117279053,0.8061197996139526,21.44652557373047,63.985260009765625,2.4989712238311768,0.03838619589805603,208.453125,318.4375,490.96875,387.390625,155.265625,82.140625,235.64584350585938,1.0,0.0007896146271377802,0.035744208842515945,0.8182812929153442,0.34742188453674316,0.5307291746139526,0.3927430510520935,1.0
env_steps,39008,65,65,59,39006,0.8739258666666667,0.17503896355628967,0.06266845762729645,0.11686290800571442,0.39320501685142517,1.2139936685562134,1938,5.911650657653809,0.47722768783569336,0.0,600.0,0.6029438376426697,nan,nan,nan,nan,nan,nan,nan,0.0,nan,nan,nan,0.0,nan,nan,nan,nan,nan,67.05934143066406,-12.0,-25.004308700561523,-14.14338493347168,-10.0,0.0,654.2307739257812,126.80000305175781,20.824811935424805,4.036169528961182,0.8072338700294495,21.632043838500977,64.55691528320312,2.502424955368042,0.038199037313461304,208.36923217773438,317.8769226074219,490.6000061035156,387.5384521484375,155.5076904296875,82.06153869628906,235.7230987548828,1.0,0.00079537951387465,0.036053407937288284,0.8176667094230652,0.3472820520401001,0.5297948718070984,0.39287179708480835,1.0
env_steps,39504,65,65,59,39502,0.8723221333333333,0.23651234805583954,0.08106038719415665,0.22703354060649872,0.4616618752479553,1.4405540227890015,1969,5.911650657653809,0.47722768783569336,0.0,600.0,0.6029438376426697,nan,nan,nan,nan,nan,nan,nan,0.0,nan,nan,nan,0.0,nan,nan,nan,nan,nan,67.05934143066406,-12.0,-25.004308700561523,-14.14338493347168,-10.0,0.0,654.2307739257812,126.80000305175781,20.824811935424805,4.036169528961182,0.8072338700294495,21.632043838500977,64.55691528320312,2.502424955368042,0.038199037313461304,208.36923217773438,317.8769226074219,490.6000061035156,387.5384521484375,155.5076904296875,82.06153869628906,235.7230987548828,1.0,0.00079537951387465,0.036053407937288284,0.8176667094230652,0.3472820520401001,0.5297948718070984,0.39287179708480835,1.0
env_steps,40000,66,66,60,39998,0.8707184,0.33241772651672363,-0.07564470916986465,-0.06270578503608704,0.5521702766418457,1.0946547985076904,2000,5.818158149719238,0.4762924313545227,0.0,600.0,0.6024555563926697,nan,nan,nan,nan,nan,nan,nan,0.0,nan,nan,nan,0.0,nan,nan,nan,nan,nan,66.9454345703125,-12.0,-24.978181838989258,-14.149091720581055,-10.0,0.0,653.1666870117188,126.3484878540039,20.79094123840332,4.021797180175781,0.8043594360351562,21.595298767089844,64.45191955566406,2.4935142993927,0.03810740262269974,208.15151977539062,318.6060485839844,490.8484802246094,387.5909118652344,155.5,82.18181610107422,235.8181915283203,1.0,0.0007938207709230483,0.03599216416478157,0.8180808424949646,0.3469192087650299,0.5310101509094238,0.3930303156375885,1.0
env_steps,40512,67,67,61,40510,0.8690629333333333,0.5787353515625,0.40353989601135254,0.5635921359062195,0.8588225245475769,1.7586263418197632,2032,6.110193252563477,0.47813284397125244,0.0,600.0,0.6018079519271851,nan,nan,nan,nan,nan,nan,nan,0.0,nan,nan,nan,0.0,nan,nan,nan,nan,nan,67.27616119384766,-12.0,-25.001195907592773,-14.164776802062988,-10.0,0.0,656.44775390625,126.70149230957031,20.895381927490234,4.033034324645996,0.8066067695617676,21.70198631286621,64.77568054199219,2.500480890274048,0.03803449496626854,208.34327697753906,318.64178466796875,490.7164306640625,387.7910461425781,155.7014923095703,82.37313079833984,236.07960510253906,1.0,0.0007968880818225443,0.036169975996017456,0.8178607225418091,0.34723883867263794,0.5310696959495544,0.3934659957885742,1.0
env_steps,41008,68,68,62,41006,0.8674592,0.45672374963760376,-0.024075500667095184,0.31274494528770447,0.6920701265335083,3.1950035095214844,2063,5.66208553314209,0.475969135761261,0.0,600.0,0.6022560596466064,nan,nan,nan,nan,nan,nan,nan,0.0,nan,nan,nan,0.0,nan,nan,nan,nan,nan,66.81414794921875,-12.0,-24.98470687866211,-14.167353630065918,-10.0,0.0,651.9117431640625,125.97058868408203,20.750995635986328,4.009768962860107,0.8019536733627319,21.552947998046875,64.32808685302734,2.486056327819824,0.03809836506843567,208.2058868408203,320.558837890625,491.4705810546875,387.8382263183594,155.73529052734375,82.39705657958984,236.12255859375,1.0,0.0007932818843983114,0.03592158108949661,0.8191176652908325,0.3470098376274109,0.5342647433280945,0.39353758096694946,1.0
env_steps,41504,69,69,63,41502,0.8658554666666667,0.4703705608844757,0.31401240825653076,0.6417906880378723,0.7367791533470154,2.231929302215576,2094,5.944741725921631,0.4770420491695404,0.0,600.0,0.6013166308403015,nan,nan,nan,nan,nan,nan,nan,0.0,nan,nan,nan,0.0,nan,nan,nan,nan,nan,67.0282211303711,-12.0,-24.92521858215332,-14.1582612991333,-10.0,0.0,654.0144653320312,126.3043441772461,20.817928314208984,4.020392894744873,0.8040784001350403,21.622005462646484,64.53558349609375,2.492643356323242,0.03806857019662857,207.71014404296875,320.1014404296875,491.2608642578125,387.478271484375,155.71014404296875,82.36231994628906,235.9710235595703,1.0,0.000795070081949234,0.03603667393326759,0.8187680840492249,0.3461835980415344,0.533502459526062,0.39328503608703613,1.0
env_steps,42000,70,70,64,42000,0.8642517333333333,0.32515785098075867,0.318511426448822,0.4873094856739044,0.5914144515991211,1.472603440284729,2125,5.775564670562744,0.4762328565120697,0.0,600.0,0.6017827391624451,nan,nan,nan,nan,nan,nan,nan,0.0,nan,nan,nan,0.0,nan,nan,nan,nan,nan,66.89871215820312,-12.0,-24.95142936706543,-14.171714782714844,-10.0,0.0,652.6142578125,126.74285888671875,20.773357391357422,4.034350872039795,0.8068700432777405,21.58022689819336,64.39741516113281,2.5012974739074707,0.03828838840126991,207.92857360839844,319.528564453125,491.1285705566406,387.71429443359375,155.75714111328125,82.55714416503906,236.19525146484375,1.0,0.0007937214686535299,0.03596704453229904,0.8185476064682007,0.3465476334095001,0.532547652721405,0.39365875720977783,1.0
env_steps,42512,70,70,64,42510,0.8625962666666667,0.36545634269714355,0.0816536694765091,0.3396205008029938,0.6161924600601196,2.2923390865325928,2157,5.775564670562744,0.4762328565120697,0.0,600.0,0.6017827391624451,nan,nan,nan,nan,nan,nan,nan,0.0,nan,nan,nan,0.0,nan,nan,nan,nan,nan,66.89871215820312,-12.0,-24.95142936706543,-14.171714782714844,-10.0,0.0,652.6142578125,126.74285888671875,20.773357391357422,4.034350872039795,0.8068700432777405,21.58022689819336,64.39741516113281,2.5012974739074707,0.03828838840126991,207.92857360839844,319.528564453125,491.1285705566406,387.71429443359375,155.75714111328125,82.55714416503906,236.19525146484375,1.0,0.0007937214686535299,0.03596704453229904,0.8185476064682007,0.3465476334095001,0.532547652721405,0.39365875720977783,1.0
env_steps,43008,71,71,65,43006,0.8609925333333334,0.4755743741989136,0.6512912511825562,0.9217718839645386,0.7347695231437683,1.6938635110855103,2188,6.28916597366333,0.47911974787712097,0.0,600.0,0.6011576652526855,nan,nan,nan,nan,nan,nan,nan,0.0,nan,nan,nan,0.0,nan,nan,nan,nan,nan,67.44578552246094,-12.0,-24.97690200805664,-14.179718017578125,-10.0,0.0,657.957763671875,127.74647521972656,20.943445205688477,4.0662970542907715,0.8132593035697937,21.756704330444336,64.9246826171875,2.521104097366333,0.03826959803700447,208.14083862304688,318.5492858886719,490.5211181640625,387.7887268066406,155.73239135742188,82.73239135742188,236.32864379882812,1.0,0.0007985329139046371,0.036261171102523804,0.8175351619720459,0.34690141677856445,0.5309155583381653,0.39388108253479004,1.0
env_steps,43504,72,72,66,43502,0.8593888000000001,0.3052467703819275,0.30069637298583984,0.4026796221733093,0.5718395709991455,1.83126962184906,2219,6.065443992614746,0.4784555435180664,0.0,600.0,0.6020290851593018,nan,nan,nan,nan,nan,nan,nan,0.0,nan,nan,nan,0.0,nan,nan,nan,nan,nan,67.23239135742188,-12.0,-24.98833465576172,-14.178610801696777,-10.0,0.0,655.8472290039062,127.48611450195312,20.876266479492188,4.058008670806885,0.8116018176078796,21.687868118286133,64.71642303466797,2.515965461730957,0.038311731070280075,208.23611450195312,320.1111145019531,491.02777099609375,387.6388854980469,155.625,82.83333587646484,236.31019592285156,1.0,0.0007974259206093848,0.03614644706249237,0.8183796405792236,0.3470601737499237,0.5335184931755066,0.39385029673576355,1.0
env_steps,44000,73,73,67,43998,0.8577850666666667,0.4826595187187195,0.3922604024410248,0.7417259216308594,0.754552960395813,2.52612566947937,2250,6.736574649810791,0.4817452132701874,0.0,600.0,0.5994575619697571,nan,nan,nan,nan,nan,nan,nan,0.0,nan,nan,nan,0.0,nan,nan,nan,nan,nan,67.82452392578125,-12.0,-24.920549392700195,-14.167396545410156,-10.0,0.0,661.6986083984375,128.23287963867188,21.062522888183594,4.0817790031433105,0.8163558840751648,21.878877639770508,65.29381561279297,2.53070330619812,0.03823235630989075,207.67123413085938,318.1780700683594,490.1643981933594,387.3013610839844,155.45205688476562,82.80821990966797,236.123291015625,1.0,0.000802908674813807,0.03646479547023773,0.8169406056404114,0.3461187183856964,0.5302967429161072,0.39353880286216736,1.0
env_steps,44512,74,74,68,44510,0.8561296,0.3923707604408264,0.21918264031410217,-0.03369389474391937,0.6532996296882629,4.3710551261901855,2282,6.771117210388184,0.48196348547935486,0.0,600.0,0.5992040634155273,nan,nan,nan,nan,nan,nan,nan,0.0,nan,nan,nan,0.0,nan,nan,nan,nan,nan,67.84193420410156,-12.0,-24.904865264892578,-14.165946006774902,-10.0,0.0,661.7973022460938,128.6216278076172,21.065664291381836,4.09415340423584,0.818830668926239,21.884492874145508,65.30355072021484,2.53837513923645,0.03832153230905533,207.54054260253906,318.770263671875,490.2432556152344,387.2162170410156,155.54054260253906,82.77027130126953,236.09910583496094,1.0,0.0008032725309021771,0.03647415339946747,0.8170720934867859,0.34590089321136475,0.5312837362289429,0.3934985101222992,1.0
env_steps,45008,75,75,69,45006,0.8545258666666666,0.2770764231681824,0.2975884675979614,0.343713641166687,0.518883228302002,1.8653203248977661,2313,7.430099964141846,0.48493462800979614,0.0,600.0,0.5969828963279724,nan,nan,nan,nan,nan,nan,nan,0.0,nan,nan,nan,0.0,nan,nan,nan,nan,nan,68.4133071899414,-12.0,-24.828800201416016,-14.154400825500488,-10.0,0.0,667.4400024414062,129.36000061035156,21.245277404785156,4.117656707763672,0.8235313296318054,22.06880760192871,65.8603515625,2.5529472827911377,0.0382479727268219,206.9066619873047,317.97332763671875,489.5466613769531,387.0133361816406,155.42666625976562,82.63999938964844,235.9066619873047,1.0,0.0008082244312390685,0.036781344562768936,0.8159111142158508,0.34484443068504333,0.5299555063247681,0.3931777775287628,1.0
env_steps,45504,75,75,69,45502,0.8529221333333333,0.3384629487991333,0.07697969675064087,0.36073073744773865,0.582067608833313,2.433298349380493,2344,7.430099964141846,0.48493462800979614,0.0,600.0,0.5969828963279724,nan,nan,nan,nan,nan,nan,nan,0.0,nan,nan,nan,0.0,nan,nan,nan,nan,nan,68.4133071899414,-12.0,-24.828800201416016,-14.154400825500488,-10.0,0.0,667.4400024414062,129.36000061035156,21.245277404785156,4.117656707763672,0.8235313296318054,22.06880760192871,65.8603515625,2.5529472827911377,0.0382479727268219,206.9066619873047,317.97332763671875,489.5466613769531,387.0133361816406,155.42666625976562,82.63999938964844,235.9066619873047,1.0,0.0008082244312390685,0.036781344562768936,0.8159111142158508,0.34484443068504333,0.5299555063247681,0.3931777775287628,1.0
env_steps,46000,76,76,70,45998,0.8513184,0.2509002089500427,-0.03615524247288704,0.02431837096810341,0.4697563052177429,1.1898177862167358,2375,8.004654884338379,0.488131582736969,0.0,600.0,0.5951266288757324,nan,nan,nan,nan,nan,nan,nan,0.0,nan,nan,nan,0.0,nan,nan,nan,nan,nan,68.9486083984375,-12.0,-24.78631591796875,-14.157632827758789,-10.0,0.0,672.75,129.9342041015625,21.41429901123047,4.135934352874756,0.8271868824958801,22.241485595703125,66.38432312011719,2.564279556274414,0.03815649077296257,206.55262756347656,317.4605407714844,489.2631530761719,387.1052551269531,155.40789794921875,82.68421173095703,235.9605255126953,1.0,0.0008135526441037655,0.03706913813948631,0.8154385685920715,0.34425437450408936,0.5291008353233337,0.39326754212379456,1.0
env_steps,46512,77,77,71,46510,0.8496629333333333,0.2721576988697052,0.1014389842748642,0.23906360566616058,0.5178334712982178,1.7072070837020874,2407,8.344752311706543,0.4892207682132721,0.0,600.0,0.5944854617118835,nan,nan,nan,nan,nan,nan,nan,0.0,nan,nan,nan,0.0,nan,nan,nan,nan,nan,69.24164581298828,-12.0,-24.746492385864258,-14.150390625,-10.0,0.0,675.6233520507812,130.41558837890625,21.505760192871094,4.151257038116455,0.8302513957023621,22.33601188659668,66.66785430908203,2.573779344558716,0.038128674030303955,206.2207794189453,317.6623229980469,489.0389709472656,386.98699951171875,155.41558837890625,82.55844116210938,235.83981323242188,1.0,0.0008153679082170129,0.037226684391498566,0.8150649070739746,0.3437012732028961,0.5294371843338013,0.3930663466453552,1.0
env_steps,47008,78,78,72,47006,0.8480592,0.4685207009315491,0.3281645178794861,0.5591042041778564,0.7118281126022339,2.156759738922119,2438,8.80673885345459,0.49171921610832214,0.0,600.0,0.5934767723083496,nan,nan,nan,nan,nan,nan,nan,0.0,nan,nan,nan,0.0,nan,nan,nan,nan,nan,69.71110534667969,-12.0,-24.74153709411621,-14.162821769714355,-10.0,0.0,680.2564086914062,131.03846740722656,21.653236389160156,4.171083927154541,0.8342167735099792,22.487451553344727,67.1250228881836,2.5860722064971924,0.03806767240166664,206.1794891357422,317.1794738769531,488.6538391113281,387.1794738769531,155.60256958007812,82.67948913574219,236.0469970703125,1.0,0.0008195320842787623,0.037479083985090256,0.8144230246543884,0.34363245964050293,0.5286324620246887,0.39341166615486145,1.0
env_steps,47504,79,79,73,47502,0.8464554666666666,0.3272518515586853,0.24354958534240723,0.4508352279663086,0.5470905303955078,2.819063901901245,2469,9.055703163146973,0.4928240180015564,0.0,600.0,0.5929991006851196,nan,nan,nan,nan,nan,nan,nan,0.0,nan,nan,nan,0.0,nan,nan,nan,nan,nan,69.92786407470703,-12.0,-24.71088409423828,-14.161267280578613,-10.0,0.0,682.4810180664062,130.8987274169922,21.72404670715332,4.1666364669799805,0.8333272933959961,22.557373046875,67.34454345703125,2.5833144187927246,0.03793102875351906,205.92405700683594,317.3038024902344,488.582275390625,387.1392517089844,155.48101806640625,82.72151947021484,236.02108764648438,1.0,0.000821373425424099,0.03759561851620674,0.8143036961555481,0.3432067334651947,0.5288395881652832,0.3933684527873993,1.0
env_steps,48000,80,80,74,48000,0.8448517333333334,0.5584301948547363,-0.036623515188694,-0.060342997312545776,0.8171177506446838,1.5458859205245972,2500,9.680023193359375,0.49636125564575195,0.0,600.0,0.5912021398544312,nan,nan,nan,nan,nan,nan,nan,0.0,nan,nan,nan,0.0,nan,nan,nan,nan,nan,70.52452087402344,-12.0,-24.69150161743164,-14.152999877929688,-10.0,0.0,688.3375244140625,131.85000610351562,21.910465240478516,4.196915626525879,0.8393831253051758,22.749847412109375,67.92243957519531,2.6020877361297607,0.03789088875055313,205.7624969482422,316.48748779296875,488.07501220703125,386.875,155.3249969482422,82.7249984741211,235.8833465576172,1.0,0.0008272688137367368,0.037916410714387894,0.8134583234786987,0.34293752908706665,0.5274791717529297,0.3931388854980469,1.0
env_steps,48512,80,80,74,48510,0.8431962666666667,0.34321677684783936,0.5576310157775879,0.6550256013870239,0.6058335304260254,1.4915157556533813,2532,9.680023193359375,0.49636125564575195,0.0,600.0,0.5912021398544312,nan,nan,nan,nan,nan,nan,nan,0.0,nan,nan,nan,0.0,nan,nan,nan,nan,nan,70.52452087402344,-12.0,-24.69150161743164,-14.152999877929688,-10.0,0.0,688.3375244140625,131.85000610351562,21.910465240478516,4.196915626525879,0.8393831253051758,22.749847412109375,67.92243957519531,2.6020877361297607,0.03789088875055313,205.7624969482422,316.48748779296875,488.07501220703125,386.875,155.3249969482422,82.7249984741211,235.8833465576172,1.0,0.0008272688137367368,0.037916410714387894,0.8134583234786987,0.34293752908706665,0.5274791717529297,0.3931388854980469,1.0
env_steps,49008,81,81,75,49006,0.8415925333333334,0.5714455842971802,0.33354607224464417,0.9465053677558899,0.8425134420394897,4.77207612991333,2563,9.623669624328613,0.4958123564720154,0.0,600.0,0.5916681885719299,nan,nan,nan,nan,nan,nan,nan,0.0,nan,nan,nan,0.0,nan,nan,nan,nan,nan,70.4678726196289,-12.0,-24.694814682006836,-14.149382591247559,-10.0,0.0,687.7283935546875,132.02468872070312,21.891075134277344,4.202476501464844,0.8404952883720398,22.731571197509766,67.86233520507812,2.6055355072021484,0.037962596863508224,205.79013061523438,317.1728515625,488.1234436035156,386.6666564941406,155.07408142089844,82.86419677734375,235.82305908203125,1.0,0.0008263539057224989,0.03788594901561737,0.8135390877723694,0.34298354387283325,0.5286213755607605,0.39303842186927795,1.0
env_steps,49504,82,82,76,49502,0.8399888,0.38571202754974365,0.17879894375801086,0.04984728991985321,0.6399996876716614,1.3321094512939453,2594,9.624164581298828,0.4958634376525879,0.0,600.0,0.5912503600120544,nan,nan,nan,nan,nan,nan,nan,0.0,nan,nan,nan,0.0,nan,nan,nan,nan,nan,70.45904541015625,-12.0,-24.683414459228516,-14.15146255493164,-10.0,0.0,687.4512329101562,132.96340942382812,21.882253646850586,4.232357025146484,0.84647136926651,22.728723526000977,67.8349838256836,2.624061346054077,0.038220856338739395,205.69512939453125,316.8292541503906,487.7926940917969,386.7804870605469,155.0853729248047,82.8536605834961,235.85772705078125,1.0,0.0008264390053227544,0.03788120299577713,0.8129878044128418,0.3428252041339874,0.5280487537384033,0.3930962383747101,1.0
env_steps,50000,83,83,77,49998,0.8383850666666667,0.5607239603996277,0.37783437967300415,0.29568931460380554,0.8176553249359131,1.9263972043991089,2625,9.699570655822754,0.49611085653305054,0.0,600.0,0.5902411937713623,nan,nan,nan,nan,nan,nan,nan,0.0,nan,nan,nan,0.0,nan,nan,nan,nan,nan,70.52342224121094,-12.0,-24.678071975708008,-14.145782470703125,-10.0,0.0,688.0843505859375,133.06024169921875,21.90240478515625,4.235439300537109,0.8470878005027771,22.749492645263672,67.8974609375,2.625972270965576,0.038202643394470215,205.65060424804688,317.6506042480469,487.78314208984375,386.5542297363281,154.9036102294922,82.91566467285156,235.7630615234375,1.0,0.0008268514066003263,0.03791581839323044,0.8129718899726868,0.34275099635124207,0.5294176340103149,0.3929384648799896,1.0
env_steps,50512,84,84,78,50510,0.8367296,0.36225372552871704,0.44140881299972534,0.37459230422973633,0.618915319442749,1.7082055807113647,2657,9.822710990905762,0.49672380089759827,0.0,600.0,0.590107798576355,nan,nan,nan,nan,nan,nan,nan,0.0,nan,nan,nan,0.0,nan,nan,nan,nan,nan,70.6036605834961,-12.0,-24.65142822265625,-14.129524230957031,-10.0,0.0,688.8214111328125,133.4404754638672,21.92586898803711,4.247542381286621,0.8495084643363953,22.775375366210938,67.9701919555664,2.633476495742798,0.038249582052230835,205.42857360839844,317.8452453613281,487.78570556640625,386.1785583496094,154.65475463867188,82.82142639160156,235.4920654296875,1.0,0.0008278730092570186,0.03795895725488663,0.8129761815071106,0.34238094091415405,0.5297420620918274,0.3924868106842041,1.0
env_steps,51008,85,85,79,51006,0.8351258666666667,0.29293662309646606,0.38544201850891113,0.09959466755390167,0.5293230414390564,3.7719016075134277,2688,10.121220588684082,0.4984682500362396,0.0,600.0,0.5889008641242981,nan,nan,nan,nan,nan,nan,nan,0.0,nan,nan,nan,0.0,nan,nan,nan,nan,nan,70.86380767822266,-12.0,-24.62682342529297,-14.115764617919922,-10.0,0.0,691.3294067382812,134.0823516845703,22.005699157714844,4.267973899841309,0.8535947799682617,22.859294891357422,68.21766662597656,2.646143913269043,0.03827037662267685,205.22352600097656,317.01177978515625,487.42352294921875,385.8823547363281,154.44705200195312,82.72940826416016,235.26275634765625,1.0,0.0008307804237119853,0.03809881955385208,0.8123725652694702,0.34203922748565674,0.5283529162406921,0.3921045958995819,1.0
env_steps,51504,85,85,79,51502,0.8335221333333334,0.39070409536361694,0.35817813873291016,0.32829588651657104,0.6532257199287415,2.7782130241394043,2719,10.121220588684082,0.4984682500362396,0.0,600.0,0.5889008641242981,nan,nan,nan,nan,nan,nan,nan,0.0,nan,nan,nan,0.0,nan,nan,nan,nan,nan,70.86380767822266,-12.0,-24.62682342529297,-14.115764617919922,-10.0,0.0,691.3294067382812,134.0823516845703,22.005699157714844,4.267973899841309,0.8535947799682617,22.859294891357422,68.21766662597656,2.646143913269043,0.03827037662267685,205.22352600097656,317.01177978515625,487.42352294921875,385.8823547363281,154.44705200195312,82.72940826416016,235.26275634765625,1.0,0.0008307804237119853,0.03809881955385208,0.8123725652694702,0.34203922748565674,0.5283529162406921,0.3921045958995819,1.0
env_steps,52000,86,86,80,51998,0.8319184,0.5350931882858276,0.26150447130203247,0.1169777438044548,0.7863907217979431,1.8733772039413452,2750,10.474221229553223,0.50019770860672,0.0,600.0,0.5878574848175049,nan,nan,nan,nan,nan,nan,nan,0.0,nan,nan,nan,0.0,nan,nan,nan,nan,nan,71.1844482421875,-12.0,-24.597209930419922,-14.113022804260254,-10.0,0.0,694.465087890625,134.6511688232422,22.105512619018555,4.286079406738281,0.857215940952301,22.96272850036621,68.52709197998047,2.657369613647461,0.038251977413892746,204.97674560546875,316.5348815917969,486.9186096191406,385.97674560546875,154.72093200683594,82.47674560546875,235.21707153320312,1.0,0.0008336628088727593,0.038271211087703705,0.8115310072898865,0.34162792563438416,0.5275581479072571,0.39202845096588135,1.0
env_steps,52512,87,87,81,52510,0.8302629333333333,0.3161979019641876,0.37536734342575073,0.4391706585884094,0.594611644744873,2.0242655277252197,2782,10.715700149536133,0.5016161203384399,0.0,600.0,0.5872205495834351,nan,nan,nan,nan,nan,nan,nan,0.0,nan,nan,nan,0.0,nan,nan,nan,nan,nan,71.4260482788086,-12.0,-24.591726303100586,-14.118619918823242,-10.0,0.0,696.8965454101562,134.73562622070312,22.182907104492188,4.288768291473389,0.8577536940574646,23.04066276550293,68.76701354980469,2.659036636352539,0.03816165402531624,204.9310302734375,316.6896667480469,486.712646484375,386.17242431640625,154.65516662597656,82.55172729492188,235.31036376953125,1.0,0.000836026796605438,0.038401100784540176,0.811187744140625,0.3415517210960388,0.5278160572052002,0.39218392968177795,1.0
env_steps,53008,88,88,82,53006,0.8286592,0.2005780041217804,0.026494691148400307,0.1364905834197998,0.4201003909111023,1.390900731086731,2813,10.92242431640625,0.5025920271873474,0.0,600.0,0.5864657759666443,nan,nan,nan,nan,nan,nan,nan,0.0,nan,nan,nan,0.0,nan,nan,nan,nan,nan,71.62446594238281,-12.0,-24.583637237548828,-14.118408203125,-10.0,0.0,698.8181762695312,135.18182373046875,22.24407386779785,4.302970886230469,0.8605941534042358,23.10466766357422,68.95663452148438,2.667842149734497,0.03816700354218483,204.86363220214844,316.7613525390625,486.7045593261719,386.1022644042969,154.63636779785156,82.59091186523438,235.30682373046875,1.0,0.0008376534678973258,0.03850777819752693,0.811174213886261,0.3414393663406372,0.5279356241226196,0.3921780288219452,1.0
env_steps,53504,89,89,83,53502,0.8270554666666667,0.39544302225112915,0.47035273909568787,0.45288264751434326,0.6597393751144409,1.7673481702804565,2844,11.157793998718262,0.5043550133705139,0.0,600.0,0.5855596661567688,nan,nan,nan,nan,nan,nan,nan,0.0,nan,nan,nan,0.0,nan,nan,nan,nan,nan,71.8829574584961,-12.0,-24.598651885986328,-14.12651538848877,-10.0,0.0,701.3146362304688,135.79776000976562,22.323537826538086,4.322576522827148,0.8645153045654297,23.18805503845215,69.20297241210938,2.6799979209899902,0.03818338364362717,204.98876953125,315.7528076171875,486.37078857421875,386.2921447753906,154.52809143066406,82.7528076171875,235.44195556640625,1.0,0.0008405918488278985,0.03864675387740135,0.8106179237365723,0.3416479229927063,0.5262547135353088,0.392403244972229,1.0
env_steps,54000,90,90,84,54000,0.8254517333333333,0.3527815341949463,0.3356247544288635,0.624733567237854,0.6069216728210449,3.124772787094116,2875,10.991347312927246,0.5034310817718506,0.0,600.0,0.5864485502243042,nan,nan,nan,nan,nan,nan,nan,0.0,nan,nan,nan,0.0,nan,nan,nan,nan,nan,71.76534271240234,-12.0,-24.63599967956543,-14.137999534606934,-10.0,0.0,700.1889038085938,135.46665954589844,22.287704467773438,4.312037944793701,0.8624076247215271,23.150114059448242,69.09188842773438,2.673463821411133,0.03813831880688667,205.3000030517578,316.1111145019531,486.6333312988281,386.3888854980469,154.46665954589844,83.02222442626953,235.63333129882812,1.0,0.0008390519069507718,0.03858352079987526,0.8110554814338684,0.34216663241386414,0.5268518924713135,0.3927222490310669,1.0
env_steps,54512,90,90,84,54510,0.8237962666666667,0.3409583866596222,0.4370279908180237,0.4632912278175354,0.5684463977813721,1.7095378637313843,2907,10.991347312927246,0.5034310817718506,0.0,600.0,0.5864485502243042,nan,nan,nan,nan,nan,nan,nan,0.0,nan,nan,nan,0.0,nan,nan,nan,nan,nan,71.76534271240234,-12.0,-24.63599967956543,-14.137999534606934,-10.0,0.0,700.1889038085938,135.46665954589844,22.287704467773438,4.312037944793701,0.8624076247215271,23.150114059448242,69.09188842773438,2.673463821411133,0.03813831880688667,205.3000030517578,316.1111145019531,486.6333312988281,386.3888854980469,154.46665954589844,83.02222442626953,235.63333129882812,1.0,0.0008390519069507718,0.03858352079987526,0.8110554814338684,0.34216663241386414,0.5268518924713135,0.3927222490310669,1.0
env_steps,55008,91,91,85,55006,0.8221925333333333,0.39485520124435425,0.508870005607605,0.3339535593986511,0.6630115509033203,3.3366219997406006,2938,11.506426811218262,0.5063549280166626,0.0,600.0,0.5853431224822998,nan,nan,nan,nan,nan,nan,nan,0.0,nan,nan,nan,0.0,nan,nan,nan,nan,nan,72.28422546386719,-12.0,-24.63692283630371,-14.140878677368164,-10.0,0.0,705.1868286132812,136.76922607421875,22.446792602539062,4.353499889373779,0.870699942111969,23.317495346069336,69.5850601196289,2.6991701126098633,0.038182180374860764,205.3076934814453,315.1758117675781,486.0439453125,386.4395751953125,154.4725341796875,83.06593322753906,235.6813201904297,1.0,0.0008439249941147864,0.03886248916387558,0.81007319688797,0.34217947721481323,0.5252930521965027,0.39280223846435547,1.0
env_steps,55504,92,92,86,55502,0.8205888,0.2699502408504486,0.10138508677482605,0.33669915795326233,0.5148418545722961,2.7029566764831543,2969,11.670345306396484,0.5072858333587646,0.0,600.0,0.5847681164741516,nan,nan,nan,nan,nan,nan,nan,0.0,nan,nan,nan,0.0,nan,nan,nan,nan,nan,72.46511840820312,-12.0,-24.650867462158203,-14.143913269042969,-10.0,0.0,706.9130249023438,137.30435180664062,22.501741409301758,4.370532989501953,0.8741065859794617,23.3758487701416,69.75540161132812,2.709730625152588,0.03821583464741707,205.42391967773438,315.3152160644531,485.86956787109375,386.4239196777344,154.42391967773438,83.17391204833984,235.7318878173828,1.0,0.0008454765193164349,0.038959745317697525,0.8097825050354004,0.34237319231033325,0.5255253911018372,0.3928864896297455,1.0
env_steps,56000,93,93,87,55998,0.8189850666666667,0.47656840085983276,0.7795211672782898,0.6269932389259338,0.7696146965026855,3.3838469982147217,3000,11.950766563415527,0.5087558627128601,0.0,600.0,0.58384770154953,nan,nan,nan,nan,nan,nan,nan,0.0,nan,nan,nan,0.0,nan,nan,nan,nan,nan,72.70409393310547,-12.0,-24.618064880371094,-14.135268211364746,-10.0,0.0,709.236572265625,137.7957000732422,22.575698852539062,4.386173248291016,0.877234697341919,23.45293617248535,69.98468017578125,2.7194275856018066,0.0382150262594223,205.15054321289062,315.1505432128906,485.6236572265625,386.30108642578125,154.39784240722656,83.03225708007812,235.58782958984375,1.0,0.0008479265379719436,0.03908822312951088,0.8093726634979248,0.3419175446033478,0.5252509117126465,0.3926463723182678,1.0
env_steps,56512,94,94,88,56510,0.8173296,0.6065831780433655,0.7264657616615295,0.7170082330703735,0.9026541709899902,2.345520257949829,3032,12.061779022216797,0.5090925097465515,0.0,600.0,0.5827875137329102,nan,nan,nan,nan,nan,nan,nan,0.0,nan,nan,nan,0.0,nan,nan,nan,nan,nan,72.78219604492188,-12.0,-24.589786529541016,-14.130637168884277,-10.0,0.0,709.9786987304688,138.0425567626953,22.599323272705078,4.394031047821045,0.8788061738014221,23.478130340576172,70.05791473388672,2.724299430847168,0.038230765610933304,204.91488647460938,315.39361572265625,485.5531921386719,386.18084716796875,154.2872314453125,83.03191375732422,235.5106658935547,1.0,0.0008484876016154885,0.03913021460175514,0.8092552423477173,0.34152480959892273,0.5256560444831848,0.39251774549484253,1.0
env_steps,57008,95,95,89,57006,0.8157258666666667,0.432757705450058,0.7702615261077881,0.877683162689209,0.6958551406860352,2.602214813232422,3063,12.048853874206543,0.5090662837028503,0.0,600.0,0.582450270652771,nan,nan,nan,nan,nan,nan,nan,0.0,nan,nan,nan,0.0,nan,nan,nan,nan,nan,72.75831604003906,-12.0,-24.58357810974121,-14.125894546508789,-10.0,0.0,709.6737060546875,138.35789489746094,22.589614868164062,4.404068470001221,0.8808136582374573,23.470428466796875,70.0278091430664,2.730522632598877,0.03832327574491501,204.8631591796875,315.3789367675781,485.4842224121094,385.97894287109375,154.14736938476562,83.08421325683594,235.4315948486328,1.0,0.0008484438876621425,0.03911737725138664,0.8091402649879456,0.34143856167793274,0.5256316065788269,0.39238598942756653,1.0
env_steps,57504,95,95,89,57502,0.8141221333333333,0.6686757802963257,0.8325619697570801,0.8520221710205078,0.976178765296936,2.4004194736480713,3094,12.048853874206543,0.5090662837028503,0.0,600.0,0.582450270652771,nan,nan,nan,nan,nan,nan,nan,0.0,nan,nan,nan,0.0,nan,nan,nan,nan,nan,72.75831604003906,-12.0,-24.58357810974121,-14.125894546508789,-10.0,0.0,709.6737060546875,138.35789489746094,22.589614868164062,4.404068470001221,0.8808136582374573,23.470428466796875,70.0278091430664,2.730522632598877,0.03832327574491501,204.8631591796875,315.3789367675781,485.4842224121094,385.97894287109375,154.14736938476562,83.08421325683594,235.4315948486328,1.0,0.0008484438876621425,0.03911737725138664,0.8091402649879456,0.34143856167793274,0.5256316065788269,0.39238598942756653,1.0
env_steps,58000,96,96,90,57998,0.8125184,0.5942490100860596,0.9627345204353333,0.8550602197647095,0.8882152438163757,2.8557403087615967,3125,12.680900573730469,0.5124676823616028,0.0,600.0,0.5811841487884521,nan,nan,nan,nan,nan,nan,nan,0.0,nan,nan,nan,0.0,nan,nan,nan,nan,nan,73.36278533935547,-12.0,-24.5575008392334,-14.124375343322754,-10.0,0.0,715.5416870117188,139.6458282470703,22.776397705078125,4.445065021514893,0.8890129923820496,23.66541290283203,70.6068344116211,2.7559401988983154,0.038335900753736496,204.6458282470703,314.2916564941406,484.9895935058594,385.84375,154.2083282470703,83.08333587646484,235.40625,1.0,0.0008541129063814878,0.03944235295057297,0.8083159923553467,0.3410763740539551,0.5238194465637207,0.39234375953674316,1.0
env_steps,58512,97,97,91,58510,0.8108629333333334,0.33834952116012573,0.3065387010574341,0.38615286350250244,0.5779908895492554,1.7597389221191406,3157,12.889822959899902,0.5135876536369324,0.0,600.0,0.581179141998291,nan,nan,nan,nan,nan,nan,nan,0.0,nan,nan,nan,0.0,nan,nan,nan,nan,nan,73.5850830078125,-12.0,-24.56536102294922,-14.129898071289062,-10.0,0.0,717.73193359375,139.95875549316406,22.846115112304688,4.455025672912598,0.8910051584243774,23.737123489379883,70.82296752929688,2.762115716934204,0.038305044174194336,204.71133422851562,313.87628173828125,484.7113342285156,385.7525634765625,154.1443328857422,83.29896545410156,235.498291015625,1.0,0.000855979451444,0.03956187143921852,0.8078522682189941,0.3411855399608612,0.5231271386146545,0.39249715209007263,1.0
env_steps,59008,98,98,92,59006,0.8092592,0.3115295171737671,0.3390446901321411,0.4721587598323822,0.5581588745117188,1.7306190729141235,3188,12.694509506225586,0.5128612518310547,0.0,600.0,0.5815477967262268,nan,nan,nan,nan,nan,nan,nan,0.0,nan,nan,nan,0.0,nan,nan,nan,nan,nan,73.43573760986328,-12.0,-24.601226806640625,-14.14000129699707,-10.0,0.0,716.1326293945312,140.38775634765625,22.795207977294922,4.4686808586120605,0.8937361836433411,23.688947677612305,70.66515350341797,2.7705819606781006,0.03853591904044151,205.0102081298828,313.5306091308594,484.7040710449219,385.9591979980469,154.2244873046875,83.40816497802734,235.6666717529297,1.0,0.0008547687903046608,0.03948157653212547,0.8078401684761047,0.34168362617492676,0.5225510001182556,0.39277777075767517,1.0
env_steps,59504,99,99,93,59502,0.8076554666666667,0.5725399255752563,1.3581490516662598,1.5714504718780518,0.8792665004730225,2.8167357444763184,3219,13.329316139221191,0.5162050724029541,0.0,600.0,0.5796736478805542,nan,nan,nan,nan,nan,nan,nan,0.0,nan,nan,nan,0.0,nan,nan,nan,nan,nan,74.06387329101562,-12.0,-24.59636688232422,-14.138182640075684,-10.0,0.0,722.1818237304688,141.96969604492188,22.98775863647461,4.519035339355469,0.9038071036338806,23.891569137573242,71.2620620727539,2.801801919937134,0.038583219051361084,204.96969604492188,312.1212158203125,483.9292907714844,385.8080749511719,154.11111450195312,83.49494934082031,235.63636779785156,1.0,0.0008603418245911598,0.039819277822971344,0.8065488338470459,0.34161612391471863,0.5202020406723022,0.3927272856235504,1.0
env_steps,60000,100,100,94,60000,0.8060517333333334,0.40860676765441895,0.960661768913269,0.8057453632354736,0.6942628622055054,4.745532989501953,3250,13.126835823059082,0.5157729983329773,0.0,600.0,0.5811647772789001,nan,nan,nan,nan,nan,nan,nan,0.0,nan,nan,nan,0.0,nan,nan,nan,nan,nan,73.96324920654297,-12.0,-24.679201126098633,-14.157200813293457,-10.0,0.0,721.22998046875,141.6300048828125,22.957460403442383,4.508222579956055,0.9016445279121399,23.859107971191406,71.16813659667969,2.795098066329956,0.038530413061380386,205.66000366210938,313.239990234375,484.2200012207031,386.07000732421875,154.19000244140625,83.80000305175781,235.95333862304688,1.0,0.0008596216794103384,0.03976517915725708,0.807033360004425,0.3427666127681732,0.5220666527748108,0.3932555913925171,1.0
env_steps,60512,100,100,94,60510,0.8043962666666666,0.6174353361129761,0.6103546619415283,1.3187413215637207,0.8868141174316406,8.353277206420898,3282,13.126835823059082,0.5157729983329773,0.0,600.0,0.5811647772789001,nan,nan,nan,nan,nan,nan,nan,0.0,nan,nan,nan,0.0,nan,nan,nan,nan,nan,73.96324920654297,-12.0,-24.679201126098633,-14.157200813293457,-10.0,0.0,721.22998046875,141.6300048828125,22.957460403442383,4.508222579956055,0.9016445279121399,23.859107971191406,71.16813659667969,2.795098066329956,0.038530413061380386,205.66000366210938,313.239990234375,484.2200012207031,386.07000732421875,154.19000244140625,83.80000305175781,235.95333862304688,1.0,0.0008596216794103384,0.03976517915725708,0.807033360004425,0.3427666127681732,0.5220666527748108,0.3932555913925171,1.0
env_steps,61008,101,101,95,61006,0.8027925333333333,0.4452482759952545,0.6671261787414551,0.9623587131500244,0.7135597467422485,3.2506704330444336,3313,13.571846961975098,0.5177779793739319,0.0,600.0,0.579251229763031,nan,nan,nan,nan,nan,nan,nan,0.0,nan,nan,nan,0.0,nan,nan,nan,nan,nan,74.39466094970703,-12.0,-24.66360092163086,-14.159198760986328,-10.0,0.0,725.4000244140625,142.63999938964844,23.090198516845703,4.540371894836426,0.9080744385719299,23.998273849487305,71.57962036132812,2.815030574798584,0.03860480338335037,205.52999877929688,312.1499938964844,483.739990234375,385.989990234375,154.3699951171875,83.80000305175781,235.98666381835938,1.0,0.0008629633230157197,0.03999711945652962,0.8062333464622498,0.3425499200820923,0.5202500224113464,0.39331111311912537,1.0
env_steps,61504,102,102,96,61502,0.8011888,0.4875675141811371,1.4454879760742188,1.4867372512817383,0.7966261506080627,3.577793598175049,3344,13.780256271362305,0.5186949372291565,0.0,600.0,0.5790349841117859,nan,nan,nan,nan,nan,nan,nan,0.0,nan,nan,nan,0.0,nan,nan,nan,nan,nan,74.57286834716797,-12.0,-24.634801864624023,-14.157801628112793,-10.0,0.0,727.0399780273438,143.47000122070312,23.14240074157715,4.566791534423828,0.9133583903312683,24.05575942993164,71.74144744873047,2.831411123275757,0.03873688355088234,205.2899932861328,312.32000732421875,483.6199951171875,385.989990234375,154.44000244140625,83.7300033569336,235.96331787109375,1.0,0.0008644916815683246,0.04009293019771576,0.8060334920883179,0.3421499729156494,0.5205333828926086,0.3932722508907318,1.0
env_steps,62000,103,103,97,61998,0.7995850666666666,0.5526508688926697,1.2013204097747803,1.386871576309204,0.8312763571739197,2.0126166343688965,3375,14.470894813537598,0.5221759676933289,0.0,600.0,0.5777370929718018,nan,nan,nan,nan,nan,nan,nan,0.0,nan,nan,nan,0.0,nan,nan,nan,nan,nan,75.21089935302734,-12.0,-24.59760093688965,-14.142400741577148,-10.0,0.0,733.2999877929688,144.5,23.341663360595703,4.5995774269104,0.9199154376983643,24.261579513549805,72.35916137695312,2.851738214492798,0.038743194192647934,204.97999572753906,311.8599853515625,483.2099914550781,385.6199951171875,154.24000549316406,83.62999725341797,235.70668029785156,1.0,0.0008702932973392308,0.04043596610426903,0.8053500652313232,0.34163326025009155,0.5197667479515076,0.39284446835517883,1.0
env_steps,62512,104,104,98,62510,0.7979296,0.420470654964447,0.8001441955566406,0.893414318561554,0.7148631811141968,2.7781765460968018,3407,14.82072639465332,0.5241420269012451,0.0,600.0,0.5762562155723572,nan,nan,nan,nan,nan,nan,nan,0.0,nan,nan,nan,0.0,nan,nan,nan,nan,nan,75.59613037109375,-12.0,-24.620399475097656,-14.155001640319824,-10.0,0.0,736.97998046875,145.6199951171875,23.45880126953125,4.635228633880615,0.9270457625389099,24.385848999023438,72.72228240966797,2.8738417625427246,0.038842398673295975,205.1699981689453,311.739990234375,482.79998779296875,385.7699890136719,153.86000061035156,84.05999755859375,235.91665649414062,1.0,0.0008735699811950326,0.040643081068992615,0.8046666979789734,0.3419499695301056,0.5195667147636414,0.3931944668292999,1.0
env_steps,63008,105,105,99,63006,0.7963258666666666,0.5458886027336121,0.9126513004302979,1.1122967004776,0.8454006910324097,3.0366408824920654,3438,14.778425216674805,0.5243130326271057,0.0,600.0,0.5758569240570068,nan,nan,nan,nan,nan,nan,nan,0.0,nan,nan,nan,0.0,nan,nan,nan,nan,nan,75.58882904052734,-12.0,-24.652799606323242,-14.157601356506348,-10.0,0.0,736.739990234375,146.4499969482422,23.451162338256836,4.661648273468018,0.9323296546936035,24.383493423461914,72.6986083984375,2.8902220726013184,0.039025548845529556,205.44000244140625,312.1400146484375,482.95001220703125,385.6600036621094,153.9199981689453,84.1500015258789,235.96002197265625,1.0,0.0008738550823181868,0.040639158338308334,0.8049166798591614,0.3423999845981598,0.5202333331108093,0.3932667076587677,1.0
env_steps,63504,105,105,99,63502,0.7947221333333334,0.49257463216781616,0.9247820377349854,1.0036793947219849,0.8090391755104065,3.2430741786956787,3469,14.778425216674805,0.5243130326271057,0.0,600.0,0.5758569240570068,nan,nan,nan,nan,nan,nan,nan,0.0,nan,nan,nan,0.0,nan,nan,nan,nan,nan,75.58882904052734,-12.0,-24.652799606323242,-14.157601356506348,-10.0,0.0,736.739990234375,146.4499969482422,23.451162338256836,4.661648273468018,0.9323296546936035,24.383493423461914,72.6986083984375,2.8902220726013184,0.039025548845529556,205.44000244140625,312.1400146484375,482.95001220703125,385.6600036621094,153.9199981689453,84.1500015258789,235.96002197265625,1.0,0.0008738550823181868,0.040639158338308334,0.8049166798591614,0.3423999845981598,0.5202333331108093,0.3932667076587677,1.0
env_steps,64000,106,106,100,63998,0.7931184,0.3950415551662445,0.9418966770172119,1.0527582168579102,0.689285397529602,2.621044158935547,3500,15.405257225036621,0.527804970741272,0.0,600.0,0.5734109878540039,nan,nan,nan,nan,nan,nan,nan,0.0,nan,nan,nan,0.0,nan,nan,nan,nan,nan,76.19766235351562,-12.0,-24.643198013305664,-14.149200439453125,-10.0,0.0,742.6799926757812,147.60000610351562,23.640239715576172,4.698253631591797,0.9396507740020752,24.57988929748535,73.28473663330078,2.9129178524017334,0.03900204971432686,205.36000061035156,310.8900146484375,482.1499938964844,385.5199890136719,153.72000122070312,84.11000061035156,235.8200225830078,1.0,0.0008796749752946198,0.04096648842096329,0.8035833239555359,0.34226664900779724,0.5181499719619751,0.39303332567214966,1.0
env_steps,64512,107,107,101,64510,0.7914629333333334,0.553231418132782,0.9582346081733704,1.126549243927002,0.8309036493301392,3.0593035221099854,3532,15.564438819885254,0.5283600091934204,0.0,600.0,0.5717304348945618,nan,nan,nan,nan,nan,nan,nan,0.0,nan,nan,nan,0.0,nan,nan,nan,nan,nan,76.27365112304688,-12.0,-24.576000213623047,-14.133199691772461,-10.0,0.0,743.3699951171875,148.0,23.662199020385742,4.710986137390137,0.9421972036361694,24.604402542114258,73.35282897949219,2.920811414718628,0.039061516523361206,204.8000030517578,310.79998779296875,481.94000244140625,385.0899963378906,153.47000122070312,84.05000305175781,235.5533447265625,1.0,0.0008806000696495175,0.041007332503795624,0.8032333254814148,0.3413333594799042,0.5180000066757202,0.39258888363838196,1.0
env_steps,65008,108,108,102,65006,0.7898592,0.5155069828033447,1.169579267501831,1.0183260440826416,0.8221120834350586,3.019658088684082,3563,16.267616271972656,0.5320759415626526,0.0,600.0,0.5710316300392151,nan,nan,nan,nan,nan,nan,nan,0.0,nan,nan,nan,0.0,nan,nan,nan,nan,nan,76.96101379394531,-12.0,-24.572402954101562,-14.120999336242676,-10.0,0.0,750.1900024414062,148.72999572753906,23.879289627075195,4.734222888946533,0.9468444585800171,24.826133728027344,74.02580261230469,2.935218095779419,0.038832888007164,204.77000427246094,311.05999755859375,481.4700012207031,384.760009765625,153.30999755859375,83.98999786376953,235.3500213623047,1.0,0.0008867933647707105,0.04137689247727394,0.8024499416351318,0.3412833511829376,0.5184333324432373,0.3922499716281891,1.0
env_steps,65504,109,109,103,65502,0.7882554666666667,0.6116926074028015,0.7820608019828796,0.8294981122016907,0.8752757906913757,3.070272922515869,3594,16.744264602661133,0.5351629853248596,0.0,600.0,0.5691181421279907,nan,nan,nan,nan,nan,nan,nan,0.0,nan,nan,nan,0.0,nan,nan,nan,nan,nan,77.47906494140625,-12.0,-24.598798751831055,-14.135998725891113,-10.0,0.0,755.0999755859375,150.42999267578125,24.03557777404785,4.788335800170898,0.9576671123504639,24.993247985839844,74.51029968261719,2.968768358230591,0.03903832286596298,204.99000549316406,310.2099914550781,480.7099914550781,384.94000244140625,153.22000122070312,84.31999969482422,235.6000213623047,1.0,0.0008919384563341737,0.04165541008114815,0.8011832237243652,0.34165000915527344,0.5170166492462158,0.39266663789749146,1.0
env_steps,66000,110,110,104,66000,0.7866517333333334,0.44228339195251465,1.0644201040267944,1.2322982549667358,0.7333676815032959,2.1720526218414307,3625,17.488136291503906,0.5395219922065735,0.0,600.0,0.5675374269485474,nan,nan,nan,nan,nan,nan,nan,0.0,nan,nan,nan,0.0,nan,nan,nan,nan,nan,78.24893951416016,-12.0,-24.620397567749023,-14.140399932861328,-10.0,0.0,762.5900268554688,151.99000549316406,24.27399444580078,4.837992191314697,0.9675983190536499,25.241592407226562,75.24938201904297,2.9995551109313965,0.03904300555586815,205.1699981689453,307.8599853515625,479.6499938964844,385.0,153.22000122070312,84.4000015258789,235.67333984375,1.0,0.0008992034127004445,0.042069315910339355,0.7994166016578674,0.341949999332428,0.5131000280380249,0.3927888870239258,1.0
env_steps,66512,110,110,104,66510,0.7849962666666667,0.6984879374504089,0.7421982288360596,0.9461212754249573,0.9801622033119202,2.966414213180542,3657,17.488136291503906,0.5395219922065735,0.0,600.0,0.5675374269485474,nan,nan,nan,nan,nan,nan,nan,0.0,nan,nan,nan,0.0,nan,nan,nan,nan,nan,78.24893951416016,-12.0,-24.620397567749023,-14.140399932861328,-10.0,0.0,762.5900268554688,151.99000549316406,24.27399444580078,4.837992191314697,0.9675983190536499,25.241592407226562,75.24938201904297,2.9995551109313965,0.03904300555586815,205.1699981689453,307.8599853515625,479.6499938964844,385.0,153.22000122070312,84.4000015258789,235.67333984375,1.0,0.0008992034127004445,0.042069315910339355,0.7994166016578674,0.341949999332428,0.5131000280380249,0.3927888870239258,1.0
env_steps,67008,111,111,105,67006,0.7833925333333334,0.596720814704895,0.923339307308197,0.8299112915992737,0.8965043425559998,4.075429916381836,3688,18.357864379882812,0.5442860126495361,0.0,600.0,0.5654076933860779,nan,nan,nan,nan,nan,nan,nan,0.0,nan,nan,nan,0.0,nan,nan,nan,nan,nan,79.05926513671875,-12.0,-24.571199417114258,-14.130200386047363,-10.0,0.0,770.3400268554688,154.3000030517578,24.52068328857422,4.911522388458252,0.9823043346405029,25.502988815307617,76.01412963867188,3.0451433658599854,0.03921127691864967,204.75999450683594,306.5899963378906,478.6099853515625,384.8500061035156,153.32000732421875,84.16999816894531,235.5033416748047,1.0,0.0009071434033103287,0.04250497370958328,0.7976832389831543,0.3412666618824005,0.5109832882881165,0.3925055265426636,1.0
env_steps,67504,112,112,106,67502,0.7817888,0.5331564545631409,1.4659521579742432,1.6482243537902832,0.8464915752410889,2.4599404335021973,3719,19.279804229736328,0.5488539934158325,0.0,600.0,0.5634942054748535,nan,nan,nan,nan,nan,nan,nan,0.0,nan,nan,nan,0.0,nan,nan,nan,nan,nan,79.94320678710938,-12.0,-24.536399841308594,-14.12700080871582,-10.0,0.0,778.9400024414062,156.08999633789062,24.794431686401367,4.968499660491943,0.993699848651886,25.788129806518555,76.86274719238281,3.0804693698883057,0.0392133928835392,204.47000122070312,304.3999938964844,477.4200134277344,384.7900085449219,153.0399932861328,84.26000213623047,235.4499969482422,1.0,0.0009147567325271666,0.04298021271824837,0.7956998944282532,0.3407832980155945,0.5073333382606506,0.39241665601730347,1.0
env_steps,68000,113,113,107,67998,0.7801850666666666,0.4990016222000122,0.6421492099761963,1.0997731685638428,0.7491182088851929,4.300498962402344,3750,19.515159606933594,0.5502649545669556,0.0,600.0,0.5622961521148682,nan,nan,nan,nan,nan,nan,nan,0.0,nan,nan,nan,0.0,nan,nan,nan,nan,nan,80.15516662597656,-12.0,-24.517196655273438,-14.12279987335205,-10.0,0.0,780.969970703125,156.67999267578125,24.859045028686523,4.987279891967773,0.997455894947052,25.856504440307617,77.06304931640625,3.0921130180358887,0.03927686810493469,204.30999755859375,304.67999267578125,477.19000244140625,384.5799865722656,152.82000732421875,84.37000274658203,235.3800048828125,1.0,0.0009171082638204098,0.043094173073768616,0.7953166961669922,0.34051668643951416,0.5077999830245972,0.392300009727478,1.0
