dk0113-Y/DRL-path-finding/experiment_records/final_method/A_new_minimum_closure/Anew_D_no_value_tree/logs/train_steps.csv
budget_mode,env_steps,episode_idx,train_episode_idx,completed_train_episodes,replay_size,epsilon,loss,q_mean,target_q_mean,td_abs_mean,grad_norm,learner_steps,recent_mean_reward,recent_mean_coverage,recent_success_rate,recent_mean_episode_length,recent_mean_repeat_visit_ratio,recent_accessible_block_count,recent_total_accessible_unknown_area,recent_total_frontier_cluster_count,recent_mean_block_area,recent_local_frontier_coverage,recent_local_frontier_block_area_mean,recent_value_total_block_count_before_cap,recent_value_packed_block_count,recent_value_truncated_block_count,recent_value_block_cap_hit_flag,recent_value_total_entry_count_before_cap,recent_value_packed_entry_count,recent_value_truncated_entry_count,recent_value_entry_cap_hit_block_count,recent_value_entry_cap_hit_flag,recent_value_max_frontier_clusters_per_block,recent_value_mean_frontier_clusters_per_block,recent_info_reward_sum,recent_step_penalty_sum,recent_recent_revisit_penalty_sum,recent_turn_penalty_sum,recent_timeout_penalty_sum,recent_terminal_bonus_sum,recent_delta_empty_sum,recent_delta_obstacle_sum,recent_empty_info_gain_sum,recent_obstacle_info_gain_sum,recent_weighted_obstacle_info_gain_sum,recent_weighted_info_gain_sum,recent_empty_info_reward_sum,recent_obstacle_info_reward_sum,recent_obstacle_info_contribution_ratio,recent_recent_revisit_trigger_count,recent_stall_trigger_count,recent_zero_info_step_count,recent_turn_ge_90_count,recent_turn_135_count,recent_turn_180_count,recent_turn_penalty_weight_sum,recent_timeout_flag,recent_coverage_gain_per_step,recent_weighted_info_gain_per_step,recent_zero_info_rate,recent_recent_revisit_rate,recent_stall_rate,recent_turn_burden_rate,recent_timeout_rate
env_steps,4512,7,7,1,4510,0.9854629333333333,nan,nan,nan,nan,nan,0,4.2396159172058105,0.4578857123851776,0.0,600.0,0.6256240010261536,2.251666784286499,422.25567626953125,8.57880973815918,240.77197265625,0.0,0.0,0.0,0.0,0.0,0.0,0.0,0.0,0.0,0.0,0.0,0.0,0.0,64.76532745361328,-12.0,-24.531429290771484,-13.994285583496094,-10.0,0.0,634.7142944335938,108.14286041259766,20.203582763671875,3.442293882369995,0.6884588003158569,20.892044067382812,62.631103515625,2.1342222690582275,0.033234018832445145,204.42857360839844,307.71429443359375,491.71429443359375,384.5714416503906,155.7142791748047,79.71428680419922,233.2381134033203,1.0,0.0007631428306922317,0.0348200686275959,0.819523811340332,0.3407142758369446,0.5128571391105652,0.38873013854026794,1.0
env_steps,5008,8,8,2,5006,0.9838592,nan,nan,nan,nan,nan,0,-3.1178276538848877,0.42249998450279236,0.0,600.0,0.6537021398544312,2.222083330154419,402.1370849609375,8.3125,226.92947387695312,0.0,0.0,0.0,0.0,0.0,0.0,0.0,0.0,0.0,0.0,0.0,0.0,0.0,58.15967559814453,-12.0,-25.095001220703125,-14.182499885559082,-10.0,0.0,569.0,102.0,18.111831665039062,3.246760845184326,0.6493521928787231,18.761184692382812,56.14668273925781,2.0129916667938232,0.041290029883384705,209.125,330.75,500.75,389.125,158.5,80.75,236.375,1.0,0.0007041666540317237,0.0312686413526535,0.8345832824707031,0.3485416769981384,0.5512499809265137,0.39395833015441895,1.0
env_steps,5504,9,9,3,5502,0.9822554666666666,nan,nan,nan,nan,nan,0,-3.429028272628784,0.4210222065448761,0.0,600.0,0.6491033434867859,2.0868518352508545,414.89166259765625,7.875741004943848,259.1180419921875,0.0,0.0,0.0,0.0,0.0,0.0,0.0,0.0,0.0,0.0,0.0,0.0,0.0,57.64875030517578,-12.0,-24.97333526611328,-14.10444450378418,-10.0,0.0,564.3333129882812,99.44444274902344,17.963287353515625,3.165415048599243,0.6330830454826355,18.596370697021484,55.686195373535156,1.962557315826416,0.039936505258083344,208.11111450195312,333.3333435058594,501.3333435058594,388.0,159.6666717529297,78.77777862548828,235.07408142089844,1.0,0.0007017037132754922,0.030993951484560966,0.8355554938316345,0.3468518555164337,0.5555555820465088,0.39179012179374695,1.0
env_steps,6000,10,10,4,6000,0.9806517333333333,nan,nan,nan,nan,nan,0,-4.047141075134277,0.41547998785972595,0.0,600.0,0.6505823731422424,1.9981666803359985,430.67230224609375,7.933667182922363,284.51885986328125,0.0,0.0,0.0,0.0,0.0,0.0,0.0,0.0,0.0,0.0,0.0,0.0,0.0,57.176856994628906,-12.0,-25.06800079345703,-14.156000137329102,-10.0,0.0,559.7000122070312,98.69999694824219,17.81580352783203,3.141718626022339,0.6283437013626099,18.444149017333984,55.22899627685547,1.9478654861450195,0.03937313333153725,208.89999389648438,331.3999938964844,501.6000061035156,388.79998779296875,160.0,79.5,235.933349609375,1.0,0.0006924666231498122,0.030740246176719666,0.8359999656677246,0.34816664457321167,0.5523333549499512,0.39322224259376526,1.0
env_steps,6512,10,10,4,6510,0.9789962666666666,nan,nan,nan,nan,nan,0,-4.047141075134277,0.41547998785972595,0.0,600.0,0.6505823731422424,1.9981666803359985,430.67230224609375,7.933667182922363,284.51885986328125,0.0,0.0,0.0,0.0,0.0,0.0,0.0,0.0,0.0,0.0,0.0,0.0,0.0,57.176856994628906,-12.0,-25.06800079345703,-14.156000137329102,-10.0,0.0,559.7000122070312,98.69999694824219,17.81580352783203,3.141718626022339,0.6283437013626099,18.444149017333984,55.22899627685547,1.9478654861450195,0.03937313333153725,208.89999389648438,331.3999938964844,501.6000061035156,388.79998779296875,160.0,79.5,235.933349609375,1.0,0.0006924666231498122,0.030740246176719666,0.8359999656677246,0.34816664457321167,0.5523333549499512,0.39322224259376526,1.0
env_steps,7008,11,11,5,7006,0.9773925333333333,nan,nan,nan,nan,nan,0,-5.4111528396606445,0.4106999635696411,0.0,600.0,0.6531538367271423,1.9950000047683716,430.18817138671875,7.7598490715026855,278.6434326171875,0.0,0.0,0.0,0.0,0.0,0.0,0.0,0.0,0.0,0.0,0.0,0.0,0.0,55.985206604003906,-12.0,-25.221818923950195,-14.174545288085938,-10.0,0.0,548.1818237304688,95.90908813476562,17.449169158935547,3.0528814792633057,0.6105762124061584,18.05974578857422,54.092430114746094,1.8927863836288452,0.03856214880943298,210.18182373046875,338.6363525390625,503.81817626953125,388.3636474609375,159.63636779785156,80.36363983154297,236.242431640625,1.0,0.0006844999734312296,0.030099576339125633,0.8396969437599182,0.3503030240535736,0.564393937587738,0.39373740553855896,1.0
env_steps,7504,12,12,6,7502,0.9757888,nan,nan,nan,nan,nan,0,-5.87480354309082,0.4078749716281891,0.0,600.0,0.6522462964057922,1.9529166221618652,440.3363952636719,7.817083835601807,288.291748046875,0.0,0.0,0.0,0.0,0.0,0.0,0.0,0.0,0.0,0.0,0.0,0.0,0.0,55.26352310180664,-12.0,-25.05000114440918,-14.088333129882812,-10.0,0.0,541.5,92.75,17.236478805541992,2.952324628829956,0.5904648303985596,17.82694435119629,53.4330940246582,1.8304409980773926,0.03736420348286629,208.75,341.9166564941406,505.1666564941406,387.0,158.75,79.33333587646484,234.80555725097656,1.0,0.000679791672155261,0.02971157617866993,0.8419444561004639,0.3479166328907013,0.569861114025116,0.3913426399230957,1.0
env_steps,8000,13,13,7,7998,0.9741850666666667,nan,nan,nan,nan,nan,0,-5.921056270599365,0.4066615104675293,0.0,600.0,0.6527582406997681,1.948076844215393,427.90179443359375,7.768077373504639,279.8653869628906,0.0,0.0,0.0,0.0,0.0,0.0,0.0,0.0,0.0,0.0,0.0,0.0,0.0,55.46201705932617,-12.0,-25.25538444519043,-14.127692222595215,-10.0,0.0,543.4615478515625,93.0,17.298917770385742,2.960282325744629,0.592056393623352,17.890974044799805,53.626651763916016,1.8353748321533203,0.03700952231884003,210.46153259277344,336.69232177734375,504.0,387.4615478515625,158.15383911132812,80.38461303710938,235.46153259277344,1.0,0.0006777691887691617,0.02981829270720482,0.8400000333786011,0.35076919198036194,0.5611538290977478,0.3924359679222107,1.0
env_steps,8512,14,14,8,8510,0.9725296,0.2131640613079071,-0.5224807858467102,-0.38480043411254883,0.4258893132209778,2.5949156284332275,32,-7.623843669891357,0.3975071310997009,0.0,600.0,0.6577133536338806,1.9490474462509155,426.5228576660156,7.911190986633301,274.8649597167969,0.0,0.0,0.0,0.0,0.0,0.0,0.0,0.0,0.0,0.0,0.0,0.0,0.0,53.84329605102539,-12.0,-25.302858352661133,-14.164285659790039,-10.0,0.0,527.1428833007812,92.57142639160156,16.779478073120117,2.9466402530670166,0.5893279910087585,17.368806838989258,52.016387939453125,1.8269168138504028,0.03810502216219902,210.85714721679688,341.0714416503906,505.8571472167969,388.8571472167969,158.35714721679688,80.5,236.07142639160156,1.0,0.0006625118548981845,0.028948010876774788,0.8430952429771423,0.3514285385608673,0.5684524178504944,0.3934524357318878,1.0
env_steps,9008,15,15,9,9006,0.9709258666666667,0.17840084433555603,-0.4912489354610443,-0.5157457590103149,0.44480788707733154,6.894054889678955,63,-7.311629295349121,0.3981733024120331,0.0,600.0,0.6516916155815125,1.9247777462005615,428.7647705078125,8.067889213562012,277.92706298828125,0.0,0.0,0.0,0.0,0.0,0.0,0.0,0.0,0.0,0.0,0.0,0.0,0.0,53.73503494262695,-12.0,-24.976001739501953,-14.070666313171387,-10.0,0.0,526.0,92.80000305175781,16.743099212646484,2.95391583442688,0.5907831192016602,17.333885192871094,51.90361404418945,1.831427812576294,0.03798343241214752,208.13333129882812,335.1333312988281,503.73333740234375,387.1333312988281,157.73333740234375,79.33333587646484,234.51112365722656,1.0,0.0006636222242377698,0.02888980507850647,0.839555561542511,0.34688887000083923,0.558555543422699,0.3908519148826599,1.0
env_steps,9504,15,15,9,9502,0.9693221333333333,0.16785642504692078,-0.5838571786880493,-0.4627110958099365,0.4142318367958069,3.330965280532837,94,-7.311629295349121,0.3981733024120331,0.0,600.0,0.6516916155815125,1.9247777462005615,428.7647705078125,8.067889213562012,277.92706298828125,0.0,0.0,0.0,0.0,0.0,0.0,0.0,0.0,0.0,0.0,0.0,0.0,0.0,53.73503494262695,-12.0,-24.976001739501953,-14.070666313171387,-10.0,0.0,526.0,92.80000305175781,16.743099212646484,2.95391583442688,0.5907831192016602,17.333885192871094,51.90361404418945,1.831427812576294,0.03798343241214752,208.13333129882812,335.1333312988281,503.73333740234375,387.1333312988281,157.73333740234375,79.33333587646484,234.51112365722656,1.0,0.0006636222242377698,0.02888980507850647,0.839555561542511,0.34688887000083923,0.558555543422699,0.3908519148826599,1.0
env_steps,10000,16,16,10,9998,0.9677184,0.18003323674201965,-0.5575730800628662,-0.5174086093902588,0.4112427234649658,2.615741491317749,125,-4.555213451385498,0.4106062650680542,0.0,600.0,0.6444467306137085,1.9063541889190674,432.1717529296875,8.007708549499512,282.1222839355469,0.0,0.0,0.0,0.0,0.0,0.0,0.0,0.0,0.0,0.0,0.0,0.0,0.0,56.38103485107422,-12.0,-24.907499313354492,-14.028749465942383,-10.0,0.0,552.25,95.625,17.578662872314453,3.0438382625579834,0.6087676286697388,18.18743133544922,54.493858337402344,1.8871797323226929,0.03738124668598175,207.5625,324.9375,499.8125,385.9375,157.125,79.1875,233.8125,1.0,0.0006843437440693378,0.03031238541007042,0.833020806312561,0.34593749046325684,0.541562557220459,0.3896874785423279,1.0
env_steps,10512,17,17,11,10510,0.9660629333333334,0.19552837312221527,-0.6329479813575745,-0.47212815284729004,0.4194146692752838,2.424240827560425,157,-5.328709602355957,0.4073353111743927,0.0,600.0,0.6487227082252502,1.9449020624160767,439.3822326660156,7.976568698883057,278.64324951171875,0.0,0.0,0.0,0.0,0.0,0.0,0.0,0.0,0.0,0.0,0.0,0.0,0.0,55.62776184082031,-12.0,-24.945880889892578,-14.010587692260742,-10.0,0.0,544.7647094726562,94.88235473632812,17.34039878845215,3.0201990604400635,0.6040397882461548,17.944440841674805,53.7552375793457,1.8725234270095825,0.03739355877041817,207.88235473632812,327.23529052734375,501.1764831542969,385.29412841796875,156.76470947265625,79.23529052734375,233.5098114013672,1.0,0.0006788921309635043,0.02990739792585373,0.8352941274642944,0.34647059440612793,0.5453922152519226,0.389182984828949,1.0
env_steps,11008,18,18,12,11006,0.9644592,0.1742618978023529,-0.7264114618301392,-0.5797269940376282,0.3952717185020447,2.9060587882995605,188,-5.7987189292907715,0.40405556559562683,0.0,600.0,0.6470696926116943,1.9112038612365723,445.1446228027344,8.044722557067871,288.1025390625,0.0,0.0,0.0,0.0,0.0,0.0,0.0,0.0,0.0,0.0,0.0,0.0,0.0,55.14128112792969,-12.0,-24.953330993652344,-13.986666679382324,-10.0,0.0,539.7222290039062,95.44444274902344,17.17989158630371,3.038090944290161,0.6076181530952454,17.787511825561523,53.257667541503906,1.88361656665802,0.0377722829580307,207.94444274902344,328.6111145019531,501.5555419921875,384.6666564941406,156.55555725097656,79.05555725097656,233.11111450195312,1.0,0.0006734259077347815,0.029645850881934166,0.8359258770942688,0.346574068069458,0.5476852655410767,0.38851848244667053,1.0
env_steps,11504,19,19,13,11502,0.9628554666666667,0.24512308835983276,-0.5473412275314331,-0.4272085130214691,0.500713050365448,2.2159311771392822,219,-3.792025089263916,0.41268420219421387,0.0,600.0,0.6397232413291931,1.9277193546295166,462.2808532714844,8.13105297088623,295.113525390625,0.0,0.0,0.0,0.0,0.0,0.0,0.0,0.0,0.0,0.0,0.0,0.0,0.0,56.913238525390625,-12.0,-24.789472579956055,-13.915789604187012,-10.0,0.0,557.0,98.84210205078125,17.729860305786133,3.1462419033050537,0.6292483806610107,18.35910987854004,54.96257019042969,1.9506701231002808,0.03765561059117317,206.57894897460938,325.4210510253906,498.8947448730469,383.3157958984375,155.5263214111328,78.47368621826172,231.9298095703125,1.0,0.0006878070416860282,0.030598515644669533,0.831491231918335,0.34429824352264404,0.542368471622467,0.3865496814250946,1.0
env_steps,12000,20,20,14,12000,0.9612517333333334,0.13647180795669556,-0.5585376024246216,-0.5702425241470337,0.3693511486053467,2.3218002319335938,250,-3.280437469482422,0.41692501306533813,0.0,600.0,0.6373543739318848,1.8940000534057617,461.87347412109375,8.113916397094727,300.01666259765625,0.0,0.0,0.0,0.0,0.0,0.0,0.0,0.0,0.0,0.0,0.0,0.0,0.0,57.42256546020508,-12.0,-24.76799964904785,-13.934999465942383,-10.0,0.0,562.2000122070312,98.6500015258789,17.895381927490234,3.140126943588257,0.6280254125595093,18.523408889770508,55.475685119628906,1.9468787908554077,0.037169888615608215,206.39999389648438,324.3500061035156,498.1000061035156,383.45001220703125,155.8000030517578,78.75,232.25,1.0,0.0006948750233277678,0.030872344970703125,0.8301666378974915,0.343999981880188,0.5405834317207336,0.3870832920074463,1.0
env_steps,12512,20,20,14,12510,0.9595962666666666,0.3111986517906189,-0.5505533814430237,-0.5630248785018921,0.5409829616546631,2.397498369216919,282,-3.280437469482422,0.41692501306533813,0.0,600.0,0.6373543739318848,1.8940000534057617,461.87347412109375,8.113916397094727,300.01666259765625,0.0,0.0,0.0,0.0,0.0,0.0,0.0,0.0,0.0,0.0,0.0,0.0,0.0,57.42256546020508,-12.0,-24.76799964904785,-13.934999465942383,-10.0,0.0,562.2000122070312,98.6500015258789,17.895381927490234,3.140126943588257,0.6280254125595093,18.523408889770508,55.475685119628906,1.9468787908554077,0.037169888615608215,206.39999389648438,324.3500061035156,498.1000061035156,383.45001220703125,155.8000030517578,78.75,232.25,1.0,0.0006948750233277678,0.030872344970703125,0.8301666378974915,0.343999981880188,0.5405834317207336,0.3870832920074463,1.0
env_steps,13008,21,21,15,13006,0.9579925333333333,0.09222762286663055,-0.6207461357116699,-0.7110459804534912,0.2990395128726959,2.563619613647461,313,-1.7452548742294312,0.42373812198638916,0.0,600.0,0.6313287019729614,2.001984119415283,461.499755859375,8.175317764282227,292.1711120605469,0.0,0.0,0.0,0.0,0.0,0.0,0.0,0.0,0.0,0.0,0.0,0.0,0.0,58.95283889770508,-12.0,-24.76571273803711,-13.932380676269531,-10.0,0.0,577.0,102.19047546386719,18.366479873657227,3.252824068069458,0.6505647301673889,19.017045974731445,56.93608856201172,2.0167508125305176,0.037215251475572586,206.38095092773438,321.1428527832031,496.4761962890625,383.1428527832031,155.2857208251953,79.0952377319336,232.20635986328125,1.0,0.0007062301738187671,0.03169507533311844,0.8274602293968201,0.3439682424068451,0.5352381467819214,0.38701051473617554,1.0
env_steps,13504,22,22,16,13502,0.9563888,0.11424295604228973,-0.5295795202255249,-0.5162109136581421,0.33305010199546814,2.09506893157959,344,-1.7228211164474487,0.42521363496780396,0.0,600.0,0.6339434385299683,1.9926514625549316,456.7264404296875,8.031970024108887,289.21112060546875,0.0,0.0,0.0,0.0,0.0,0.0,0.0,0.0,0.0,0.0,0.0,0.0,0.0,58.955360412597656,-12.0,-24.725452423095703,-13.952727317810059,-10.0,0.0,577.0,102.31818389892578,18.366479873657227,3.2568891048431396,0.6513777375221252,19.017860412597656,56.93608474731445,2.0192711353302,0.03711988031864166,206.0454559326172,321.5909118652344,496.8636474609375,383.5454406738281,154.5454559326172,79.7727279663086,232.5454559326172,1.0,0.0007086893892847002,0.03169643133878708,0.8281059861183167,0.34340906143188477,0.5359849333763123,0.3875757157802582,1.0
env_steps,14000,23,23,17,13998,0.9547850666666666,0.2422507405281067,-0.47907811403274536,-0.4985201358795166,0.49090346693992615,2.8910791873931885,375,-0.9676616787910461,0.42996087670326233,0.0,600.0,0.6280836462974548,1.9886232614517212,448.72784423828125,8.1013765335083,284.5224304199219,0.0,0.0,0.0,0.0,0.0,0.0,0.0,0.0,0.0,0.0,0.0,0.0,0.0,59.548858642578125,-12.0,-24.600000381469727,-13.916521072387695,-10.0,0.0,582.7825927734375,103.47826385498047,18.550546646118164,3.2938153743743896,0.6587629914283752,19.20931053161621,57.506690979003906,2.042165517807007,0.03703048825263977,205.0,322.2608642578125,496.1739196777344,383.13043212890625,154.2608642578125,79.21739196777344,231.9420166015625,1.0,0.000716601440217346,0.03201551362872124,0.8269564509391785,0.34166663885116577,0.5371015071868896,0.386570006608963,1.0
env_steps,14512,24,24,18,14510,0.9531296,0.08157190680503845,-0.5128979682922363,-0.47893041372299194,0.26590195298194885,1.840996265411377,407,-1.0837370157241821,0.4289875030517578,0.0,600.0,0.6249306797981262,1.9584027528762817,442.9443359375,8.070902824401855,283.85211181640625,0.0,0.0,0.0,0.0,0.0,0.0,0.0,0.0,0.0,0.0,0.0,0.0,0.0,59.345428466796875,-12.0,-24.51999855041504,-13.909167289733887,-10.0,0.0,580.6666870117188,103.75,18.48319435119629,3.302464723587036,0.660493016242981,19.143686294555664,57.29790115356445,2.0475282669067383,0.037142183631658554,204.3333282470703,320.7083435058594,495.75,382.9583435058594,153.8333282470703,79.33333587646484,231.81944274902344,1.0,0.0007149791345000267,0.031906142830848694,0.826249897480011,0.3405555486679077,0.5345138907432556,0.38636574149131775,1.0
env_steps,15008,25,25,19,15006,0.9515258666666666,0.1520349085330963,-0.5653764605522156,-0.4745579957962036,0.3609413504600525,2.217092275619507,438,-0.8857126832008362,0.43014800548553467,0.0,600.0,0.626089870929718,1.9886000156402588,448.96234130859375,8.05246639251709,281.887939453125,0.0,0.0,0.0,0.0,0.0,0.0,0.0,0.0,0.0,0.0,0.0,0.0,0.0,59.6342887878418,-12.0,-24.600000381469727,-13.920000076293945,-10.0,0.0,583.5599975585938,103.91999816894531,18.575292587280273,3.307875871658325,0.6615752577781677,19.236865997314453,57.583404541015625,2.0508832931518555,0.036937255412340164,205.0,320.7200012207031,495.79998779296875,383.0799865722656,153.32000732421875,79.80000305175781,232.0,1.0,0.0007169132586568594,0.032061442732810974,0.826333224773407,0.34166663885116577,0.5345333218574524,0.3866666555404663,1.0
env_steps,15504,25,25,19,15502,0.9499221333333333,0.19048237800598145,-0.43376624584198,-0.5032572746276855,0.42019742727279663,2.3011083602905273,469,-0.8857126832008362,0.43014800548553467,0.0,600.0,0.626089870929718,1.9886000156402588,448.96234130859375,8.05246639251709,281.887939453125,0.0,0.0,0.0,0.0,0.0,0.0,0.0,0.0,0.0,0.0,0.0,0.0,0.0,59.6342887878418,-12.0,-24.600000381469727,-13.920000076293945,-10.0,0.0,583.5599975585938,103.91999816894531,18.575292587280273,3.307875871658325,0.6615752577781677,19.236865997314453,57.583404541015625,2.0508832931518555,0.036937255412340164,205.0,320.7200012207031,495.79998779296875,383.0799865722656,153.32000732421875,79.80000305175781,232.0,1.0,0.0007169132586568594,0.032061442732810974,0.826333224773407,0.34166663885116577,0.5345333218574524,0.3866666555404663,1.0
env_steps,16000,26,26,20,15998,0.9483184,0.12640321254730225,-0.5355164408683777,-0.47341036796569824,0.33765918016433716,1.994555115699768,500,-0.7979347705841064,0.43176156282424927,0.0,600.0,0.6244720220565796,1.9583975076675415,455.1407775878906,7.963846206665039,291.8694152832031,0.0,0.0,0.0,0.0,0.0,0.0,0.0,0.0,0.0,0.0,0.0,0.0,0.0,59.7012939453125,-12.0,-24.563077926635742,-13.936153411865234,-10.0,0.0,584.1923217773438,104.15384674072266,18.595420837402344,3.315319538116455,0.6630639433860779,19.258481979370117,57.64579772949219,2.0554981231689453,0.036876969039440155,204.6923065185547,321.69232177734375,495.8846130371094,383.6153869628906,153.1923065185547,80.0,232.26922607421875,1.0,0.0007196025107987225,0.0320974700152874,0.8264742493629456,0.3411538004875183,0.5361538529396057,0.38711535930633545,1.0
env_steps,16512,27,27,21,16510,0.9466629333333333,0.19198016822338104,-0.47575023770332336,-0.583745002746582,0.4287441372871399,2.1384639739990234,532,1.393600583076477,0.443766713142395,0.0,600.0,0.6185370087623596,2.002284049987793,462.0021057128906,8.088889122009277,290.5069580078125,0.0,0.0,0.0,0.0,0.0,0.0,0.0,0.0,0.0,0.0,0.0,0.0,0.0,61.81433868408203,-12.0,-24.511110305786133,-13.909629821777344,-10.0,0.0,604.6666870117188,108.85185241699219,19.24713897705078,3.4648618698120117,0.6929724216461182,19.94011116027832,59.66613006591797,2.148214340209961,0.03695732727646828,204.25926208496094,317.77777099609375,493.2962951660156,382.9259338378906,152.92591857910156,79.81481170654297,231.82716369628906,1.0,0.0007396110449917614,0.03323351591825485,0.8221603631973267,0.3404320478439331,0.529629647731781,0.38637855648994446,1.0
env_steps,17008,28,28,22,17006,0.9450592,0.24601759016513824,-0.5450129508972168,-0.7258555889129639,0.46111172437667847,2.4961745738983154,563,2.698138952255249,0.4498250186443329,0.0,600.0,0.616294264793396,2.0394644737243652,457.9715270996094,8.112261772155762,284.7859191894531,0.0,0.0,0.0,0.0,0.0,0.0,0.0,0.0,0.0,0.0,0.0,0.0,0.0,62.95885467529297,-12.0,-24.381427764892578,-13.87928581237793,-10.0,0.0,615.9642944335938,110.35713958740234,19.606752395629883,3.5127768516540527,0.7025553584098816,20.309309005737305,60.78093338012695,2.1779215335845947,0.03677132725715637,203.17857360839844,315.6785583496094,491.6785583496094,382.25,152.42857360839844,79.64286041259766,231.32142639160156,1.0,0.0007497082697227597,0.0338488444685936,0.8194641470909119,0.33863091468811035,0.5261309742927551,0.38553568720817566,1.0
env_steps,17504,29,29,23,17502,0.9434554666666667,0.2818114161491394,-0.5027002692222595,-0.5931006073951721,0.5230827331542969,2.0856900215148926,594,3.78113055229187,0.45434483885765076,0.0,600.0,0.6142061948776245,2.072873830795288,459.2587890625,8.061723709106445,283.7080078125,0.0,0.0,0.0,0.0,0.0,0.0,0.0,0.0,0.0,0.0,0.0,0.0,0.0,63.910789489746094,-12.0,-24.2813777923584,-13.848276138305664,-10.0,0.0,625.586181640625,110.48275756835938,19.913026809692383,3.516775131225586,0.703355073928833,20.616382598876953,61.730384826660156,2.1804006099700928,0.03635997325181961,202.34483337402344,315.862060546875,490.862060546875,381.4827575683594,152.72413635253906,79.10344696044922,230.80459594726562,1.0,0.0007572413887828588,0.03436063602566719,0.8181033134460449,0.33724135160446167,0.5264367461204529,0.3846743106842041,1.0
env_steps,18000,30,30,24,18000,0.9418517333333334,0.1324343979358673,-0.45731210708618164,-0.4163411855697632,0.3614906072616577,2.13136625289917,625,3.9842538833618164,0.4560566842556,0.0,600.0,0.6124237179756165,2.096222400665283,452.8010559082031,8.100443840026855,277.7169189453125,0.0,0.0,0.0,0.0,0.0,0.0,0.0,0.0,0.0,0.0,0.0,0.0,0.0,64.07892608642578,-12.0,-24.26799964904785,-13.826666831970215,-10.0,0.0,627.0999755859375,111.43333435058594,19.961212158203125,3.5470328330993652,0.7094066143035889,20.67061996459961,61.8797607421875,2.19916033744812,0.03647405654191971,202.23333740234375,315.6000061035156,490.4666748046875,381.0666809082031,152.06666564941406,79.0999984741211,230.44444274902344,1.0,0.0007600944372825325,0.03445103019475937,0.817444384098053,0.3370555341243744,0.5259999632835388,0.38407406210899353,1.0
env_steps,18512,30,30,24,18510,0.9401962666666667,0.1531962752342224,-0.45093846321105957,-0.4322490692138672,0.38557079434394836,2.7422590255737305,657,3.9842538833618164,0.4560566842556,0.0,600.0,0.6124237179756165,2.096222400665283,452.8010559082031,8.100443840026855,277.7169189453125,0.0,0.0,0.0,0.0,0.0,0.0,0.0,0.0,0.0,0.0,0.0,0.0,0.0,64.07892608642578,-12.0,-24.26799964904785,-13.826666831970215,-10.0,0.0,627.0999755859375,111.43333435058594,19.961212158203125,3.5470328330993652,0.7094066143035889,20.67061996459961,61.8797607421875,2.19916033744812,0.03647405654191971,202.23333740234375,315.6000061035156,490.4666748046875,381.0666809082031,152.06666564941406,79.0999984741211,230.44444274902344,1.0,0.0007600944372825325,0.03445103019475937,0.817444384098053,0.3370555341243744,0.5259999632835388,0.38407406210899353,1.0
env_steps,19008,31,31,25,19006,0.9385925333333334,0.1186080127954483,-0.5024941563606262,-0.41880184412002563,0.3481336236000061,2.2202813625335693,688,3.0773122310638428,0.4506193995475769,0.0,600.0,0.6131178736686707,2.120107889175415,447.8337707519531,8.05387020111084,272.2679138183594,0.0,0.0,0.0,0.0,0.0,0.0,0.0,0.0,0.0,0.0,0.0,0.0,0.0,63.09602355957031,-12.0,-24.212902069091797,-13.805807113647461,-10.0,0.0,617.1935424804688,111.16129302978516,19.6458797454834,3.5383737087249756,0.7076746821403503,20.35355567932129,60.90222930908203,2.193791627883911,0.03724849224090576,201.77420043945312,318.6129150390625,491.80645751953125,380.8387145996094,152.22579956054688,78.61289978027344,230.09677124023438,1.0,0.0007510322611778975,0.03392259031534195,0.8196773529052734,0.33629029989242554,0.5310214757919312,0.3834945857524872,1.0
env_steps,19504,32,32,26,19502,0.9369888,0.11914471536874771,-0.5494863986968994,-0.4930642247200012,0.3227151036262512,1.8952364921569824,719,3.2398006916046143,0.45156562328338623,0.0,600.0,0.6112208366394043,2.1145315170288086,451.15289306640625,8.094427108764648,272.99169921875,0.0,0.0,0.0,0.0,0.0,0.0,0.0,0.0,0.0,0.0,0.0,0.0,0.0,63.18104934692383,-12.0,-24.153749465942383,-13.787500381469727,-10.0,0.0,618.125,110.8125,19.67552947998047,3.5272715091705322,0.7054543495178223,20.380985260009766,60.994140625,2.18690824508667,0.03702151030302048,201.28125,319.03125,491.875,380.5,152.6875,78.09375,229.7916717529297,1.0,0.0007526093977503479,0.033968307077884674,0.8197916746139526,0.33546876907348633,0.5317187309265137,0.3829861283302307,1.0
env_steps,20000,33,33,27,19998,0.9353850666666667,0.18274472653865814,-0.32900819182395935,-0.2109602987766266,0.4162624776363373,3.2302541732788086,750,4.181219577789307,0.4559969902038574,0.0,600.0,0.6077748537063599,2.158787965774536,455.2194519042969,8.168686866760254,269.6266174316406,0.0,0.0,0.0,0.0,0.0,0.0,0.0,0.0,0.0,0.0,0.0,0.0,0.0,64.0521240234375,-12.0,-24.083637237548828,-13.787273406982422,-10.0,0.0,626.3333129882812,113.90908813476562,19.93680763244629,3.6258389949798584,0.7251678705215454,20.661977767944336,61.804107666015625,2.2480201721191406,0.03728533536195755,200.6969757080078,317.7272644042969,490.6666564941406,380.6363525390625,152.4242401123047,78.1515121459961,229.78787231445312,1.0,0.0007599949603900313,0.034436628222465515,0.8177778124809265,0.3344949781894684,0.5295454263687134,0.3829798400402069,1.0
env_steps,20512,34,34,28,20510,0.9337295999999999,0.17409628629684448,-0.6078406572341919,-0.48468348383903503,0.3772743046283722,1.8784805536270142,782,3.4465081691741943,0.4524264931678772,0.0,600.0,0.6107467412948608,2.2033333778381348,450.02520751953125,8.201568603515625,264.2294616699219,0.0,0.0,0.0,0.0,0.0,0.0,0.0,0.0,0.0,0.0,0.0,0.0,0.0,63.39356994628906,-12.0,-24.13058853149414,-13.816471099853516,-10.0,0.0,619.8235473632812,113.0882339477539,19.729595184326172,3.599710464477539,0.7199421525001526,20.449539184570312,61.1617431640625,2.2318203449249268,0.03738691285252571,201.08824157714844,319.0882263183594,491.6764831542969,380.9705810546875,152.9705810546875,78.44117736816406,230.27452087402344,1.0,0.000754044100176543,0.0340825617313385,0.8194608092308044,0.33514708280563354,0.5318136811256409,0.38379088044166565,1.0
env_steps,21008,35,35,29,21006,0.9321258666666666,0.16230136156082153,-0.5015583634376526,-0.5302336812019348,0.3614765405654907,1.6999212503433228,813,2.673753023147583,0.4469200074672699,0.0,600.0,0.6116946935653687,2.2552859783172607,444.73687744140625,8.239619255065918,258.6625061035156,0.0,0.0,0.0,0.0,0.0,0.0,0.0,0.0,0.0,0.0,0.0,0.0,0.0,62.64689636230469,-12.0,-24.147428512573242,-13.825715065002441,-10.0,0.0,612.4000244140625,112.37142944335938,19.493295669555664,3.5768935680389404,0.7153787612915039,20.208677291870117,60.42921829223633,2.2176740169525146,0.03765043243765831,201.22857666015625,322.25714111328125,493.028564453125,381.3714294433594,153.22857666015625,78.34285736083984,230.42857360839844,1.0,0.0007448666729032993,0.033681124448776245,0.8217142820358276,0.3353809714317322,0.5370951890945435,0.38404765725135803,1.0
env_steps,21504,35,35,29,21502,0.9305221333333333,0.14335288107395172,-0.5342873930931091,-0.61845862865448,0.34814155101776123,2.119920492172241,844,2.673753023147583,0.4469200074672699,0.0,600.0,0.6116946935653687,2.2552859783172607,444.73687744140625,8.239619255065918,258.6625061035156,0.0,0.0,0.0,0.0,0.0,0.0,0.0,0.0,0.0,0.0,0.0,0.0,0.0,62.64689636230469,-12.0,-24.147428512573242,-13.825715065002441,-10.0,0.0,612.4000244140625,112.37142944335938,19.493295669555664,3.5768935680389404,0.7153787612915039,20.208677291870117,60.42921829223633,2.2176740169525146,0.03765043243765831,201.22857666015625,322.25714111328125,493.028564453125,381.3714294433594,153.22857666015625,78.34285736083984,230.42857360839844,1.0,0.0007448666729032993,0.033681124448776245,0.8217142820358276,0.3353809714317322,0.5370951890945435,0.38404765725135803,1.0
env_steps,22000,36,36,30,21998,0.9289184,0.1301228553056717,-0.43349123001098633,-0.4399879574775696,0.37138330936431885,3.116541862487793,875,4.026703357696533,0.4534972608089447,0.0,600.0,0.608106791973114,2.2745370864868164,446.8339538574219,8.244351387023926,256.5564880371094,0.0,0.0,0.0,0.0,0.0,0.0,0.0,0.0,0.0,0.0,0.0,0.0,0.0,63.92948532104492,-12.0,-24.08333396911621,-13.819445610046387,-10.0,0.0,624.888916015625,114.91666412353516,19.890830993652344,3.6579110622406006,0.7315822839736938,20.622413635253906,61.66157531738281,2.2679049968719482,0.03763227164745331,200.69444274902344,320.6944580078125,491.47222900390625,381.1111145019531,152.97222900390625,78.44444274902344,230.32408142089844,1.0,0.000755828688852489,0.03437068685889244,0.8191203474998474,0.33449074625968933,0.534490704536438,0.38387349247932434,1.0
env_steps,22512,37,37,31,22510,0.9272629333333333,0.14527185261249542,-0.42027828097343445,-0.42799654603004456,0.38061708211898804,2.8334763050079346,907,4.4295806884765625,0.4564892053604126,0.0,600.0,0.6066015362739563,2.2579731941223145,445.94378662109375,8.200180053710938,258.0174865722656,0.0,0.0,0.0,0.0,0.0,0.0,0.0,0.0,0.0,0.0,0.0,0.0,0.0,64.35066223144531,-12.0,-24.103784561157227,-13.81729793548584,-10.0,0.0,628.810791015625,116.64865112304688,20.015668869018555,3.7130420207977295,0.7426084280014038,20.75827980041504,62.0485725402832,2.3020858764648438,0.037815939635038376,200.8648681640625,318.6756896972656,490.70269775390625,381.10809326171875,152.729736328125,78.51351165771484,230.28829956054688,1.0,0.0007608153391629457,0.03459712862968445,0.8178378343582153,0.33477479219436646,0.531126081943512,0.38381385803222656,1.0
env_steps,23008,38,38,32,23006,0.9256592,0.19318562746047974,-0.461505651473999,-0.47027260065078735,0.4255748689174652,2.49609375,938,4.90077018737793,0.4587737023830414,0.0,600.0,0.6051316857337952,2.2895615100860596,445.5931701660156,8.181754112243652,255.5311279296875,0.0,0.0,0.0,0.0,0.0,0.0,0.0,0.0,0.0,0.0,0.0,0.0,0.0,64.82498168945312,-12.0,-24.10736846923828,-13.816843032836914,-10.0,0.0,633.23681640625,118.5526351928711,20.15655517578125,3.7736475467681885,0.7547295093536377,20.911285400390625,62.485313415527344,2.3396613597869873,0.038012370467185974,200.8947296142578,317.0,490.2105407714844,381.1842041015625,152.6052703857422,78.52631378173828,230.2807159423828,1.0,0.0007646228186786175,0.03485213965177536,0.8170175552368164,0.3348245918750763,0.5283332467079163,0.3838012218475342,1.0
env_steps,23504,39,39,33,23502,0.9240554666666667,0.17981362342834473,-0.44356343150138855,-0.5021916627883911,0.4015587568283081,2.1409945487976074,969,4.623672962188721,0.4584205448627472,0.0,600.0,0.6036519408226013,2.2807695865631104,444.93115234375,8.181111335754395,255.15774536132812,0.0,0.0,0.0,0.0,0.0,0.0,0.0,0.0,0.0,0.0,0.0,0.0,0.0,64.62675476074219,-12.0,-24.14769172668457,-13.855385780334473,-10.0,0.0,631.4359130859375,117.5128173828125,20.09922981262207,3.740549325942993,0.7481098771095276,20.847339630126953,62.3076057434082,2.3191404342651367,0.037729017436504364,201.23077392578125,316.23077392578125,490.28204345703125,381.71795654296875,153.15383911132812,78.94871520996094,230.92308044433594,1.0,0.0007640342228114605,0.03474556654691696,0.8171367645263672,0.33538463711738586,0.5270512104034424,0.38487181067466736,1.0
env_steps,24000,40,40,34,24000,0.9224517333333333,0.18410558998584747,-0.4655833840370178,-0.46832501888275146,0.40423035621643066,1.8808797597885132,1000,4.673415184020996,0.458637535572052,0.0,600.0,0.6019134521484375,2.2521250247955322,442.3074645996094,8.172833442687988,256.70458984375,0.0,0.0,0.0,0.0,0.0,0.0,0.0,0.0,0.0,0.0,0.0,0.0,0.0,64.62591552734375,-12.0,-24.110998153686523,-13.841499328613281,-10.0,0.0,631.4000244140625,117.6500015258789,20.098087310791016,3.744915723800659,0.7489832043647766,20.847070693969727,62.3040657043457,2.321847915649414,0.0377252995967865,200.9250030517578,315.67498779296875,490.32501220703125,381.45001220703125,153.1750030517578,78.7249984741211,230.691650390625,1.0,0.0007643958670087159,0.03474511578679085,0.8172082901000977,0.3348750174045563,0.5261250138282776,0.3844861090183258,1.0
env_steps,24512,40,40,34,24510,0.9207962666666667,0.4471145272254944,-0.08602479100227356,-0.014342695474624634,0.7242091298103333,3.6604716777801514,1032,4.673415184020996,0.458637535572052,0.0,600.0,0.6019134521484375,2.2521250247955322,442.3074645996094,8.172833442687988,256.70458984375,0.0,0.0,0.0,0.0,0.0,0.0,0.0,0.0,0.0,0.0,0.0,0.0,0.0,64.62591552734375,-12.0,-24.110998153686523,-13.841499328613281,-10.0,0.0,631.4000244140625,117.6500015258789,20.098087310791016,3.744915723800659,0.7489832043647766,20.847070693969727,62.3040657043457,2.321847915649414,0.0377252995967865,200.9250030517578,315.67498779296875,490.32501220703125,381.45001220703125,153.1750030517578,78.7249984741211,230.691650390625,1.0,0.0007643958670087159,0.03474511578679085,0.8172082901000977,0.3348750174045563,0.5261250138282776,0.3844861090183258,1.0
env_steps,25008,41,41,35,25006,0.9191925333333333,0.34736740589141846,-0.37125739455223083,-0.3853568434715271,0.6268883943557739,2.6297693252563477,1063,4.8625569343566895,0.46055611968040466,0.0,600.0,0.601233720779419,2.2300405502319336,447.6886291503906,8.11105728149414,263.04974365234375,0.0,0.0,0.0,0.0,0.0,0.0,0.0,0.0,0.0,0.0,0.0,0.0,0.0,64.81621551513672,-12.0,-24.108291625976562,-13.845365524291992,-10.0,0.0,633.268310546875,117.95121765136719,20.157554626464844,3.7545039653778076,0.7509008049964905,20.908456802368164,62.48841857910156,2.3277924060821533,0.03766912966966629,200.90243530273438,315.0,489.756103515625,381.3902587890625,152.9268341064453,78.9756088256836,230.75607299804688,1.0,0.0007675935048609972,0.034847427159547806,0.8162600994110107,0.334837406873703,0.5249999761581421,0.38459348678588867,1.0
env_steps,25504,42,42,36,25502,0.9175888,0.25904399156570435,-0.3312113881111145,-0.35548102855682373,0.5140059590339661,2.8819704055786133,1094,4.578273773193359,0.4589976370334625,0.0,600.0,0.599437415599823,2.267817258834839,445.8934631347656,8.120198249816895,259.599365234375,0.0,0.0,0.0,0.0,0.0,0.0,0.0,0.0,0.0,0.0,0.0,0.0,0.0,64.47493743896484,-12.0,-24.054285049438477,-13.842379570007324,-10.0,0.0,629.8095092773438,117.95237731933594,20.04745864868164,3.7545409202575684,0.7509081959724426,20.798368453979492,62.147117614746094,2.327815532684326,0.03787057474255562,200.45237731933594,317.3333435058594,490.4761962890625,381.4285583496094,152.8333282470703,78.92857360839844,230.70632934570312,1.0,0.0007649961044080555,0.03466394543647766,0.8174601793289185,0.3340873122215271,0.5288888812065125,0.3845105767250061,1.0
env_steps,26000,43,43,37,25998,0.9159850666666667,0.15449155867099762,-0.23801231384277344,-0.2530496120452881,0.4099816679954529,2.709643602371216,1125,3.9587316513061523,0.4548860490322113,0.0,600.0,0.6025229096412659,2.274030923843384,443.6707458496094,8.088683128356934,256.9890441894531,0.0,0.0,0.0,0.0,0.0,0.0,0.0,0.0,0.0,0.0,0.0,0.0,0.0,63.845706939697266,-12.0,-24.047439575195312,-13.839532852172852,-10.0,0.0,623.5581665039062,117.3255844116211,19.84847068786621,3.7345893383026123,0.7469179034233093,20.59539031982422,61.53025817871094,2.3154454231262207,0.0381060466170311,200.39535522460938,319.2790832519531,491.4651184082031,381.11627197265625,152.9534912109375,78.9534912109375,230.65890502929688,1.0,0.0007581434329040349,0.034325648099184036,0.8191083669662476,0.33399224281311035,0.5321317911148071,0.38443154096603394,1.0
env_steps,26512,44,44,38,26510,0.9143296,0.269540011882782,-0.3812725841999054,-0.32000505924224854,0.5197615623474121,2.836940288543701,1157,4.649660110473633,0.45811817049980164,0.0,600.0,0.599757969379425,2.277386426925659,447.0616149902344,8.096175193786621,257.3940124511719,0.0,0.0,0.0,0.0,0.0,0.0,0.0,0.0,0.0,0.0,0.0,0.0,0.0,64.4619369506836,-12.0,-23.9918155670166,-13.820452690124512,-10.0,0.0,629.6363525390625,118.15908813476562,20.041946411132812,3.7611207962036133,0.7522242069244385,20.794172286987305,62.13003158569336,2.331894874572754,0.037999384105205536,199.93182373046875,318.6590881347656,491.0454406738281,380.9772644042969,152.72727966308594,78.65908813476562,230.34091186523438,1.0,0.0007635303190909326,0.03465695306658745,0.8184089660644531,0.3332197070121765,0.5310984253883362,0.3839015066623688,1.0
env_steps,27008,45,45,39,27006,0.9127258666666667,0.24772819876670837,-0.329527884721756,-0.3462008237838745,0.5150334239006042,3.6555581092834473,1188,4.605003356933594,0.4577266573905945,0.0,600.0,0.6014050841331482,2.2585926055908203,447.5897521972656,8.109148025512695,259.7391357421875,0.0,0.0,0.0,0.0,0.0,0.0,0.0,0.0,0.0,0.0,0.0,0.0,0.0,64.42056274414062,-12.0,-23.99199676513672,-13.823554039001465,-10.0,0.0,629.0888671875,118.80000305175781,20.024518966674805,3.7815215587615967,0.7563044428825378,20.780826568603516,62.07600784301758,2.34454345703125,0.038184795528650284,199.93333435058594,318.9333190917969,491.20001220703125,381.1555480957031,152.86666870117188,78.57777404785156,230.39259338378906,1.0,0.0007628777530044317,0.03463470935821533,0.8186665773391724,0.3332222104072571,0.5315555334091187,0.3839876353740692,1.0
env_steps,27504,45,45,39,27502,0.9111221333333334,0.2087915539741516,-0.4237143397331238,-0.36985355615615845,0.47331729531288147,2.721169948577881,1219,4.605003356933594,0.4577266573905945,0.0,600.0,0.6014050841331482,2.2585926055908203,447.5897521972656,8.109148025512695,259.7391357421875,0.0,0.0,0.0,0.0,0.0,0.0,0.0,0.0,0.0,0.0,0.0,0.0,0.0,64.42056274414062,-12.0,-23.99199676513672,-13.823554039001465,-10.0,0.0,629.0888671875,118.80000305175781,20.024518966674805,3.7815215587615967,0.7563044428825378,20.780826568603516,62.07600784301758,2.34454345703125,0.038184795528650284,199.93333435058594,318.9333190917969,491.20001220703125,381.1555480957031,152.86666870117188,78.57777404785156,230.39259338378906,1.0,0.0007628777530044317,0.03463470935821533,0.8186665773391724,0.3332222104072571,0.5315555334091187,0.3839876353740692,1.0
env_steps,28000,46,46,40,27998,0.9095184000000001,0.2139923870563507,-0.39230963587760925,-0.3120468854904175,0.4919830858707428,2.637643814086914,1250,5.12246036529541,0.45964565873146057,0.0,600.0,0.5992910265922546,2.259999990463257,454.6436462402344,8.091087341308594,262.1148986816406,0.0,0.0,0.0,0.0,0.0,0.0,0.0,0.0,0.0,0.0,0.0,0.0,0.0,64.85420227050781,-12.0,-23.92695426940918,-13.804781913757324,-10.0,0.0,633.3478393554688,119.47826385498047,20.160085678100586,3.8031113147735596,0.7606223821640015,20.920711517333984,62.49626541137695,2.357928991317749,0.03811746835708618,199.3913116455078,318.34783935546875,490.8043518066406,380.7826232910156,152.63043212890625,78.41304016113281,230.0797119140625,1.0,0.000766076089348644,0.034867849200963974,0.8180071711540222,0.33231884241104126,0.530579686164856,0.3834661841392517,1.0
env_steps,28512,47,47,41,28510,0.9078629333333333,0.22021859884262085,-0.4399098753929138,-0.47186875343322754,0.4530346095561981,2.374589443206787,1282,5.142663955688477,0.4592914879322052,0.0,600.0,0.5988954305648804,2.2489006519317627,455.43902587890625,8.09695053100586,263.5896911621094,0.0,0.0,0.0,0.0,0.0,0.0,0.0,0.0,0.0,0.0,0.0,0.0,0.0,64.85075378417969,-12.0,-23.902976989746094,-13.805105209350586,-10.0,0.0,633.4468383789062,118.80850982666016,20.163236618041992,3.781792402267456,0.7563586235046387,20.919597625732422,62.50603103637695,2.3447115421295166,0.0378776416182518,199.1914825439453,318.04254150390625,490.7234191894531,380.6383056640625,152.46807861328125,78.57447052001953,230.08511352539062,1.0,0.0007654858054593205,0.03486599400639534,0.8178722858428955,0.33198583126068115,0.5300709009170532,0.3834751546382904,1.0
env_steps,29008,48,48,42,29006,0.9062592,0.26834842562675476,-0.3951073884963989,-0.3067127764225006,0.533139705657959,2.85265851020813,1313,5.147125244140625,0.45854997634887695,0.0,600.0,0.5997989177703857,2.2321529388427734,453.3716735839844,8.024964332580566,263.7642822265625,0.0,0.0,0.0,0.0,0.0,0.0,0.0,0.0,0.0,0.0,0.0,0.0,0.0,64.84004211425781,-12.0,-23.889999389648438,-13.80291748046875,-10.0,0.0,633.5416870117188,117.79166412353516,20.166257858276367,3.749425172805786,0.749885082244873,20.9161434173584,62.51539993286133,2.324643611907959,0.03753586485981941,199.0833282470703,318.9375,491.0625,380.5416564941406,152.2708282470703,78.66666412353516,230.0486297607422,1.0,0.0007642499986104667,0.034860238432884216,0.8184375166893005,0.331805557012558,0.5315625071525574,0.3834143579006195,1.0
env_steps,29504,49,49,43,29502,0.9046554666666666,0.2872810363769531,-0.19236493110656738,-0.22137120366096497,0.5624949932098389,3.358746290206909,1344,5.141824722290039,0.45897752046585083,0.0,600.0,0.5987299680709839,2.210102081298828,453.54620361328125,7.995611667633057,267.0707092285156,0.0,0.0,0.0,0.0,0.0,0.0,0.0,0.0,0.0,0.0,0.0,0.0,0.0,64.81365966796875,-12.0,-23.875102996826172,-13.796735763549805,-10.0,0.0,633.2857055664062,117.73469543457031,20.158109664916992,3.7476117610931396,0.7495223879814148,20.90763282775879,62.490142822265625,2.323519229888916,0.03749868646264076,198.9591827392578,319.16326904296875,491.1224365234375,380.2449035644531,152.12245178222656,78.73469543457031,229.94558715820312,1.0,0.0007649625767953694,0.03484605625271797,0.8185374140739441,0.3315986394882202,0.5319387316703796,0.3832426369190216,1.0
env_steps,30000,50,50,44,30000,0.9030517333333333,0.325281023979187,-0.2289847731590271,-0.19348913431167603,0.5998570322990417,2.796982765197754,1375,5.4797444343566895,0.4617019593715668,0.0,600.0,0.5974043011665344,2.2370002269744873,455.0904541015625,8.029932975769043,264.6483154296875,0.0,0.0,0.0,0.0,0.0,0.0,0.0,0.0,0.0,0.0,0.0,0.0,0.0,65.13053894042969,-12.0,-23.8512020111084,-13.799600601196289,-10.0,0.0,636.4000244140625,118.22000122070312,20.257240295410156,3.763059616088867,0.7526119351387024,21.00985336303711,62.79745101928711,2.333096742630005,0.037443600594997406,198.75999450683594,318.55999755859375,490.8800048828125,380.3399963378906,152.16000366210938,78.73999786376953,229.99334716796875,1.0,0.000769503356423229,0.03501642122864723,0.8181332945823669,0.3312666714191437,0.5309333205223083,0.38332220911979675,1.0
env_steps,30512,50,50,44,30510,0.9013962666666666,0.2868069112300873,-0.43574780225753784,-0.34502628445625305,0.5451949834823608,2.545548439025879,1407,5.4797444343566895,0.4617019593715668,0.0,600.0,0.5974043011665344,2.2370002269744873,455.0904541015625,8.029932975769043,264.6483154296875,0.0,0.0,0.0,0.0,0.0,0.0,0.0,0.0,0.0,0.0,0.0,0.0,0.0,65.13053894042969,-12.0,-23.8512020111084,-13.799600601196289,-10.0,0.0,636.4000244140625,118.22000122070312,20.257240295410156,3.763059616088867,0.7526119351387024,21.00985336303711,62.79745101928711,2.333096742630005,0.037443600594997406,198.75999450683594,318.55999755859375,490.8800048828125,380.3399963378906,152.16000366210938,78.73999786376953,229.99334716796875,1.0,0.000769503356423229,0.03501642122864723,0.8181332945823669,0.3312666714191437,0.5309333205223083,0.38332220911979675,1.0
env_steps,31008,51,51,45,31006,0.8997925333333333,0.3446485996246338,-0.24150899052619934,-0.21537896990776062,0.6384471654891968,3.0219125747680664,1438,5.972163200378418,0.4646470248699188,0.0,600.0,0.5969462394714355,2.2452943325042725,454.8170471191406,8.01548957824707,262.9892272949219,0.0,0.0,0.0,0.0,0.0,0.0,0.0,0.0,0.0,0.0,0.0,0.0,0.0,65.61725616455078,-12.0,-23.844707489013672,-13.800393104553223,-10.0,0.0,641.2548828125,118.60784149169922,20.41177749633789,3.775404930114746,0.7550809979438782,21.166858673095703,63.27651596069336,2.3407509326934814,0.03730306774377823,198.7058868408203,316.4705810546875,490.13726806640625,380.1960754394531,152.1372528076172,78.8431396484375,230.0065460205078,1.0,0.0007744117174297571,0.03527809679508209,0.8168954253196716,0.3311764597892761,0.5274509191513062,0.38334423303604126,1.0
env_steps,31504,52,52,46,31502,0.8981888,0.2988746166229248,-0.1711534857749939,-0.26522037386894226,0.5804263353347778,3.6840996742248535,1469,5.959150314331055,0.46494612097740173,0.0,600.0,0.5967937707901001,2.246314287185669,457.6798400878906,8.02432632446289,264.16510009765625,0.0,0.0,0.0,0.0,0.0,0.0,0.0,0.0,0.0,0.0,0.0,0.0,0.0,65.65184020996094,-12.0,-23.886924743652344,-13.805770874023438,-10.0,0.0,641.6346435546875,118.46154022216797,20.42386245727539,3.7707479000091553,0.7541496753692627,21.17801284790039,63.31398391723633,2.3378634452819824,0.03721058741211891,199.0576934814453,316.3269348144531,490.0961608886719,380.4615478515625,152.32691955566406,78.75,230.09617614746094,1.0,0.000774910266045481,0.035296689718961716,0.8168268799781799,0.33176282048225403,0.5272114872932434,0.3834936022758484,1.0
env_steps,32000,53,53,47,31998,0.8965850666666667,0.2630683481693268,-0.2772849202156067,-0.12456954270601273,0.5271890759468079,3.501295328140259,1500,6.175650596618652,0.4653943181037903,0.0,600.0,0.59529709815979,2.27034592628479,455.2301025390625,8.066540718078613,261.22271728515625,0.0,0.0,0.0,0.0,0.0,0.0,0.0,0.0,0.0,0.0,0.0,0.0,0.0,65.74394989013672,-12.0,-23.782644271850586,-13.785661697387695,-10.0,0.0,642.4905395507812,118.84906005859375,20.451108932495117,3.783082962036133,0.7566167116165161,21.207727432250977,63.39844512939453,2.3455111980438232,0.03724231198430061,198.1886749267578,316.1697998046875,489.88677978515625,380.15093994140625,152.6792449951172,78.2264175415039,229.76101684570312,1.0,0.0007756572449579835,0.03534621000289917,0.8164779543876648,0.3303144574165344,0.5269495844841003,0.3829350471496582,1.0
env_steps,32512,54,54,48,32510,0.8949296,0.30009615421295166,-0.3435170650482178,-0.18022823333740234,0.5568293333053589,3.441065549850464,1532,6.286798000335693,0.46533888578414917,0.0,600.0,0.594934344291687,2.2645063400268555,455.94927978515625,8.072345733642578,263.1007385253906,0.0,0.0,0.0,0.0,0.0,0.0,0.0,0.0,0.0,0.0,0.0,0.0,0.0,65.82716369628906,-12.0,-23.75111198425293,-13.789259910583496,-10.0,0.0,643.2777709960938,119.12963104248047,20.476167678833008,3.7920138835906982,0.7584028840065002,21.23457145690918,63.47612380981445,2.351048469543457,0.03724988177418709,197.92591857910156,315.5555419921875,489.6111145019531,380.5,152.92591857910156,78.01851654052734,229.8209991455078,1.0,0.0007755648111924529,0.0353909507393837,0.8160185217857361,0.32987654209136963,0.525925874710083,0.3830350339412689,1.0
env_steps,33008,55,55,49,33006,0.8933258666666667,0.3338537812232971,-0.2231123000383377,-0.0621001198887825,0.5921487808227539,3.5711028575897217,1563,6.23198127746582,0.4661799967288971,0.0,600.0,0.5952503085136414,2.260242462158203,456.2579650878906,8.04454517364502,262.8063659667969,0.0,0.0,0.0,0.0,0.0,0.0,0.0,0.0,0.0,0.0,0.0,0.0,0.0,65.77961730957031,-12.0,-23.760000228881836,-13.787637710571289,-10.0,0.0,642.8909301757812,118.65454864501953,20.463851928710938,3.7768914699554443,0.7553783655166626,21.219234466552734,63.437950134277344,2.341672658920288,0.03710052743554115,198.0,316.47271728515625,489.85455322265625,380.6727294921875,153.03636169433594,77.83636474609375,229.7939453125,1.0,0.0007769666844978929,0.03536538779735565,0.8164241909980774,0.32999998331069946,0.5274544954299927,0.38298994302749634,1.0
env_steps,33504,55,55,49,33502,0.8917221333333334,0.3822096586227417,-0.4001636803150177,-0.6028379201889038,0.6351417303085327,2.6213572025299072,1594,6.23198127746582,0.4661799967288971,0.0,600.0,0.5952503085136414,2.260242462158203,456.2579650878906,8.04454517364502,262.8063659667969,0.0,0.0,0.0,0.0,0.0,0.0,0.0,0.0,0.0,0.0,0.0,0.0,0.0,65.77961730957031,-12.0,-23.760000228881836,-13.787637710571289,-10.0,0.0,642.8909301757812,118.65454864501953,20.463851928710938,3.7768914699554443,0.7553783655166626,21.219234466552734,63.437950134277344,2.341672658920288,0.03710052743554115,198.0,316.47271728515625,489.85455322265625,380.6727294921875,153.03636169433594,77.83636474609375,229.7939453125,1.0,0.0007769666844978929,0.03536538779735565,0.8164241909980774,0.32999998331069946,0.5274544954299927,0.38298994302749634,1.0
env_steps,34000,56,56,50,33998,0.8901184,0.2987340986728668,-0.2703525424003601,-0.027602441608905792,0.5768604278564453,3.6684446334838867,1625,6.3944878578186035,0.46690717339515686,0.0,600.0,0.5952578783035278,2.307410717010498,455.77056884765625,8.156339645385742,259.7914733886719,0.0,0.0,0.0,0.0,0.0,0.0,0.0,0.0,0.0,0.0,0.0,0.0,0.0,65.97270202636719,-12.0,-23.785715103149414,-13.792500495910645,-10.0,0.0,644.6964111328125,119.41071319580078,20.521326065063477,3.8009610176086426,0.7601922750473022,21.28151512145996,63.61610794067383,2.356595993041992,0.03717880696058273,198.2142791748047,315.7678527832031,489.7321472167969,380.8214416503906,152.98214721679688,77.91071319580078,229.875,1.0,0.0007781785679981112,0.03546919673681259,0.816220223903656,0.3303571343421936,0.5262797474861145,0.3831250071525574,1.0
env_steps,34512,57,57,51,34510,0.8884629333333334,0.18975697457790375,-0.34582391381263733,-0.3194926977157593,0.4700402617454529,3.564222574234009,1657,6.616847991943359,0.4679439067840576,0.0,600.0,0.5945062637329102,2.3079240322113037,455.90423583984375,8.127397537231445,259.2496337890625,0.0,0.0,0.0,0.0,0.0,0.0,0.0,0.0,0.0,0.0,0.0,0.0,0.0,66.13719940185547,-12.0,-23.734737396240234,-13.785614967346191,-10.0,0.0,646.3157958984375,119.64912414550781,20.572872161865234,3.8085498809814453,0.761709988117218,21.334579467773438,63.775901794433594,2.3613011837005615,0.03713768720626831,197.7894744873047,314.9473571777344,489.5087585449219,380.7368469238281,152.71929931640625,77.91227722167969,229.76022338867188,1.0,0.0007799064042046666,0.03555763512849808,0.8158478736877441,0.3296491503715515,0.5249122381210327,0.38293373584747314,1.0
env_steps,35008,58,58,52,35006,0.8868592,0.4442022740840912,-0.3959495425224304,-0.49377214908599854,0.7215167880058289,3.0394251346588135,1688,7.326547145843506,0.47192761301994324,0.0,600.0,0.5916863083839417,2.3013792037963867,458.608154296875,8.122212409973145,260.39349365234375,0.0,0.0,0.0,0.0,0.0,0.0,0.0,0.0,0.0,0.0,0.0,0.0,0.0,66.77102661132812,-12.0,-23.66275978088379,-13.78172492980957,-10.0,0.0,652.5172119140625,120.75862121582031,20.7702693939209,3.8438663482666016,0.7687732577323914,21.53904151916504,64.38783264160156,2.38319730758667,0.037105824798345566,197.1896514892578,312.8448181152344,488.4827575683594,380.67242431640625,152.27586364746094,78.06896209716797,229.69540405273438,1.0,0.0007865459192544222,0.03589840233325958,0.814137876033783,0.32864946126937866,0.5214080214500427,0.38282567262649536,1.0
env_steps,35504,59,59,53,35502,0.8852554666666667,0.21595707535743713,-0.2324308454990387,-0.11987370997667313,0.470702588558197,2.5808753967285156,1719,7.328373432159424,0.47216445207595825,0.0,600.0,0.5911052227020264,2.304999828338623,459.11419677734375,8.119180679321289,259.7231140136719,0.0,0.0,0.0,0.0,0.0,0.0,0.0,0.0,0.0,0.0,0.0,0.0,0.0,66.75820922851562,-12.0,-23.652204513549805,-13.777626991271973,-10.0,0.0,652.4067993164062,120.66101837158203,20.766754150390625,3.840759515762329,0.7681518793106079,21.53490447998047,64.3769302368164,2.3812711238861084,0.03705962002277374,197.10169982910156,312.440673828125,488.3728942871094,380.50848388671875,152.13558959960938,78.11864471435547,229.6271209716797,1.0,0.0007869406254030764,0.03589150309562683,0.813954770565033,0.3285028636455536,0.520734429359436,0.38271188735961914,1.0
env_steps,36000,60,60,54,36000,0.8836517333333334,0.40622034668922424,-0.24343501031398773,-0.22830283641815186,0.6787071228027344,3.1264772415161133,1750,7.631784915924072,0.4740283787250519,0.0,600.0,0.5894620418548584,2.3207499980926514,457.9493103027344,8.145249366760254,258.10687255859375,0.0,0.0,0.0,0.0,0.0,0.0,0.0,0.0,0.0,0.0,0.0,0.0,0.0,67.04545593261719,-12.0,-23.624000549316406,-13.789667129516602,-10.0,0.0,655.1333618164062,121.58333587646484,20.853544235229492,3.870117664337158,0.7740234732627869,21.6275634765625,64.64598083496094,2.3994734287261963,0.037131182849407196,196.86666870117188,310.6166687011719,487.8500061035156,380.76666259765625,152.01666259765625,78.3499984741211,229.82778930664062,1.0,0.0007900471682660282,0.03604594245553017,0.813083291053772,0.3281111419200897,0.5176944136619568,0.38304632902145386,1.0
env_steps,36512,60,60,54,36510,0.8819962666666666,0.328499972820282,-0.13321292400360107,-0.0681648701429367,0.6264059543609619,3.862342357635498,1782,7.631784915924072,0.4740283787250519,0.0,600.0,0.5894620418548584,2.3207499980926514,457.9493103027344,8.145249366760254,258.10687255859375,0.0,0.0,0.0,0.0,0.0,0.0,0.0,0.0,0.0,0.0,0.0,0.0,0.0,67.04545593261719,-12.0,-23.624000549316406,-13.789667129516602,-10.0,0.0,655.1333618164062,121.58333587646484,20.853544235229492,3.870117664337158,0.7740234732627869,21.6275634765625,64.64598083496094,2.3994734287261963,0.037131182849407196,196.86666870117188,310.6166687011719,487.8500061035156,380.76666259765625,152.01666259765625,78.3499984741211,229.82778930664062,1.0,0.0007900471682660282,0.03604594245553017,0.813083291053772,0.3281111419200897,0.5176944136619568,0.38304632902145386,1.0
env_steps,37008,61,61,55,37006,0.8803925333333333,0.4188695549964905,-0.33097904920578003,-0.28703683614730835,0.706670880317688,3.060835361480713,1813,7.777444362640381,0.47440004348754883,0.0,600.0,0.5894547700881958,2.323551893234253,456.3431396484375,8.101283073425293,256.5441589355469,0.0,0.0,0.0,0.0,0.0,0.0,0.0,0.0,0.0,0.0,0.0,0.0,0.0,67.171875,-12.0,-23.60655975341797,-13.78786849975586,-10.0,0.0,656.4590454101562,121.36065673828125,20.895742416381836,3.863029718399048,0.7726058959960938,21.66834259033203,64.77679443359375,2.3950788974761963,0.03698986768722534,196.7213134765625,310.9016418457031,487.9016418457031,380.7868957519531,152.11476135253906,78.24590301513672,229.79782104492188,1.0,0.0007906666141934693,0.036113906651735306,0.8131693005561829,0.32786887884140015,0.5181693434715271,0.3829963803291321,1.0
env_steps,37504,62,62,56,37502,0.8787888,0.1625705361366272,-0.31226229667663574,-0.256975382566452,0.4204411506652832,3.08632755279541,1844,7.979443073272705,0.4754548966884613,0.0,600.0,0.5884011387825012,2.3260750770568848,458.2886962890625,8.122499465942383,256.4064025878906,0.0,0.0,0.0,0.0,0.0,0.0,0.0,0.0,0.0,0.0,0.0,0.0,0.0,67.31299591064453,-12.0,-23.55677604675293,-13.776773452758789,-10.0,0.0,657.8386840820312,121.61289978027344,20.939659118652344,3.871058702468872,0.7742117643356323,21.713865280151367,64.91293334960938,2.400056838989258,0.036967646330595016,196.30645751953125,309.8548278808594,487.56451416015625,380.6129150390625,151.8709716796875,78.17742156982422,229.61289978027344,1.0,0.0007924246601760387,0.03618977963924408,0.8126074075698853,0.3271774351596832,0.5164247155189514,0.3826882243156433,1.0
env_steps,38000,63,63,57,37998,0.8771850666666667,0.2198534607887268,-0.3780014216899872,-0.4613824486732483,0.4788636565208435,2.2133395671844482,1875,8.65286636352539,0.47846829891204834,0.0,600.0,0.5867733955383301,2.320899248123169,460.4429016113281,8.10666561126709,257.18994140625,0.0,0.0,0.0,0.0,0.0,0.0,0.0,0.0,0.0,0.0,0.0,0.0,0.0,67.89478302001953,-12.0,-23.48190689086914,-13.75999927520752,-10.0,0.0,663.6984252929688,121.79364776611328,21.12618064880371,3.876812219619751,0.7753624320030212,21.901535034179688,65.49114227294922,2.4036240577697754,0.03678160160779953,195.6825408935547,310.0,487.1745910644531,380.3333435058594,151.6984100341797,77.98412322998047,229.3333282470703,1.0,0.0007974469917826355,0.03650256618857384,0.811957597732544,0.32613760232925415,0.5166666507720947,0.3822222650051117,1.0
env_steps,38512,64,64,58,38510,0.8755296,0.31232744455337524,-0.24953213334083557,-0.237188458442688,0.5849739909172058,3.5434839725494385,1907,8.656625747680664,0.4781875014305115,0.0,600.0,0.585768461227417,2.304166793823242,457.29095458984375,8.119348526000977,256.7600402832031,0.0,0.0,0.0,0.0,0.0,0.0,0.0,0.0,0.0,0.0,0.0,0.0,0.0,67.81974792480469,-12.0,-23.407501220703125,-13.755624771118164,-10.0,0.0,662.90625,121.953125,21.10095977783203,3.8818883895874023,0.7763777375221252,21.87734031677246,65.41297912597656,2.406770944595337,0.036852024495601654,195.0625,309.6875,487.078125,380.234375,151.484375,78.03125,229.2604217529297,1.0,0.0007969791768118739,0.03646223247051239,0.8117969036102295,0.32510414719581604,0.5161458253860474,0.3821007013320923,1.0
env_steps,39008,65,65,59,39006,0.8739258666666667,0.4126586616039276,-0.3349175751209259,-0.676213264465332,0.6798046827316284,3.2529141902923584,1938,8.476606369018555,0.47705078125,0.0,600.0,0.5862280130386353,2.293795108795166,456.0332946777344,8.056614875793457,256.6269226074219,0.0,0.0,0.0,0.0,0.0,0.0,0.0,0.0,0.0,0.0,0.0,0.0,0.0,67.53844451904297,-12.0,-23.324308395385742,-13.73753833770752,-10.0,0.0,660.2307739257812,121.07691955566406,21.015796661376953,3.8539979457855225,0.7707996368408203,21.786598205566406,65.14897155761719,2.389478921890259,0.036683473736047745,194.36923217773438,310.8307800292969,487.5846252441406,379.9384765625,151.39999389648438,77.76923370361328,228.958984375,1.0,0.0007950846338644624,0.03631099686026573,0.8126410245895386,0.3239487111568451,0.518051266670227,0.3815983235836029,1.0
env_steps,39504,65,65,59,39502,0.8723221333333333,0.2746707797050476,-0.3344748020172119,-0.30883854627609253,0.5515365600585938,4.230749607086182,1969,8.476606369018555,0.47705078125,0.0,600.0,0.5862280130386353,2.293795108795166,456.0332946777344,8.056614875793457,256.6269226074219,0.0,0.0,0.0,0.0,0.0,0.0,0.0,0.0,0.0,0.0,0.0,0.0,0.0,67.53844451904297,-12.0,-23.324308395385742,-13.73753833770752,-10.0,0.0,660.2307739257812,121.07691955566406,21.015796661376953,3.8539979457855225,0.7707996368408203,21.786598205566406,65.14897155761719,2.389478921890259,0.036683473736047745,194.36923217773438,310.8307800292969,487.5846252441406,379.9384765625,151.39999389648438,77.76923370361328,228.958984375,1.0,0.0007950846338644624,0.03631099686026573,0.8126410245895386,0.3239487111568451,0.518051266670227,0.3815983235836029,1.0
env_steps,40000,66,66,60,39998,0.8707184,0.3212631046772003,-0.36992210149765015,-0.43287014961242676,0.5871657133102417,3.230440378189087,2000,8.319615364074707,0.475954532623291,0.0,600.0,0.5859425067901611,2.3068184852600098,452.9732360839844,8.027853012084961,254.02328491210938,0.0,0.0,0.0,0.0,0.0,0.0,0.0,0.0,0.0,0.0,0.0,0.0,0.0,67.35627746582031,-12.0,-23.30000114440918,-13.736666679382324,-10.0,0.0,658.3939208984375,121.03030395507812,20.957326889038086,3.8525140285491943,0.7705029249191284,21.727832794189453,64.96772003173828,2.388558864593506,0.03676324337720871,194.1666717529297,311.3787841796875,487.6363525390625,379.8787841796875,151.22727966308594,77.86363983154297,228.9444580078125,1.0,0.0007932576118037105,0.03621305525302887,0.8127272725105286,0.3236110806465149,0.5189646482467651,0.3815740942955017,1.0
env_steps,40512,67,67,61,40510,0.8690629333333333,0.25752443075180054,0.009990233927965164,0.11942335218191147,0.5628242492675781,3.629912853240967,2032,8.401273727416992,0.47628656029701233,0.0,600.0,0.58514404296875,2.3223137855529785,451.4771423339844,8.016219139099121,251.85946655273438,0.0,0.0,0.0,0.0,0.0,0.0,0.0,0.0,0.0,0.0,0.0,0.0,0.0,67.40694427490234,-12.0,-23.276418685913086,-13.729253768920898,-10.0,0.0,658.9552001953125,120.79104614257812,20.975194931030273,3.844898223876953,0.7689797282218933,21.744176864624023,65.02310943603516,2.3838372230529785,0.03665168210864067,193.97015380859375,311.44775390625,487.6567077636719,379.7611999511719,151.23880004882812,77.7313461303711,228.82090759277344,1.0,0.0007938109920360148,0.03624029457569122,0.8127611875534058,0.3232835531234741,0.5190796256065369,0.38136816024780273,1.0
env_steps,41008,68,68,62,41006,0.8674592,0.41123658418655396,0.10353530943393707,0.26817411184310913,0.7292749881744385,5.026139259338379,2063,8.28498363494873,0.4761735200881958,0.0,600.0,0.5835860967636108,2.307598352432251,450.624755859375,7.947451591491699,253.18057250976562,0.0,0.0,0.0,0.0,0.0,0.0,0.0,0.0,0.0,0.0,0.0,0.0,0.0,67.32145690917969,-12.0,-23.301176071166992,-13.735294342041016,-10.0,0.0,658.0882568359375,120.79412078857422,20.94759750366211,3.844996213912964,0.7689992785453796,21.716598510742188,64.93756103515625,2.3838977813720703,0.03668282926082611,194.1764678955078,310.5,487.3970642089844,379.8970642089844,151.2205810546875,77.82353210449219,228.9215850830078,1.0,0.0007936225738376379,0.0361943319439888,0.8123283982276917,0.32362741231918335,0.5175000429153442,0.38153594732284546,1.0
env_steps,41504,69,69,63,41502,0.8658554666666667,0.45628494024276733,-0.05047246068716049,-0.048101719468832016,0.7559926509857178,4.165374755859375,2094,8.496604919433594,0.47713038325309753,0.0,600.0,0.582676112651825,2.3166911602020264,451.20684814453125,8.017343521118164,252.4192657470703,0.0,0.0,0.0,0.0,0.0,0.0,0.0,0.0,0.0,0.0,0.0,0.0,0.0,67.50501251220703,-12.0,-23.279998779296875,-13.728405952453613,-10.0,0.0,659.8695678710938,121.18840789794922,21.00429916381836,3.8575470447540283,0.7715093493461609,21.77581214904785,65.11332702636719,2.391679048538208,0.03668041527271271,194.0,310.1449279785156,487.1014404296875,379.6231994628906,151.37681579589844,77.71014404296875,228.80677795410156,1.0,0.000795217405539006,0.036293014883995056,0.8118357062339783,0.3233332931995392,0.5169082283973694,0.38134461641311646,1.0
env_steps,42000,70,70,64,42000,0.8642517333333333,0.4640958905220032,0.029928892850875854,0.13829728960990906,0.7797256112098694,4.720529079437256,2125,8.87710952758789,0.47880566120147705,0.0,600.0,0.5808888673782349,2.3266193866729736,454.3700256347656,8.025738716125488,252.4129180908203,0.0,0.0,0.0,0.0,0.0,0.0,0.0,0.0,0.0,0.0,0.0,0.0,0.0,67.84825134277344,-12.0,-23.242284774780273,-13.728857040405273,-10.0,0.0,663.1142578125,122.35713958740234,21.107582092285156,3.894749164581299,0.7789497971534729,21.886533737182617,65.43350982666016,2.4147441387176514,0.0367816798388958,193.6857147216797,309.1142883300781,486.5,379.70001220703125,151.08570861816406,77.82857513427734,228.81430053710938,1.0,0.0007980095688253641,0.036477554589509964,0.8108332753181458,0.32280948758125305,0.5151904821395874,0.3813571631908417,1.0
env_steps,42512,70,70,64,42510,0.8625962666666667,0.3715616464614868,-0.06688223034143448,0.07144694030284882,0.6819825768470764,4.866962432861328,2157,8.87710952758789,0.47880566120147705,0.0,600.0,0.5808888673782349,2.3266193866729736,454.3700256347656,8.025738716125488,252.4129180908203,0.0,0.0,0.0,0.0,0.0,0.0,0.0,0.0,0.0,0.0,0.0,0.0,0.0,67.84825134277344,-12.0,-23.242284774780273,-13.728857040405273,-10.0,0.0,663.1142578125,122.35713958740234,21.107582092285156,3.894749164581299,0.7789497971534729,21.886533737182617,65.43350982666016,2.4147441387176514,0.0367816798388958,193.6857147216797,309.1142883300781,486.5,379.70001220703125,151.08570861816406,77.82857513427734,228.81430053710938,1.0,0.0007980095688253641,0.036477554589509964,0.8108332753181458,0.32280948758125305,0.5151904821395874,0.3813571631908417,1.0
env_steps,43008,71,71,65,43006,0.8609925333333334,0.46892625093460083,-0.13531184196472168,-0.10446199774742126,0.761641263961792,2.3050830364227295,2188,8.9122896194458,0.47888725996017456,0.0,600.0,0.580440878868103,2.324202299118042,453.95257568359375,8.056432723999023,252.4271240234375,0.0,0.0,0.0,0.0,0.0,0.0,0.0,0.0,0.0,0.0,0.0,0.0,0.0,67.84271240234375,-12.0,-23.217464447021484,-13.712957382202148,-10.0,0.0,662.9859008789062,122.71830749511719,21.103496551513672,3.906245708465576,0.7812490463256836,21.884746551513672,65.42084503173828,2.4218716621398926,0.03687348961830139,193.47886657714844,308.7042236328125,486.4366149902344,379.3802795410156,150.8028106689453,77.73239135742188,228.54931640625,1.0,0.000798145541921258,0.03647457808256149,0.810727596282959,0.3224647641181946,0.5145070552825928,0.3809155225753784,1.0
env_steps,43504,72,72,66,43502,0.8593888000000001,0.30960723757743835,-0.051772840321063995,0.08204866945743561,0.6091511845588684,4.828221321105957,2219,9.11958122253418,0.4801347553730011,0.0,600.0,0.5784803032875061,2.329976797103882,453.8068542480469,8.067546844482422,251.63902282714844,0.0,0.0,0.0,0.0,0.0,0.0,0.0,0.0,0.0,0.0,0.0,0.0,0.0,67.9798583984375,-12.0,-23.15999984741211,-13.700278282165527,-10.0,0.0,664.2777709960938,123.20833587646484,21.14461898803711,3.9218432903289795,0.784368634223938,21.928987503051758,65.54830932617188,2.4315426349639893,0.03691859915852547,193.0,308.2638854980469,486.22222900390625,379.15277099609375,150.5833282470703,77.63888549804688,228.3379669189453,1.0,0.0008002245449461043,0.03654830902814865,0.8103703260421753,0.3216666579246521,0.5137732028961182,0.38056328892707825,1.0
env_steps,44000,73,73,67,43998,0.8577850666666667,0.42348289489746094,-0.12292277812957764,-0.10805249214172363,0.7429198026657104,4.645105838775635,2250,9.386726379394531,0.4817383587360382,0.0,600.0,0.5776673555374146,2.336232900619507,453.4088134765625,8.077991485595703,250.93711853027344,0.0,0.0,0.0,0.0,0.0,0.0,0.0,0.0,0.0,0.0,0.0,0.0,0.0,68.25220489501953,-12.0,-23.171506881713867,-13.693973541259766,-10.0,0.0,667.0,123.39726257324219,21.23126983642578,3.927856922149658,0.7855713963508606,22.0168399810791,65.81692504882812,2.4352712631225586,0.036834411323070526,193.09588623046875,307.9315185546875,486.0,379.0,150.63014221191406,77.53424835205078,228.23287963867188,1.0,0.000802897266112268,0.0366947315633297,0.809999942779541,0.3218264877796173,0.5132191777229309,0.38038814067840576,1.0
env_steps,44512,74,74,68,44510,0.8561296,0.45331522822380066,-0.06083925813436508,0.28284841775894165,0.7524133920669556,4.420654773712158,2282,9.30052375793457,0.4812743067741394,0.0,600.0,0.5781130194664001,2.3266665935516357,454.64129638671875,8.128806114196777,252.54379272460938,0.0,0.0,0.0,0.0,0.0,0.0,0.0,0.0,0.0,0.0,0.0,0.0,0.0,68.1680908203125,-12.0,-23.17135238647461,-13.696216583251953,-10.0,0.0,666.189208984375,123.1891860961914,21.205461502075195,3.921233654022217,0.7842467427253723,21.98970603942871,65.73692321777344,2.4311649799346924,0.03680099919438362,193.09458923339844,308.39190673828125,486.1756896972656,379.1216125488281,150.82432556152344,77.43243408203125,228.270263671875,1.0,0.0008021238609217107,0.03664951026439667,0.8102927207946777,0.3218243420124054,0.5139864683151245,0.38045045733451843,1.0
env_steps,45008,75,75,69,45006,0.8545258666666666,0.4796198606491089,-0.04539141803979874,0.16136352717876434,0.7752363085746765,3.191927194595337,2313,10.142949104309082,0.4853106737136841,0.0,600.0,0.5759511590003967,2.331310987472534,454.58624267578125,8.157289505004883,251.63583374023438,0.0,0.0,0.0,0.0,0.0,0.0,0.0,0.0,0.0,0.0,0.0,0.0,0.0,68.94615173339844,-12.0,-23.128002166748047,-13.675200462341309,-10.0,0.0,673.8800048828125,124.16000366210938,21.450267791748047,3.9521353244781494,0.7904271483421326,22.240694046020508,66.49581909179688,2.450324058532715,0.03671795129776001,192.73333740234375,307.1600036621094,485.4266662597656,378.8133239746094,150.67999267578125,77.13333129882812,227.9199981689453,1.0,0.0008088510949164629,0.03706781938672066,0.8090444207191467,0.3212222158908844,0.5119333267211914,0.37986665964126587,1.0
env_steps,45504,75,75,69,45502,0.8529221333333333,0.4078218340873718,-0.10648038983345032,-0.06187604367733002,0.692401647567749,3.0758402347564697,2344,10.142949104309082,0.4853106737136841,0.0,600.0,0.5759511590003967,2.331310987472534,454.58624267578125,8.157289505004883,251.63583374023438,0.0,0.0,0.0,0.0,0.0,0.0,0.0,0.0,0.0,0.0,0.0,0.0,0.0,68.94615173339844,-12.0,-23.128002166748047,-13.675200462341309,-10.0,0.0,673.8800048828125,124.16000366210938,21.450267791748047,3.9521353244781494,0.7904271483421326,22.240694046020508,66.49581909179688,2.450324058532715,0.03671795129776001,192.73333740234375,307.1600036621094,485.4266662597656,378.8133239746094,150.67999267578125,77.13333129882812,227.9199981689453,1.0,0.0008088510949164629,0.03706781938672066,0.8090444207191467,0.3212222158908844,0.5119333267211914,0.37986665964126587,1.0
env_steps,46000,76,76,70,45998,0.8513184,0.4658805727958679,0.020849155262112617,0.3459354043006897,0.7611685991287231,5.253363609313965,2375,9.946342468261719,0.4846394658088684,0.0,600.0,0.5757946968078613,2.314363956451416,455.46649169921875,8.131272315979004,255.1343994140625,0.0,0.0,0.0,0.0,0.0,0.0,0.0,0.0,0.0,0.0,0.0,0.0,0.0,68.7442398071289,-12.0,-23.118947982788086,-13.678947448730469,-10.0,0.0,671.9210815429688,123.72368621826172,21.38791275024414,3.938246965408325,0.7876494526863098,22.175561904907227,66.30252075195312,2.441713333129883,0.03667568042874336,192.65789794921875,308.5526428222656,485.8947448730469,378.8552551269531,150.69737243652344,77.1973648071289,227.98245239257812,1.0,0.0008077325182966888,0.03695926442742348,0.8098244667053223,0.3210965096950531,0.5142543911933899,0.3799707591533661,1.0
env_steps,46512,77,77,71,46510,0.8496629333333333,0.17410993576049805,-0.09607518464326859,-0.0713670551776886,0.44152742624282837,2.5732948780059814,2407,10.146121978759766,0.4853000044822693,0.0,600.0,0.5757287740707397,2.3183765411376953,455.27105712890625,8.137727737426758,254.229248046875,0.0,0.0,0.0,0.0,0.0,0.0,0.0,0.0,0.0,0.0,0.0,0.0,0.0,68.94586944580078,-12.0,-23.117923736572266,-13.681818008422852,-10.0,0.0,673.8701171875,124.19480895996094,21.449953079223633,3.9532430171966553,0.7906486988067627,22.240602493286133,66.4948501586914,2.4510109424591064,0.0366860069334507,192.64935302734375,307.8701171875,485.58441162109375,378.8052062988281,150.7662353515625,77.2597427368164,228.03028869628906,1.0,0.0008088333997875452,0.03706766664981842,0.8093072772026062,0.3210822641849518,0.5131168365478516,0.3800504803657532,1.0
env_steps,47008,78,78,72,47006,0.8480592,0.4548260569572449,-0.10740923136472702,-0.11145135760307312,0.7556225061416626,4.458965301513672,2438,10.148885726928711,0.4852166771888733,0.0,600.0,0.5761764645576477,2.321730852127075,455.2013854980469,8.106817245483398,253.2657012939453,0.0,0.0,0.0,0.0,0.0,0.0,0.0,0.0,0.0,0.0,0.0,0.0,0.0,68.93940734863281,-12.0,-23.10615348815918,-13.684358596801758,-10.0,0.0,673.8589477539062,123.92308044433594,21.44959831237793,3.944593667984009,0.7889188528060913,22.23851776123047,66.4937515258789,2.445648431777954,0.03659644350409508,192.55128479003906,308.94873046875,485.8333435058594,378.8717956542969,151.1666717529297,77.0897445678711,228.07264709472656,1.0,0.0008086945163086057,0.037064190953969955,0.8097221851348877,0.3209187984466553,0.5149145126342773,0.38012105226516724,1.0
env_steps,47504,79,79,73,47502,0.8464554666666666,0.26268184185028076,-0.18917807936668396,-0.1291298121213913,0.559179425239563,3.1959476470947266,2469,10.528787612915039,0.48757341504096985,0.0,600.0,0.5753701329231262,2.329514741897583,457.48333740234375,8.142553329467773,253.08258056640625,0.0,0.0,0.0,0.0,0.0,0.0,0.0,0.0,0.0,0.0,0.0,0.0,0.0,69.34880065917969,-12.0,-23.129619598388672,-13.690380096435547,-10.0,0.0,677.8480834960938,124.72151947021484,21.576574325561523,3.9700088500976562,0.7940018773078918,22.370576858520508,66.88738250732422,2.4614059925079346,0.03659443557262421,192.74684143066406,307.8607482910156,485.39239501953125,378.81011962890625,151.05062866210938,77.32911682128906,228.17298889160156,1.0,0.0008126224856823683,0.03728429228067398,0.8089873194694519,0.3212447166442871,0.5131012201309204,0.380288302898407,1.0
env_steps,48000,80,80,74,48000,0.8448517333333334,0.21244460344314575,-0.10549522936344147,-0.036838315427303314,0.48694801330566406,3.771496534347534,2500,10.505536079406738,0.4877049922943115,0.0,600.0,0.5741056203842163,2.3157706260681152,457.3404235839844,8.110854148864746,254.8812255859375,0.0,0.0,0.0,0.0,0.0,0.0,0.0,0.0,0.0,0.0,0.0,0.0,0.0,69.29378509521484,-12.0,-23.101499557495117,-13.686750411987305,-10.0,0.0,677.2625122070312,124.86250305175781,21.557933807373047,3.974496841430664,0.7948993444442749,22.352834701538086,66.82959747314453,2.4641880989074707,0.03665356710553169,192.5124969482422,307.9375,485.4750061035156,378.75,151.1125030517578,77.23750305175781,228.1125030517578,1.0,0.0008128416957333684,0.03725472837686539,0.8091249465942383,0.32085415720939636,0.5132291913032532,0.3801875114440918,1.0
env_steps,48512,80,80,74,48510,0.8431962666666667,0.2180527001619339,-0.05395665764808655,0.0537625327706337,0.5101190805435181,3.509866952896118,2532,10.505536079406738,0.4877049922943115,0.0,600.0,0.5741056203842163,2.3157706260681152,457.3404235839844,8.110854148864746,254.8812255859375,0.0,0.0,0.0,0.0,0.0,0.0,0.0,0.0,0.0,0.0,0.0,0.0,0.0,69.29378509521484,-12.0,-23.101499557495117,-13.686750411987305,-10.0,0.0,677.2625122070312,124.86250305175781,21.557933807373047,3.974496841430664,0.7948993444442749,22.352834701538086,66.82959747314453,2.4641880989074707,0.03665356710553169,192.5124969482422,307.9375,485.4750061035156,378.75,151.1125030517578,77.23750305175781,228.1125030517578,1.0,0.0008128416957333684,0.03725472837686539,0.8091249465942383,0.32085415720939636,0.5132291913032532,0.3801875114440918,1.0
env_steps,49008,81,81,75,49006,0.8415925333333334,0.3650057017803192,0.09172357618808746,0.11775584518909454,0.6728508472442627,4.039093971252441,2563,10.706225395202637,0.4883826971054077,0.0,600.0,0.5732420682907104,2.323930025100708,457.7176513671875,8.150267601013184,253.8156280517578,0.0,0.0,0.0,0.0,0.0,0.0,0.0,0.0,0.0,0.0,0.0,0.0,0.0,69.48597717285156,-12.0,-23.09185028076172,-13.687902450561523,-10.0,0.0,679.1358032226562,125.23456573486328,21.617565155029297,3.986340284347534,0.7972680330276489,22.414833068847656,67.01444244384766,2.4715309143066406,0.03664607182145119,192.43209838867188,307.456787109375,485.22222900390625,378.76544189453125,151.1851806640625,77.22222137451172,228.13168334960938,1.0,0.0008139712153933942,0.037358056753873825,0.8087036609649658,0.3207201659679413,0.5124279856681824,0.3802194893360138,1.0
env_steps,49504,82,82,76,49502,0.8399888,0.28560227155685425,-0.12405087798833847,-0.039157718420028687,0.5681139230728149,3.607593297958374,2594,10.915363311767578,0.4893658459186554,0.0,600.0,0.5732113122940063,2.329268217086792,457.4161682128906,8.15237808227539,252.80361938476562,0.0,0.0,0.0,0.0,0.0,0.0,0.0,0.0,0.0,0.0,0.0,0.0,0.0,69.69706726074219,-12.0,-23.098535537719727,-13.683172225952148,-10.0,0.0,681.1341552734375,125.93902587890625,21.68117332458496,4.008763790130615,0.8017528057098389,22.482927322387695,67.21163177490234,2.485433340072632,0.036706604063510895,192.48780822753906,306.0853576660156,484.7926940917969,378.6585388183594,151.0853729248047,77.20731353759766,228.05282592773438,1.0,0.0008156097610481083,0.03747154772281647,0.8079877495765686,0.32081300020217896,0.5101423263549805,0.38008809089660645,1.0
env_steps,50000,83,83,77,49998,0.8383850666666667,0.2752913534641266,-0.08098264038562775,-0.1135769635438919,0.5434353351593018,3.715190887451172,2625,10.937379837036133,0.489438533782959,0.0,600.0,0.5723392367362976,2.3310039043426514,460.55242919921875,8.146445274353027,253.53273010253906,0.0,0.0,0.0,0.0,0.0,0.0,0.0,0.0,0.0,0.0,0.0,0.0,0.0,69.7168960571289,-12.0,-23.094940185546875,-13.68458080291748,-10.0,0.0,681.3012084960938,126.10843658447266,21.686491012573242,4.014156341552734,0.80283123254776,22.489322662353516,67.22811889648438,2.488776683807373,0.03673095256090164,192.45782470703125,305.8433837890625,484.6024169921875,378.6385498046875,150.8674774169922,77.36144256591797,228.0762939453125,1.0,0.0008157309493981302,0.03748220577836037,0.8076707124710083,0.3207630515098572,0.5097389817237854,0.3801271915435791,1.0
env_steps,50512,84,84,78,50510,0.8367296,0.36863869428634644,-0.026805268600583076,-0.0922507643699646,0.6626180410385132,4.716626167297363,2657,11.049675941467285,0.4898166060447693,0.0,600.0,0.5713493227958679,2.324226140975952,460.1064453125,8.136091232299805,253.64151000976562,0.0,0.0,0.0,0.0,0.0,0.0,0.0,0.0,0.0,0.0,0.0,0.0,0.0,69.76515197753906,-12.0,-23.04428482055664,-13.67119312286377,-10.0,0.0,681.7619018554688,126.25,21.701156616210938,4.018662452697754,0.8037324547767639,22.5048885345459,67.2735824584961,2.4915707111358643,0.03673318028450012,192.0357208251953,305.9166564941406,484.4761962890625,378.48809814453125,150.76190185546875,77.1547622680664,227.85316467285156,1.0,0.0008163611055351794,0.037508148699998856,0.8074603080749512,0.32005953788757324,0.5098611116409302,0.37975528836250305,1.0
env_steps,51008,85,85,79,51006,0.8351258666666667,0.2587210237979889,-0.11624361574649811,0.06108512356877327,0.565395712852478,4.484227180480957,2688,10.917984962463379,0.48914584517478943,0.0,600.0,0.572496771812439,2.309666633605957,460.7938537597656,8.13392162322998,256.609375,0.0,0.0,0.0,0.0,0.0,0.0,0.0,0.0,0.0,0.0,0.0,0.0,0.0,69.59680938720703,-12.0,-23.011764526367188,-13.667060852050781,-10.0,0.0,680.1411743164062,125.82353210449219,21.649566650390625,4.005086898803711,0.8010174632072449,22.450584411621094,67.11365509033203,2.483154058456421,0.036677829921245575,191.76470947265625,307.0705871582031,484.7176513671875,378.42352294921875,150.78823852539062,77.07058715820312,227.7843017578125,1.0,0.0008152431691996753,0.03741764277219772,0.8078627586364746,0.31960782408714294,0.5117843151092529,0.37964051961898804,1.0
env_steps,51504,85,85,79,51502,0.8335221333333334,0.25568968057632446,0.029271729290485382,-0.11921566724777222,0.5406201481819153,3.0486960411071777,2719,10.917984962463379,0.48914584517478943,0.0,600.0,0.572496771812439,2.309666633605957,460.7938537597656,8.13392162322998,256.609375,0.0,0.0,0.0,0.0,0.0,0.0,0.0,0.0,0.0,0.0,0.0,0.0,0.0,69.59680938720703,-12.0,-23.011764526367188,-13.667060852050781,-10.0,0.0,680.1411743164062,125.82353210449219,21.649566650390625,4.005086898803711,0.8010174632072449,22.450584411621094,67.11365509033203,2.483154058456421,0.036677829921245575,191.76470947265625,307.0705871582031,484.7176513671875,378.42352294921875,150.78823852539062,77.07058715820312,227.7843017578125,1.0,0.0008152431691996753,0.03741764277219772,0.8078627586364746,0.31960782408714294,0.5117843151092529,0.37964051961898804,1.0
env_steps,52000,86,86,80,51998,0.8319184,0.38656085729599,-0.11754743754863739,-0.04123247414827347,0.677604079246521,3.763481616973877,2750,11.410717010498047,0.4916371703147888,0.0,600.0,0.570405900478363,2.330717086791992,460.9394226074219,8.152596473693848,254.9613037109375,0.0,0.0,0.0,0.0,0.0,0.0,0.0,0.0,0.0,0.0,0.0,0.0,0.0,70.0416488647461,-12.0,-22.96744155883789,-13.663490295410156,-10.0,0.0,684.4302368164062,126.9186019897461,21.786090850830078,4.039944171905518,0.8079890012741089,22.594079971313477,67.53688049316406,2.504765748977661,0.036719441413879395,191.39535522460938,305.593017578125,483.88372802734375,378.4186096191406,150.8023223876953,76.97674560546875,227.72479248046875,1.0,0.0008193953544832766,0.03765680268406868,0.8064728379249573,0.3189922273159027,0.5093216896057129,0.3795413672924042,1.0
env_steps,52512,87,87,81,52510,0.8302629333333333,0.40053051710128784,-0.0723641887307167,0.12810170650482178,0.6884311437606812,4.288768291473389,2782,11.239134788513184,0.49114590883255005,0.0,600.0,0.5698739290237427,2.3263983726501465,460.89007568359375,8.178772926330566,254.80445861816406,0.0,0.0,0.0,0.0,0.0,0.0,0.0,0.0,0.0,0.0,0.0,0.0,0.0,69.86787414550781,-12.0,-22.962759017944336,-13.665979385375977,-10.0,0.0,682.6436767578125,127.04597473144531,21.729223251342773,4.043998718261719,0.8087998032569885,22.53802490234375,67.360595703125,2.507279396057129,0.03686734288930893,191.3563232421875,306.32183837890625,484.0919494628906,378.47125244140625,150.73562622070312,77.04597473144531,227.7662811279297,1.0,0.0008185766055248678,0.03756337612867355,0.8068199753761292,0.31892719864845276,0.5105364322662354,0.37961047887802124,1.0
env_steps,53008,88,88,82,53006,0.8286592,0.49325287342071533,-0.1148577481508255,-0.06556694954633713,0.8012351989746094,4.9512505531311035,2813,11.089200019836426,0.4903658926486969,0.0,600.0,0.5697133541107178,2.330625057220459,459.9012756347656,8.158788681030273,253.51478576660156,0.0,0.0,0.0,0.0,0.0,0.0,0.0,0.0,0.0,0.0,0.0,0.0,0.0,69.71351623535156,-12.0,-22.952726364135742,-13.671590805053711,-10.0,0.0,681.0568237304688,127.15908813476562,21.6787109375,4.047599792480469,0.8095198273658752,22.488231658935547,67.2040023803711,2.509511709213257,0.03699426352977753,191.27272033691406,306.05682373046875,484.0795593261719,378.5,150.80682373046875,77.13636016845703,227.85984802246094,1.0,0.0008172765374183655,0.03748038783669472,0.8067991733551025,0.3187878727912903,0.5100947022438049,0.37976643443107605,1.0
env_steps,53504,89,89,83,53502,0.8270554666666667,0.388976514339447,-0.010668784379959106,-0.05515296757221222,0.69066321849823,4.200078010559082,2844,10.957108497619629,0.4899662733078003,0.0,600.0,0.5705097913742065,2.325767755508423,460.4297790527344,8.145394325256348,253.85792541503906,0.0,0.0,0.0,0.0,0.0,0.0,0.0,0.0,0.0,0.0,0.0,0.0,0.0,69.58924102783203,-12.0,-22.956403732299805,-13.67573070526123,-10.0,0.0,679.8651733398438,126.82022094726562,21.640779495239258,4.036813259124756,0.8073626160621643,22.448143005371094,67.08641815185547,2.502824306488037,0.036945316940546036,191.30337524414062,306.9662780761719,484.39324951171875,378.4494323730469,150.9101104736328,77.21348571777344,227.9288330078125,1.0,0.0008166105253621936,0.0374135747551918,0.8073220252990723,0.3188389539718628,0.5116105079650879,0.3798814117908478,1.0
env_steps,54000,90,90,84,54000,0.8254517333333333,0.43115925788879395,-0.013632608577609062,-0.0388692244887352,0.7472952008247375,4.572850227355957,2875,11.387996673583984,0.49188554286956787,0.0,600.0,0.5694952607154846,2.335740566253662,459.8655090332031,8.161630630493164,253.06491088867188,0.0,0.0,0.0,0.0,0.0,0.0,0.0,0.0,0.0,0.0,0.0,0.0,0.0,69.99443817138672,-12.0,-22.937334060668945,-13.669111251831055,-10.0,0.0,683.7999877929688,127.67778015136719,21.766029357910156,4.064110279083252,0.8128219842910767,22.57884979248047,67.47469329833984,2.5197482109069824,0.03695659711956978,191.14443969726562,306.24444580078125,483.9222106933594,378.3333435058594,150.85556030273438,77.13333129882812,227.81851196289062,1.0,0.0008198092109523714,0.03763142228126526,0.8065369725227356,0.31857407093048096,0.5104073882102966,0.3796975314617157,1.0
env_steps,54512,90,90,84,54510,0.8237962666666667,0.37521421909332275,-0.13268890976905823,-0.17145510017871857,0.6551636457443237,3.282898187637329,2907,11.387996673583984,0.49188554286956787,0.0,600.0,0.5694952607154846,2.335740566253662,459.8655090332031,8.161630630493164,253.06491088867188,0.0,0.0,0.0,0.0,0.0,0.0,0.0,0.0,0.0,0.0,0.0,0.0,0.0,69.99443817138672,-12.0,-22.937334060668945,-13.669111251831055,-10.0,0.0,683.7999877929688,127.67778015136719,21.766029357910156,4.064110279083252,0.8128219842910767,22.57884979248047,67.47469329833984,2.5197482109069824,0.03695659711956978,191.14443969726562,306.24444580078125,483.9222106933594,378.3333435058594,150.85556030273438,77.13333129882812,227.81851196289062,1.0,0.0008198092109523714,0.03763142228126526,0.8065369725227356,0.31857407093048096,0.5104073882102966,0.3796975314617157,1.0
env_steps,55008,91,91,85,55006,0.8221925333333333,0.4369528293609619,0.07975318282842636,0.1753653585910797,0.7596175670623779,4.362278938293457,2938,11.636462211608887,0.4933736324310303,0.0,600.0,0.568539559841156,2.329706907272339,460.46429443359375,8.164158821105957,253.80874633789062,0.0,0.0,0.0,0.0,0.0,0.0,0.0,0.0,0.0,0.0,0.0,0.0,0.0,70.24217987060547,-12.0,-22.93846321105957,-13.667252540588379,-10.0,0.0,686.1538696289062,128.46153259277344,21.840953826904297,4.0890583992004395,0.8178115487098694,22.65876579284668,67.70696258544922,2.5352158546447754,0.0370168499648571,191.15383911132812,304.97802734375,483.3736267089844,378.3736267089844,150.72528076171875,77.13186645507812,227.78753662109375,1.0,0.0008222893811762333,0.03776461258530617,0.8056226372718811,0.3185897469520569,0.5082966685295105,0.3796459138393402,1.0
env_steps,55504,92,92,86,55502,0.8205888,0.2816755473613739,0.05235235393047333,0.08816149830818176,0.5808436870574951,4.4259419441223145,2969,11.6472749710083,0.4935108721256256,0.0,600.0,0.5685994029045105,2.3259780406951904,460.7452392578125,8.187084197998047,253.80419921875,0.0,0.0,0.0,0.0,0.0,0.0,0.0,0.0,0.0,0.0,0.0,0.0,0.0,70.24727630615234,-12.0,-22.935653686523438,-13.664347648620605,-10.0,0.0,686.0869750976562,129.05435180664062,21.838825225830078,4.107928276062012,0.8215855360031128,22.660411834716797,67.70036315917969,2.546915054321289,0.037169650197029114,191.13043212890625,305.2826232910156,483.4130554199219,378.2608642578125,150.69564819335938,77.13043212890625,227.7391357421875,1.0,0.0008225180790759623,0.037767354398965836,0.8056883811950684,0.3185507357120514,0.5088043212890625,0.3795652389526367,1.0
env_steps,56000,93,93,87,55998,0.8189850666666667,0.2863633632659912,-0.07726798951625824,-0.09159725159406662,0.5676391124725342,3.7518293857574463,3000,11.88693904876709,0.49476125836372375,0.0,600.0,0.5677276253700256,2.325573444366455,460.4587097167969,8.222688674926758,253.30433654785156,0.0,0.0,0.0,0.0,0.0,0.0,0.0,0.0,0.0,0.0,0.0,0.0,0.0,70.45683288574219,-12.0,-22.90838623046875,-13.661505699157715,-10.0,0.0,688.1613159179688,129.3010711669922,21.90485382080078,4.115781784057617,0.8231562376022339,22.728008270263672,67.90504455566406,2.5517842769622803,0.03712942451238632,190.90322875976562,305.0,483.1290283203125,378.32257080078125,150.8817138671875,76.93548583984375,227.69175720214844,1.0,0.0008246021461673081,0.03788001835346222,0.8052150011062622,0.31817203760147095,0.5083333253860474,0.3794862926006317,1.0
env_steps,56512,94,94,88,56510,0.8173296,0.43189045786857605,0.24620018899440765,0.3123478293418884,0.7548797130584717,4.315733432769775,3032,12.07861042022705,0.49575528502464294,0.0,600.0,0.5665557384490967,2.337925434112549,458.800537109375,8.214415550231934,251.57846069335938,0.0,0.0,0.0,0.0,0.0,0.0,0.0,0.0,0.0,0.0,0.0,0.0,0.0,70.6396713256836,-12.0,-22.897022247314453,-13.664043426513672,-10.0,0.0,689.872314453125,130.01063537597656,21.95931625366211,4.138367652893066,0.8276733756065369,22.786989212036133,68.07388305664062,2.5657877922058105,0.037203945219516754,190.8085174560547,303.5531921386719,482.54254150390625,378.3723449707031,150.91488647460938,76.95744323730469,227.73403930664062,1.0,0.0008262588526122272,0.03797832131385803,0.8042375445365906,0.3180141746997833,0.5059219598770142,0.3795567750930786,1.0
env_steps,57008,95,95,89,57006,0.8157258666666667,0.4376123249530792,0.3887278735637665,0.6268170475959778,0.758327841758728,3.8080906867980957,3063,12.440444946289062,0.49761155247688293,0.0,600.0,0.5653209686279297,2.3372104167938232,458.8583984375,8.236632347106934,251.79379272460938,0.0,0.0,0.0,0.0,0.0,0.0,0.0,0.0,0.0,0.0,0.0,0.0,0.0,70.96865844726562,-12.0,-22.868209838867188,-13.660000801086426,-10.0,0.0,693.0,131.04209899902344,22.058874130249023,4.171200275421143,0.8342399001121521,22.893112182617188,68.38250732421875,2.586143970489502,0.03727716952562332,190.56842041015625,302.66314697265625,481.97894287109375,378.3578796386719,150.85263061523438,76.89473724365234,227.6666717529297,1.0,0.000829352589789778,0.038155194371938705,0.8032981753349304,0.31761404871940613,0.504438579082489,0.3794444799423218,1.0
env_steps,57504,95,95,89,57502,0.8141221333333333,0.6002753973007202,0.292635440826416,0.3926565945148468,0.9391152858734131,5.328289031982422,3094,12.440444946289062,0.49761155247688293,0.0,600.0,0.5653209686279297,2.3372104167938232,458.8583984375,8.236632347106934,251.79379272460938,0.0,0.0,0.0,0.0,0.0,0.0,0.0,0.0,0.0,0.0,0.0,0.0,0.0,70.96865844726562,-12.0,-22.868209838867188,-13.660000801086426,-10.0,0.0,693.0,131.04209899902344,22.058874130249023,4.171200275421143,0.8342399001121521,22.893112182617188,68.38250732421875,2.586143970489502,0.03727716952562332,190.56842041015625,302.66314697265625,481.97894287109375,378.3578796386719,150.85263061523438,76.89473724365234,227.6666717529297,1.0,0.000829352589789778,0.038155194371938705,0.8032981753349304,0.31761404871940613,0.504438579082489,0.3794444799423218,1.0
env_steps,58000,96,96,90,57998,0.8125184,0.359627366065979,0.35132357478141785,0.4623047709465027,0.6766290068626404,4.948387145996094,3125,12.32007884979248,0.4969625174999237,0.0,600.0,0.5649092197418213,2.340937376022339,457.9469909667969,8.254305839538574,250.720458984375,0.0,0.0,0.0,0.0,0.0,0.0,0.0,0.0,0.0,0.0,0.0,0.0,0.0,70.81549072265625,-12.0,-22.83625030517578,-13.659167289733887,-10.0,0.0,691.4791870117188,130.8854217529297,22.010465621948242,4.16621208190918,0.8332424163818359,22.84370994567871,68.2324447631836,2.5830514430999756,0.037312693893909454,190.3020782470703,303.90625,482.25,378.3020935058594,150.84375,76.90625,227.6527862548828,1.0,0.0008282708004117012,0.038072846829891205,0.8037499785423279,0.3171701431274414,0.5065104365348816,0.37942132353782654,1.0
env_steps,58512,97,97,91,58510,0.8108629333333334,0.28826606273651123,0.25439509749412537,0.38239139318466187,0.579792857170105,4.693815231323242,3157,12.402517318725586,0.4973072111606598,0.0,600.0,0.5641628503799438,2.342336654663086,460.0960998535156,8.249914169311523,251.16110229492188,0.0,0.0,0.0,0.0,0.0,0.0,0.0,0.0,0.0,0.0,0.0,0.0,0.0,70.90251159667969,-12.0,-22.8408260345459,-13.659175872802734,-10.0,0.0,692.3814697265625,130.78350830078125,22.039186477661133,4.162968158721924,0.8325936198234558,22.871780395507812,68.32147216796875,2.581040143966675,0.03723863884806633,190.3402099609375,303.9793701171875,482.1752624511719,378.226806640625,150.9175262451172,76.90721893310547,227.65292358398438,1.0,0.0008288453100249171,0.03811963275074959,0.8036253452301025,0.317233681678772,0.5066323280334473,0.37942156195640564,1.0
env_steps,59008,98,98,92,59006,0.8092592,0.29029417037963867,0.2750786244869232,0.38054049015045166,0.5975514650344849,3.436292886734009,3188,12.114119529724121,0.4960775673389435,0.0,600.0,0.5645353198051453,2.346632719039917,459.9346618652344,8.284337043762207,250.3036651611328,0.0,0.0,0.0,0.0,0.0,0.0,0.0,0.0,0.0,0.0,0.0,0.0,0.0,70.66615295410156,-12.0,-22.88571548461914,-13.666327476501465,-10.0,0.0,689.9591674804688,130.91836547851562,21.96208381652832,4.167261123657227,0.8334521651268005,22.7955379486084,68.08245849609375,2.5837018489837646,0.03746609017252922,190.7142791748047,304.16326904296875,482.3673400878906,378.43878173828125,150.87754821777344,77.0,227.77212524414062,1.0,0.0008267958764918149,0.037992559373378754,0.8039454817771912,0.31785714626312256,0.5069387555122375,0.37962019443511963,1.0
env_steps,59504,99,99,93,59502,0.8076554666666667,0.4531092941761017,0.2811192572116852,0.4025198817253113,0.7663649320602417,4.3932294845581055,3219,12.226343154907227,0.49647781252861023,0.0,600.0,0.563639760017395,2.375875473022461,460.0105285644531,8.312339782714844,248.68014526367188,0.0,0.0,0.0,0.0,0.0,0.0,0.0,0.0,0.0,0.0,0.0,0.0,0.0,70.74714660644531,-12.0,-22.85818099975586,-13.662627220153809,-10.0,0.0,690.6969604492188,131.3333282470703,21.98556900024414,4.180469989776611,0.8360939621925354,22.821664810180664,68.15525817871094,2.591891288757324,0.03752340376377106,190.48484802246094,304.02020263671875,482.2727355957031,378.30303955078125,150.96969604492188,76.92929077148438,227.71044921875,1.0,0.0008274629362858832,0.038036104291677475,0.8037877678871155,0.3174747824668884,0.506700336933136,0.37951740622520447,1.0
env_steps,60000,100,100,94,60000,0.8060517333333334,0.4680522084236145,0.359375923871994,0.44859811663627625,0.7761015892028809,5.177549839019775,3250,12.305571556091309,0.4968530237674713,0.0,600.0,0.5629451274871826,2.3810667991638184,460.31036376953125,8.293083190917969,247.9116973876953,0.0,0.0,0.0,0.0,0.0,0.0,0.0,0.0,0.0,0.0,0.0,0.0,0.0,70.77816772460938,-12.0,-22.81439971923828,-13.65820026397705,-10.0,0.0,690.97998046875,131.49000549316406,21.994577407836914,4.1854567527771,0.8370912671089172,22.8316707611084,68.18318939208984,2.594982862472534,0.03754100948572159,190.1199951171875,304.5400085449219,482.3299865722656,378.3500061035156,151.05999755859375,76.75,227.6366729736328,1.0,0.0008280883193947375,0.03805278241634369,0.8038831949234009,0.3168666958808899,0.5075666904449463,0.37939444184303284,1.0
env_steps,60512,100,100,94,60510,0.8043962666666666,0.4734809100627899,0.2561555504798889,0.29976412653923035,0.7858812212944031,4.624259948730469,3282,12.305571556091309,0.4968530237674713,0.0,600.0,0.5629451274871826,2.3810667991638184,460.31036376953125,8.293083190917969,247.9116973876953,0.0,0.0,0.0,0.0,0.0,0.0,0.0,0.0,0.0,0.0,0.0,0.0,0.0,70.77816772460938,-12.0,-22.81439971923828,-13.65820026397705,-10.0,0.0,690.97998046875,131.49000549316406,21.994577407836914,4.1854567527771,0.8370912671089172,22.8316707611084,68.18318939208984,2.594982862472534,0.03754100948572159,190.1199951171875,304.5400085449219,482.3299865722656,378.3500061035156,151.05999755859375,76.75,227.6366729736328,1.0,0.0008280883193947375,0.03805278241634369,0.8038831949234009,0.3168666958808899,0.5075666904449463,0.37939444184303284,1.0
env_steps,61008,101,101,95,61006,0.8027925333333333,0.5086992383003235,0.3965262174606323,0.5577778220176697,0.8168153166770935,4.357484340667725,3313,13.07181167602539,0.5002920031547546,0.0,600.0,0.559999942779541,2.3908002376556396,461.4457092285156,8.287632942199707,247.41336059570312,0.0,0.0,0.0,0.0,0.0,0.0,0.0,0.0,0.0,0.0,0.0,0.0,0.0,71.49060821533203,-12.0,-22.772397994995117,-13.646400451660156,-10.0,0.0,697.9299926757812,132.83999633789062,22.215803146362305,4.228428363800049,0.8456857204437256,23.06148910522461,68.86898803710938,2.6216254234313965,0.03758704289793968,189.77000427246094,303.17999267578125,481.6199951171875,378.010009765625,151.1300048828125,76.58999633789062,227.4400177001953,1.0,0.0008338200277648866,0.038435813039541245,0.802699863910675,0.31628334522247314,0.505299985408783,0.3790666460990906,1.0
env_steps,61504,102,102,96,61502,0.8011888,0.3498838245868683,0.1391603946685791,0.16155867278575897,0.6699791550636292,3.7194321155548096,3344,13.251212120056152,0.500728964805603,0.0,600.0,0.5588518381118774,2.4009835720062256,460.7803649902344,8.301549911499023,244.7679901123047,0.0,0.0,0.0,0.0,0.0,0.0,0.0,0.0,0.0,0.0,0.0,0.0,0.0,71.58000946044922,-12.0,-22.695600509643555,-13.633199691772461,-10.0,0.0,698.7100219726562,133.47000122070312,22.240629196166992,4.248481750488281,0.8496963381767273,23.0903263092041,68.94595336914062,2.634058952331543,0.03772281855344772,189.1300048828125,303.6300048828125,481.5,377.80999755859375,151.07000732421875,76.38999938964844,227.22000122070312,1.0,0.0008345483802258968,0.0384838730096817,0.8024998307228088,0.31521666049957275,0.5060499906539917,0.37869998812675476,1.0
env_steps,62000,103,103,97,61998,0.7995850666666666,0.5208231210708618,0.5193601846694946,0.7770923376083374,0.8541473150253296,5.784286975860596,3375,13.889385223388672,0.5039289593696594,0.0,600.0,0.5566222667694092,2.4033501148223877,463.9396057128906,8.323800086975098,245.8753662109375,0.0,0.0,0.0,0.0,0.0,0.0,0.0,0.0,0.0,0.0,0.0,0.0,0.0,72.1485824584961,-12.0,-22.643999099731445,-13.61520004272461,-10.0,0.0,704.239990234375,134.6300048828125,22.416654586791992,4.285406112670898,0.8570811748504639,23.27373504638672,69.49163818359375,2.656951904296875,0.03776947408914566,188.6999969482422,302.20001220703125,480.6700134277344,377.45001220703125,150.77000427246094,76.2699966430664,226.92001342773438,1.0,0.0008398816571570933,0.03878955915570259,0.8011166453361511,0.31449997425079346,0.5036666989326477,0.378199964761734,1.0
env_steps,62512,104,104,98,62510,0.7979296,0.38135087490081787,0.2653213441371918,0.44149360060691833,0.6881334185600281,4.020982265472412,3407,14.599359512329102,0.5073980093002319,0.0,600.0,0.5544759035110474,2.43803334236145,466.2894592285156,8.365099906921387,244.94384765625,0.0,0.0,0.0,0.0,0.0,0.0,0.0,0.0,0.0,0.0,0.0,0.0,0.0,72.80636596679688,-12.0,-22.595998764038086,-13.611001014709473,-10.0,0.0,710.5499877929688,136.41000366210938,22.617509841918945,4.34206485748291,0.8684130311012268,23.485923767089844,70.1142807006836,2.692080497741699,0.03788122162222862,188.3000030517578,301.2300109863281,479.989990234375,377.29998779296875,150.3699951171875,76.44000244140625,226.8500213623047,1.0,0.0008456633077003062,0.03914320096373558,0.7999832034111023,0.3138333261013031,0.50204998254776,0.37808334827423096,1.0
env_steps,63008,105,105,99,63006,0.7963258666666666,0.26486510038375854,0.2807180881500244,0.3971121311187744,0.5795992612838745,3.880833148956299,3438,14.634442329406738,0.5073379874229431,0.0,600.0,0.5541431307792664,2.4501335620880127,469.5390625,8.377349853515625,245.4121856689453,0.0,0.0,0.0,0.0,0.0,0.0,0.0,0.0,0.0,0.0,0.0,0.0,0.0,72.80023956298828,-12.0,-22.555200576782227,-13.610600471496582,-10.0,0.0,710.4500122070312,136.60000610351562,22.614328384399414,4.3481125831604,0.8696225881576538,23.483949661254883,70.10441589355469,2.6958303451538086,0.03792448341846466,187.9600067138672,301.25,479.9200134277344,377.2300109863281,150.33999633789062,76.4800033569336,226.8433380126953,1.0,0.0008455633651465178,0.03913991525769234,0.7998665571212769,0.31326666474342346,0.5020833015441895,0.37807220220565796,1.0
env_steps,63504,105,105,99,63502,0.7947221333333334,0.26650938391685486,0.34312760829925537,0.45634469389915466,0.5704359412193298,5.0865559577941895,3469,14.634442329406738,0.5073379874229431,0.0,600.0,0.5541431307792664,2.4501335620880127,469.5390625,8.377349853515625,245.4121856689453,0.0,0.0,0.0,0.0,0.0,0.0,0.0,0.0,0.0,0.0,0.0,0.0,0.0,72.80023956298828,-12.0,-22.555200576782227,-13.610600471496582,-10.0,0.0,710.4500122070312,136.60000610351562,22.614328384399414,4.3481125831604,0.8696225881576538,23.483949661254883,70.10441589355469,2.6958303451538086,0.03792448341846466,187.9600067138672,301.25,479.9200134277344,377.2300109863281,150.33999633789062,76.4800033569336,226.8433380126953,1.0,0.0008455633651465178,0.03913991525769234,0.7998665571212769,0.31326666474342346,0.5020833015441895,0.37807220220565796,1.0
